;FLAVOR:Marlin
;TIME:3275
;Filament used: 2.9042m
;Layer height: 0.2
;MINX:67.126
;MINY:75.881
;MINZ:0.24
;MAXX:152.873
;MAXY:144.119
;MAXZ:9.09
;Generated with Cura_SteamEngine 4.6.1
M140 S50
M105
M190 S50
M104 S205
M105
M109 S205
M82 ;absolute extrusion mode
M201 X500.00 Y500.00 Z100.00 E5000.00 ;Setup machine max acceleration
M203 X500.00 Y500.00 Z10.00 E50.00 ;Setup machine max feedrate
M204 P500.00 R1000.00 T500.00 ;Setup Print/Retract/Travel acceleration
M205 X8.00 Y8.00 Z0.40 E5.00 ;Setup Jerk
M220 S100 ;Reset Feedrate
M221 S100 ;Reset Flowrate

G28 ;Home

G92 E0 ;Reset Extruder
G1 Z2.0 F3000 ;Move Z Axis up
G1 X10.1 Y20 Z0.28 F5000.0 ;Move to start position
G1 X10.1 Y200.0 Z0.28 F1500.0 E15 ;Draw the first line
G1 X10.4 Y200.0 Z0.28 F5000.0 ;Move to side a little
G1 X10.4 Y20 Z0.28 F1500.0 E30 ;Draw the second line
G92 E0 ;Reset Extruder
G1 Z2.0 F3000 ;Move Z Axis up

G92 E0
G92 E0
G1 F2700 E-5
;LAYER_COUNT:40
;LAYER:-6
M107
G0 F12000 X69.703 Y78.253 Z0.24
;TYPE:SUPPORT-INTERFACE
G1 F2700 E0
G1 F1800 X70.018 Y77.975 E0.03354
G1 X70.172 Y77.855 E0.04912
G1 X70.498 Y77.634 E0.08056
G1 X70.641 Y77.55 E0.0938
G1 X71.033 Y77.351 E0.12889
G1 X71.162 Y77.295 E0.14012
G1 X71.566 Y77.152 E0.17433
G1 X71.711 Y77.11 E0.18638
G1 X72.124 Y77.019 E0.22013
G1 X72.294 Y76.994 E0.23385
G1 X72.992 Y76.946 E0.2897
G1 X147.016 Y76.946 E6.19862
G1 X147.142 Y76.95 E6.20868
G1 X147.583 Y76.978 E6.24395
G1 X147.757 Y77 E6.25795
G1 X148.173 Y77.08 E6.29177
G1 X148.316 Y77.116 E6.30354
G1 X148.716 Y77.248 E6.33716
G1 X148.879 Y77.314 E6.3512
G1 X149.247 Y77.488 E6.38369
G1 X149.384 Y77.563 E6.39616
G1 X149.735 Y77.787 E6.4294
G1 X149.876 Y77.892 E6.44343
G1 X150.408 Y78.356 E6.49978
G1 X150.496 Y78.45 E6.51006
G1 X150.78 Y78.773 E6.54439
G1 X150.9 Y78.927 E6.55998
G1 X151.121 Y79.253 E6.59141
G1 X151.205 Y79.396 E6.60465
G1 X151.407 Y79.794 E6.64028
G1 X151.46 Y79.917 E6.65097
G1 X151.603 Y80.319 E6.68503
G1 X151.645 Y80.466 E6.69723
G1 X151.736 Y80.879 E6.73099
G1 X151.761 Y81.049 E6.74471
G1 X151.809 Y81.747 E6.80056
G1 X151.805 Y89.433 E7.41409
G1 X151.777 Y89.874 E7.44936
G1 X151.755 Y90.048 E7.46336
G1 X151.675 Y90.464 E7.49718
G1 X151.64 Y90.602 E7.50854
G1 X151.507 Y91.007 E7.54257
G1 X151.441 Y91.17 E7.55661
G1 X151.267 Y91.538 E7.5891
G1 X151.192 Y91.675 E7.60157
G1 X150.968 Y92.026 E7.6348
G1 X150.863 Y92.167 E7.64884
G1 X150.399 Y92.699 E7.70519
G1 X150.305 Y92.787 E7.71547
G1 X149.982 Y93.071 E7.7498
G1 X149.829 Y93.19 E7.76527
G1 X149.502 Y93.412 E7.79682
G1 X149.359 Y93.496 E7.81006
G1 X148.967 Y93.695 E7.84515
G1 X148.838 Y93.751 E7.85638
G1 X148.434 Y93.894 E7.89059
G1 X148.289 Y93.936 E7.90264
G1 X147.876 Y94.027 E7.93639
G1 X147.706 Y94.052 E7.95011
G1 X147.008 Y94.1 E8.00596
G1 X143.914 Y94.1 E8.25294
G1 X143.377 Y94.144 E8.29595
G1 X142.838 Y94.279 E8.3403
G1 X142.329 Y94.499 E8.38456
G1 X141.862 Y94.799 E8.42887
G1 X141.451 Y95.171 E8.47312
G1 X141.104 Y95.606 E8.51754
G1 X140.835 Y96.091 E8.56181
G1 X140.647 Y96.612 E8.60602
G1 X140.547 Y97.151 E8.64978
G1 X140.53 Y97.49 E8.67688
G1 X140.53 Y122.516 E10.67456
G1 X140.574 Y123.053 E10.71757
G1 X140.709 Y123.592 E10.76192
G1 X140.929 Y124.101 E10.80619
G1 X141.229 Y124.568 E10.85049
G1 X141.601 Y124.979 E10.89475
G1 X142.036 Y125.326 E10.93916
G1 X142.521 Y125.595 E10.98343
G1 X143.042 Y125.783 E11.02765
G1 X143.581 Y125.883 E11.07141
G1 X143.92 Y125.9 E11.0985
G1 X147.142 Y125.904 E11.3557
G1 X147.583 Y125.932 E11.39097
G1 X147.757 Y125.954 E11.40497
G1 X148.173 Y126.034 E11.43878
G1 X148.316 Y126.07 E11.45056
G1 X148.716 Y126.202 E11.48418
G1 X148.879 Y126.268 E11.49822
G1 X149.247 Y126.442 E11.53071
G1 X149.384 Y126.517 E11.54318
G1 X149.735 Y126.741 E11.57642
G1 X149.876 Y126.846 E11.59045
G1 X150.408 Y127.31 E11.6468
G1 X150.496 Y127.404 E11.65708
G1 X150.78 Y127.727 E11.69141
G1 X150.9 Y127.881 E11.70699
G1 X151.121 Y128.207 E11.73843
G1 X151.205 Y128.35 E11.75167
G1 X151.407 Y128.748 E11.7873
G1 X151.46 Y128.871 E11.79799
G1 X151.603 Y129.275 E11.8322
G1 X151.645 Y129.42 E11.84425
G1 X151.736 Y129.833 E11.87801
G1 X151.761 Y130.003 E11.89172
G1 X151.809 Y130.701 E11.94757
G1 X151.805 Y138.387 E12.5611
G1 X151.777 Y138.828 E12.59638
G1 X151.756 Y138.996 E12.60989
G1 X151.675 Y139.418 E12.64419
G1 X151.64 Y139.556 E12.65556
G1 X151.507 Y139.961 E12.68958
G1 X151.441 Y140.124 E12.70362
G1 X151.267 Y140.492 E12.73611
G1 X151.192 Y140.629 E12.74858
G1 X150.968 Y140.98 E12.78182
G1 X150.863 Y141.121 E12.79585
G1 X150.399 Y141.653 E12.8522
G1 X150.305 Y141.741 E12.86248
G1 X149.982 Y142.025 E12.89681
G1 X149.829 Y142.144 E12.91229
G1 X149.502 Y142.366 E12.94383
G1 X149.359 Y142.45 E12.95707
G1 X148.967 Y142.649 E12.99217
G1 X148.838 Y142.705 E13.00339
G1 X148.434 Y142.848 E13.0376
G1 X148.289 Y142.89 E13.04965
G1 X147.876 Y142.981 E13.08341
G1 X147.706 Y143.006 E13.09713
G1 X147.008 Y143.054 E13.15297
G1 X72.984 Y143.054 E19.06189
G1 X72.858 Y143.05 E19.07195
G1 X72.417 Y143.022 E19.10723
G1 X72.243 Y143 E19.12123
G1 X71.827 Y142.92 E19.15504
G1 X71.684 Y142.884 E19.16681
G1 X71.284 Y142.752 E19.20044
G1 X71.121 Y142.686 E19.21447
G1 X70.753 Y142.512 E19.24697
G1 X70.616 Y142.437 E19.25943
G1 X70.265 Y142.213 E19.29267
G1 X70.124 Y142.108 E19.30671
G1 X69.695 Y141.74 E19.35182
G1 X69.594 Y141.646 E19.36284
G1 X69.498 Y141.542 E19.37414
G1 X69.215 Y141.221 E19.40829
G1 X69.112 Y141.088 E19.42172
G1 X68.873 Y140.737 E19.45562
G1 X68.795 Y140.604 E19.46793
G1 X68.593 Y140.206 E19.50356
G1 X68.54 Y140.083 E19.51425
G1 X68.397 Y139.679 E19.54846
G1 X68.355 Y139.534 E19.56051
G1 X68.264 Y139.121 E19.59426
G1 X68.239 Y138.951 E19.60798
G1 X68.191 Y138.253 E19.66383
G1 X68.191 Y81.739 E24.17502
G1 X68.195 Y81.613 E24.18508
G1 X68.223 Y81.172 E24.22036
G1 X68.245 Y80.998 E24.23436
G1 X68.325 Y80.582 E24.26817
G1 X68.36 Y80.444 E24.27954
G1 X68.493 Y80.039 E24.31357
G1 X68.561 Y79.87 E24.32811
G1 X68.733 Y79.508 E24.3601
G1 X68.808 Y79.371 E24.37257
G1 X69.032 Y79.02 E24.4058
G1 X69.137 Y78.879 E24.41984
G1 X69.505 Y78.45 E24.46495
G1 X69.597 Y78.351 E24.47574
G1 X69.703 Y78.253 E24.48727
G1 F2700 E19.48727
G0 F12000 X68.999 Y77.454
G0 X91.914 Y95.903
G0 X91.137 Y95.17
G1 F2700 E24.48727
G1 F1800 X90.792 Y95.603 E24.53146
G1 X90.565 Y95.999 E24.5679
G1 X90.52 Y96.091 E24.57607
G1 X90.434 Y96.244 E24.59008
G1 X90.105 Y96.736 E24.63733
G1 X89.352 Y97.719 E24.73617
G1 X89.055 Y98.062 E24.77239
G1 X88.917 Y98.201 E24.78802
G1 X88.484 Y98.581 E24.83401
G1 X87.504 Y99.334 E24.93266
G1 X87.128 Y99.588 E24.96888
G1 X86.964 Y99.684 E24.98405
G1 X86.753 Y99.79 E25.0029
G1 X86.294 Y100.069 E25.04578
G1 X85.872 Y100.429 E25.09006
G1 X85.515 Y100.855 E25.13442
G1 X85.232 Y101.332 E25.1787
G1 X85.031 Y101.849 E25.22298
G1 X84.916 Y102.388 E25.26697
G1 X84.889 Y102.81 E25.30072
G1 X84.889 Y117.187 E26.44836
G1 X84.933 Y117.724 E26.49137
G1 X85.068 Y118.263 E26.53572
G1 X85.288 Y118.772 E26.57999
G1 X85.588 Y119.239 E26.62429
G1 X85.96 Y119.65 E26.66854
G1 X86.393 Y119.995 E26.71274
G1 X86.782 Y120.218 E26.74853
G1 X86.892 Y120.272 E26.75831
G1 X87.019 Y120.343 E26.76992
G1 X87.423 Y120.604 E26.80832
G1 X87.578 Y120.718 E26.82368
G1 X88.513 Y121.438 E26.91788
G1 X88.869 Y121.749 E26.95561
G1 X88.988 Y121.868 E26.96905
G1 X89.368 Y122.301 E27.01503
G1 X90.122 Y123.284 E27.11392
G1 X90.387 Y123.674 E27.15156
G1 X90.474 Y123.824 E27.1654
G1 X90.576 Y124.03 E27.18375
G1 X90.855 Y124.491 E27.22677
G1 X91.215 Y124.913 E27.27104
G1 X91.64 Y125.27 E27.31535
G1 X92.116 Y125.554 E27.3596
G1 X92.634 Y125.756 E27.40398
G1 X93.173 Y125.871 E27.44797
G1 X93.599 Y125.899 E27.48205
G1 X113.977 Y125.899 E29.10871
G1 X114.514 Y125.855 E29.15172
G1 X115.053 Y125.72 E29.19607
G1 X115.562 Y125.5 E29.24034
G1 X116.029 Y125.2 E29.28464
G1 X116.44 Y124.828 E29.3289
G1 X116.785 Y124.395 E29.37309
G1 X117.013 Y123.998 E29.40963
G1 X117.058 Y123.904 E29.41795
G1 X117.142 Y123.757 E29.43147
G1 X117.464 Y123.272 E29.47794
G1 X118.225 Y122.279 E29.5778
G1 X118.526 Y121.931 E29.61453
G1 X118.656 Y121.798 E29.62938
G1 X119.04 Y121.457 E29.67037
G1 X119.134 Y121.382 E29.67997
G1 X120.082 Y120.657 E29.77524
G1 X120.484 Y120.387 E29.81389
G1 X120.613 Y120.313 E29.82576
G1 X120.82 Y120.21 E29.84422
G1 X121.281 Y119.931 E29.88723
G1 X121.703 Y119.571 E29.93151
G1 X122.06 Y119.146 E29.97582
G1 X122.344 Y118.67 E30.02006
G1 X122.546 Y118.152 E30.06444
G1 X122.661 Y117.613 E30.10844
G1 X122.689 Y117.187 E30.14252
G1 X122.689 Y102.811 E31.29007
G1 X122.645 Y102.274 E31.33308
G1 X122.51 Y101.735 E31.37744
G1 X122.29 Y101.226 E31.4217
G1 X121.99 Y100.759 E31.46601
G1 X121.618 Y100.348 E31.51026
G1 X121.185 Y100.003 E31.55445
G1 X120.782 Y99.773 E31.59149
G1 X120.686 Y99.726 E31.60002
G1 X120.536 Y99.641 E31.61378
G1 X120.036 Y99.304 E31.66192
G1 X119.06 Y98.555 E31.76012
G1 X118.724 Y98.264 E31.7956
G1 X118.593 Y98.135 E31.81028
G1 X118.205 Y97.693 E31.85723
G1 X117.436 Y96.688 E31.95824
G1 X117.189 Y96.321 E31.99355
G1 X117.108 Y96.182 E32.0064
G1 X116.998 Y95.963 E32.02596
G1 X116.719 Y95.504 E32.06884
G1 X116.359 Y95.082 E32.11311
G1 X115.933 Y94.725 E32.15748
G1 X115.456 Y94.442 E32.20175
G1 X114.939 Y94.241 E32.24603
G1 X114.4 Y94.126 E32.29003
G1 X113.978 Y94.099 E32.32378
G1 X93.6 Y94.099 E33.95044
G1 X93.063 Y94.143 E33.99345
G1 X92.524 Y94.278 E34.0378
G1 X92.015 Y94.498 E34.08207
G1 X91.548 Y94.798 E34.12638
G1 X91.137 Y95.17 E34.17063
G0 F12000 X91.2 Y95.113
G1 F1800 X91.2 Y76.946 E35.62079
G0 F12000 X89.6 Y76.946
G1 F1800 X89.6 Y97.396 E37.2532
G0 F12000 X88 Y98.953
G1 F1800 X88 Y76.946 E39.0099
G0 F12000 X86.4 Y76.946
G1 F1800 X86.4 Y100.005 E40.85057
G1 F2700 E35.85057
G0 F12000 X87.268 Y100.722
G0 X88.208 Y100.138
G0 X89.657 Y98.967
G0 X92.869 Y95.288
G0 X92.8 Y94.209
G1 F2700 E40.85057
G1 F1800 X92.8 Y76.946 E42.22857
G0 F12000 X94.4 Y76.946
G1 F1800 X94.4 Y94.099 E43.5978
G0 F12000 X96 Y94.099
G1 F1800 X96 Y76.946 E44.96703
G0 F12000 X97.6 Y76.946
G1 F1800 X97.6 Y94.099 E46.33625
G0 F12000 X99.2 Y94.099
G1 F1800 X99.2 Y76.946 E47.70548
G0 F12000 X100.8 Y76.946
G1 F1800 X100.8 Y94.099 E49.07471
G0 F12000 X102.4 Y94.099
G1 F1800 X102.4 Y76.946 E50.44393
G0 F12000 X104 Y76.946
G1 F1800 X104 Y94.099 E51.81316
G0 F12000 X105.6 Y94.099
G1 F1800 X105.6 Y76.946 E53.18239
G0 F12000 X107.2 Y76.946
G1 F1800 X107.2 Y94.099 E54.55161
G0 F12000 X108.8 Y94.099
G1 F1800 X108.8 Y76.946 E55.92084
G0 F12000 X110.4 Y76.946
G1 F1800 X110.4 Y94.099 E57.29007
G0 F12000 X112 Y94.099
G1 F1800 X112 Y76.946 E58.65929
G0 F12000 X113.6 Y76.946
G1 F1800 X113.6 Y94.099 E60.02852
G0 F12000 X115.2 Y94.342
G1 F1800 X115.2 Y76.946 E61.41714
G0 F12000 X116.8 Y76.946
G1 F1800 X116.8 Y95.637 E62.90914
G0 F12000 X118.4 Y97.915
G1 F1800 X118.4 Y76.946 E64.58298
G0 F12000 X120 Y76.946
G1 F1800 X120 Y99.276 E66.36545
G0 F12000 X121.6 Y100.333
G1 F1800 X121.6 Y76.946 E68.2323
G0 F12000 X123.2 Y76.946
G1 F1800 X123.2 Y143.054 E73.50933
G0 F12000 X121.6 Y143.054
G1 F1800 X121.6 Y119.658 E75.3769
G0 F12000 X120 Y120.719
G1 F1800 X120 Y143.054 E77.15978
G0 F12000 X118.4 Y143.054
G1 F1800 X118.4 Y122.076 E78.83433
G0 F12000 X116.8 Y124.368
G1 F1800 X116.8 Y143.054 E80.32593
G0 F12000 X115.2 Y143.054
G1 F1800 X115.2 Y125.656 E81.71471
G0 F12000 X113.6 Y125.899
G1 F1800 X113.6 Y143.054 E83.0841
G0 F12000 X112 Y143.054
G1 F1800 X112 Y125.899 E84.45348
G0 F12000 X110.4 Y125.899
G1 F1800 X110.4 Y143.054 E85.82287
G0 F12000 X108.8 Y143.054
G1 F1800 X108.8 Y125.899 E87.19226
G0 F12000 X107.2 Y125.899
G1 F1800 X107.2 Y143.054 E88.56164
G0 F12000 X105.6 Y143.054
G1 F1800 X105.6 Y125.899 E89.93103
G0 F12000 X104 Y125.899
G1 F1800 X104 Y143.054 E91.30042
G0 F12000 X102.4 Y143.054
G1 F1800 X102.4 Y125.899 E92.6698
G0 F12000 X100.8 Y125.899
G1 F1800 X100.8 Y143.054 E94.03919
G0 F12000 X99.2 Y143.054
G1 F1800 X99.2 Y125.899 E95.40857
G0 F12000 X97.6 Y125.899
G1 F1800 X97.6 Y143.054 E96.77796
G0 F12000 X96 Y143.054
G1 F1800 X96 Y125.899 E98.14735
G0 F12000 X94.4 Y125.899
G1 F1800 X94.4 Y143.054 E99.51673
G0 F12000 X92.8 Y143.054
G1 F1800 X92.8 Y125.792 E100.89466
G0 F12000 X91.2 Y124.896
G1 F1800 X91.2 Y143.054 E102.34411
G0 F12000 X89.6 Y143.054
G1 F1800 X89.6 Y122.604 E103.97652
G0 F12000 X88 Y121.043
G1 F1800 X88 Y143.054 E105.73353
G0 F12000 X86.4 Y143.054
G1 F1800 X86.4 Y120 E107.5738
G1 F2700 E102.5738
G0 F12000 X86.992 Y119.112
G0 X84.8 Y144.119
G0 X84.8 Y143.054
G1 F2700 E107.5738
G1 F1800 X84.8 Y76.946 E112.85083
G0 F12000 X83.2 Y76.946
G1 F1800 X83.2 Y143.054 E118.12785
G0 F12000 X81.6 Y143.054
G1 F1800 X81.6 Y76.946 E123.40488
G0 F12000 X80 Y76.946
G1 F1800 X80 Y143.054 E128.68191
G0 F12000 X78.4 Y143.054
G1 F1800 X78.4 Y76.946 E133.95893
G0 F12000 X76.8 Y76.946
G1 F1800 X76.8 Y143.054 E139.23596
G0 F12000 X75.2 Y143.054
G1 F1800 X75.2 Y76.946 E144.51299
G0 F12000 X73.6 Y76.946
G1 F1800 X73.6 Y143.054 E149.79001
G0 F12000 X72 Y142.953
G1 F1800 X72 Y77.046 E155.05099
G0 F12000 X70.4 Y77.7
G1 F1800 X70.4 Y142.299 E160.20757
G0 F12000 X68.8 Y140.612
G1 F1800 X68.8 Y79.385 E165.09497
G1 F2700 E160.09497
G0 F12000 X68.155 Y78.418
G0 X68.986 Y77.466
G0 X69.94 Y76.727
G0 X70.774 Y76.303
G0 X71.93 Y75.971
G0 X72.765 Y75.899
G0 X124.8 Y75.881
G0 X124.8 Y76.946
G1 F2700 E165.09497
G1 F1800 X124.8 Y143.054 E170.372
G0 F12000 X126.4 Y143.054
G1 F1800 X126.4 Y76.946 E175.64902
G0 F12000 X128 Y76.946
G1 F1800 X128 Y143.054 E180.92605
G0 F12000 X129.6 Y143.054
G1 F1800 X129.6 Y76.946 E186.20308
G0 F12000 X131.2 Y76.946
G1 F1800 X131.2 Y143.054 E191.4801
G0 F12000 X132.8 Y143.054
G1 F1800 X132.8 Y76.946 E196.75713
G0 F12000 X134.4 Y76.946
G1 F1800 X134.4 Y143.054 E202.03416
G0 F12000 X136 Y143.054
G1 F1800 X136 Y76.946 E207.31118
G0 F12000 X137.6 Y76.946
G1 F1800 X137.6 Y143.054 E212.58821
G0 F12000 X139.2 Y143.054
G1 F1800 X139.2 Y76.946 E217.86523
G0 F12000 X140.8 Y76.946
G1 F1800 X140.8 Y96.188 E219.40121
G0 F12000 X142.4 Y94.469
G1 F1800 X142.4 Y76.946 E220.79998
G0 F12000 X144 Y76.946
G1 F1800 X144 Y94.1 E222.16928
G0 F12000 X145.6 Y94.1
G1 F1800 X145.6 Y76.946 E223.53859
G0 F12000 X147.2 Y76.954
G1 F1800 X147.2 Y94.087 E224.90622
G0 F12000 X148.8 Y93.765
G1 F1800 X148.8 Y77.283 E226.22188
G0 F12000 X150.4 Y78.35
G1 F1800 X150.4 Y92.698 E227.3672
G1 F2700 E222.3672
G0 F12000 X150.652 Y93.899
G0 X141.719 Y123.247
G0 X140.8 Y123.803
G1 F2700 E227.3672
G1 F1800 X140.8 Y143.054 E228.9039
G0 F12000 X142.4 Y143.054
G1 F1800 X142.4 Y125.528 E230.3029
G0 F12000 X144 Y125.901
G1 F1800 X144 Y143.054 E231.67213
G0 F12000 X145.6 Y143.054
G1 F1800 X145.6 Y125.903 E233.0412
G0 F12000 X147.2 Y125.908
G1 F1800 X147.2 Y143.041 E234.40883
G0 F12000 X148.8 Y142.719
G1 F1800 X148.8 Y126.237 E235.72449
G0 F12000 X150.4 Y127.304
G1 F1800 X150.4 Y141.652 E236.86981
G1 F2700 E231.86981
G0 F300 X150.4 Y141.652 Z0.54
G0 F12000 X151.283 Y142.265
G0 X151.845 Y141.582
G0 X152.419 Y140.545
G0 X152.717 Y139.639
G0 X152.873 Y138.284
G0 X152.866 Y130.506
G0 X152.821 Y130.015
G0 X152.619 Y128.954
G0 X151.406 Y128.747
;TIME_ELAPSED:119.618759
;LAYER:-5
M140 S50
;TYPE:SUPPORT
G1 F2700 E236.86981
G1 F1800 X151.204 Y128.35 E236.91426
G1 X151.12 Y128.206 E236.93089
G1 X150.898 Y127.88 E236.97024
G1 X150.779 Y127.727 E236.98958
G1 X150.494 Y127.403 E237.03264
G1 X150.407 Y127.31 E237.04535
G1 X149.875 Y126.846 E237.11578
G1 X149.734 Y126.741 E237.13333
G1 X149.383 Y126.516 E237.17493
G1 X149.246 Y126.442 E237.19046
G1 X148.911 Y126.283 E237.22746
G1 X151.429 Y128.802 E237.58285
G1 X151.458 Y128.87 E237.59023
G1 X151.602 Y129.274 E237.63302
G1 X151.643 Y129.419 E237.64806
G1 X151.735 Y129.833 E237.69038
G1 X151.76 Y130.002 E237.70742
G1 X151.8 Y130.587 E237.76593
G1 X147.117 Y125.903 E238.42682
G1 X145.701 Y125.902 E238.56811
G1 X151.807 Y132.008 E239.42973
G1 X151.806 Y133.421 E239.57072
G1 X144.285 Y125.9 E240.63202
G1 X143.919 Y125.899 E240.66854
G1 X143.58 Y125.882 E240.70241
G1 X143.04 Y125.782 E240.7572
G1 X142.591 Y125.621 E240.8048
G1 X151.805 Y134.835 E242.10499
G1 X151.805 Y136.248 E242.24598
G1 X122.687 Y107.131 E246.35478
G1 X122.687 Y108.545 E246.49587
G1 X151.804 Y137.662 E250.60459
G1 X151.803 Y138.387 E250.67693
G1 X151.776 Y138.827 E250.72092
G1 X151.755 Y138.995 E250.73781
