;FLAVOR:Marlin
;TIME:6650
;Filament used: 2.58746m
;Layer height: 0.2
;MINX:95.186
;MINY:96.086
;MINZ:0.24
;MAXX:124.814
;MAXY:123.914
;MAXZ:101.09
;Generated with Cura_SteamEngine 4.6.1
M140 S50
M105
M190 S50
M104 S205
M105
M109 S205
M82 ;absolute extrusion mode
M201 X500.00 Y500.00 Z100.00 E5000.00 ;Setup machine max acceleration
M203 X500.00 Y500.00 Z10.00 E50.00 ;Setup machine max feedrate
M204 P500.00 R1000.00 T500.00 ;Setup Print/Retract/Travel acceleration
M205 X8.00 Y8.00 Z0.40 E5.00 ;Setup Jerk
M220 S100 ;Reset Feedrate
M221 S100 ;Reset Flowrate

G28 ;Home

G92 E0 ;Reset Extruder
G1 Z2.0 F3000 ;Move Z Axis up
G1 X10.1 Y20 Z0.28 F5000.0 ;Move to start position
G1 X10.1 Y200.0 Z0.28 F1500.0 E15 ;Draw the first line
G1 X10.4 Y200.0 Z0.28 F5000.0 ;Move to side a little
G1 X10.4 Y20 Z0.28 F1500.0 E30 ;Draw the second line
G92 E0 ;Reset Extruder
G1 Z2.0 F3000 ;Move Z Axis up

G92 E0
G92 E0
G1 F2700 E-5
;LAYER_COUNT:501
;LAYER:-6
M107
G0 F12000 X97.656 Y98.555 Z0.24
;TYPE:SUPPORT-INTERFACE
G1 F2700 E0
G1 F1800 X97.762 Y98.457 E0.01152
G1 X98.077 Y98.179 E0.04506
G1 X98.231 Y98.059 E0.06064
G1 X98.557 Y97.838 E0.09208
G1 X98.7 Y97.754 E0.10532
G1 X99.092 Y97.555 E0.14041
G1 X99.221 Y97.499 E0.15164
G1 X99.625 Y97.356 E0.18585
G1 X99.77 Y97.314 E0.1979
G1 X100.183 Y97.223 E0.23166
G1 X100.353 Y97.198 E0.24537
G1 X101.051 Y97.15 E0.30122
G1 X105.283 Y97.154 E0.63904
G1 X105.724 Y97.182 E0.67431
G1 X105.898 Y97.204 E0.68831
G1 X106.314 Y97.284 E0.72213
G1 X106.457 Y97.32 E0.7339
G1 X106.857 Y97.452 E0.76752
G1 X107.02 Y97.518 E0.78156
G1 X107.388 Y97.692 E0.81405
G1 X107.525 Y97.767 E0.82652
G1 X107.876 Y97.991 E0.85976
G1 X108.017 Y98.096 E0.87379
G1 X108.549 Y98.56 E0.93014
G1 X108.637 Y98.654 E0.94042
G1 X108.921 Y98.977 E0.97475
G1 X109.041 Y99.131 E0.99034
G1 X109.262 Y99.457 E1.02178
G1 X109.346 Y99.6 E1.03501
G1 X109.548 Y99.998 E1.07064
G1 X109.601 Y100.121 E1.08133
G1 X109.744 Y100.523 E1.11539
G1 X109.786 Y100.67 E1.1276
G1 X109.877 Y101.083 E1.16135
G1 X109.902 Y101.253 E1.17507
G1 X109.95 Y101.951 E1.23092
G1 X109.947 Y102.468 E1.27219
G1 X109.918 Y102.923 E1.30858
G1 X109.896 Y103.097 E1.32258
G1 X109.819 Y103.499 E1.35526
G1 X109.775 Y103.671 E1.36943
G1 X109.659 Y104.024 E1.39909
G1 X109.533 Y104.548 E1.44211
G1 X109.494 Y105.101 E1.48636
G1 X109.545 Y105.654 E1.53069
G1 X109.686 Y106.188 E1.57478
G1 X109.747 Y106.361 E1.58942
G1 X109.785 Y106.495 E1.60054
G1 X109.878 Y106.915 E1.63488
G1 X109.978 Y107.604 E1.69045
G1 X109.997 Y107.601 E1.69199
G1 X110.15 Y108.069 E1.73129
G1 X110.406 Y108.561 E1.77556
G1 X110.74 Y109.005 E1.81991
G1 X111.14 Y109.388 E1.86412
G1 X111.598 Y109.702 E1.90845
G1 X112.1 Y109.938 E1.95273
G1 X112.637 Y110.089 E1.99725
G1 X113.267 Y110.15 E2.04778
G1 X119.083 Y110.154 E2.51204
G1 X119.524 Y110.182 E2.54731
G1 X119.698 Y110.204 E2.56131
G1 X120.114 Y110.284 E2.59513
G1 X120.257 Y110.32 E2.6069
G1 X120.657 Y110.452 E2.64052
G1 X120.82 Y110.518 E2.65456
G1 X121.188 Y110.692 E2.68705
G1 X121.325 Y110.767 E2.69952
G1 X121.676 Y110.991 E2.73276
G1 X121.817 Y111.096 E2.74679
G1 X122.349 Y111.56 E2.80314
G1 X122.437 Y111.654 E2.81342
G1 X122.721 Y111.977 E2.84775
G1 X122.841 Y112.131 E2.86333
G1 X123.067 Y112.464 E2.89546
G1 X123.141 Y112.589 E2.90705
G1 X123.348 Y112.998 E2.94365
G1 X123.401 Y113.121 E2.95434
G1 X123.549 Y113.538 E2.98966
G1 X123.583 Y113.657 E2.99954
G1 X123.677 Y114.083 E3.03436
G1 X123.702 Y114.253 E3.04808
G1 X123.75 Y114.951 E3.10393
G1 X123.746 Y118.183 E3.36192
G1 X123.718 Y118.624 E3.39719
G1 X123.696 Y118.798 E3.41119
G1 X123.616 Y119.214 E3.44501
G1 X123.581 Y119.352 E3.45637
G1 X123.448 Y119.757 E3.4904
G1 X123.382 Y119.92 E3.50444
G1 X123.208 Y120.288 E3.53693
G1 X123.136 Y120.419 E3.54886
G1 X122.909 Y120.776 E3.58263
G1 X122.804 Y120.917 E3.59667
G1 X122.34 Y121.449 E3.65302
G1 X122.246 Y121.537 E3.66329
G1 X121.923 Y121.821 E3.69763
G1 X121.77 Y121.94 E3.7131
G1 X121.443 Y122.162 E3.74465
G1 X121.3 Y122.246 E3.75789
G1 X120.908 Y122.445 E3.79298
G1 X120.779 Y122.501 E3.8042
G1 X120.375 Y122.644 E3.83841
G1 X120.23 Y122.686 E3.85046
G1 X119.817 Y122.777 E3.88422
G1 X119.647 Y122.802 E3.89794
G1 X118.949 Y122.85 E3.95379
G1 X105.699 Y122.846 E5.01146
G1 X105.258 Y122.818 E5.04673
G1 X105.084 Y122.796 E5.06073
G1 X104.668 Y122.716 E5.09455
G1 X104.525 Y122.68 E5.10632
G1 X104.125 Y122.548 E5.13994
G1 X103.962 Y122.482 E5.15398
G1 X103.594 Y122.308 E5.18647
G1 X103.457 Y122.233 E5.19894
G1 X103.108 Y122.009 E5.23204
G1 X102.964 Y121.904 E5.24627
G1 X102.654 Y121.644 E5.27857
G1 X102.524 Y121.522 E5.2928
G1 X102.244 Y121.22 E5.32567
G1 X102.134 Y121.085 E5.33957
G1 X101.896 Y120.752 E5.37225
G1 X101.811 Y120.618 E5.38491
G1 X101.608 Y120.24 E5.41916
G1 X101.549 Y120.112 E5.43041
G1 X101.388 Y119.7 E5.46572
G1 X101.342 Y119.552 E5.47809
G1 X101.246 Y119.164 E5.51
G1 X101.216 Y118.982 E5.52472
G1 X101.155 Y118.301 E5.5793
G1 X101.149 Y118.168 E5.58993
G1 X101.148 Y116.244 E5.74351
G1 X101.104 Y115.709 E5.78636
G1 X100.969 Y115.17 E5.83072
G1 X100.748 Y114.661 E5.87501
G1 X100.448 Y114.194 E5.91932
G1 X100.076 Y113.782 E5.96363
G1 X99.642 Y113.438 E6.00783
G1 X99.219 Y113.198 E6.04666
G1 X98.819 Y113.009 E6.08197
G1 X98.669 Y112.926 E6.09566
G1 X98.324 Y112.706 E6.12832
G1 X98.183 Y112.601 E6.14235
G1 X97.754 Y112.233 E6.18747
G1 X97.653 Y112.139 E6.19848
G1 X97.556 Y112.035 E6.20983
G1 X97.27 Y111.71 E6.24439
G1 X97.156 Y111.562 E6.2593
G1 X96.936 Y111.237 E6.29063
G1 X96.854 Y111.097 E6.30358
G1 X96.659 Y110.713 E6.33796
G1 X96.593 Y110.559 E6.35134
G1 X96.456 Y110.172 E6.38411
G1 X96.414 Y110.027 E6.39616
G1 X96.323 Y109.614 E6.42992
G1 X96.298 Y109.444 E6.44363
G1 X96.25 Y108.746 E6.49948
G1 X96.254 Y107.648 E6.58713
G1 X96.281 Y107.218 E6.62152
G1 X96.306 Y107.023 E6.63721
G1 X96.384 Y106.616 E6.67029
G1 X96.419 Y106.479 E6.68158
G1 X96.554 Y106.068 E6.71611
G1 X96.68 Y105.545 E6.75906
G1 X96.72 Y104.991 E6.80339
G1 X96.669 Y104.435 E6.84796
G1 X96.638 Y104.323 E6.85724
G1 X96.654 Y104.319 E6.85855
G1 X96.439 Y103.629 E6.91625
G1 X96.353 Y103.279 E6.94502
G1 X96.315 Y103.051 E6.96347
G1 X96.256 Y102.392 E7.01628
G1 X96.25 Y102.259 E7.02691
G1 X96.254 Y101.817 E7.06219
G1 X96.282 Y101.376 E7.09747
G1 X96.304 Y101.202 E7.11147
G1 X96.384 Y100.786 E7.14528
G1 X96.419 Y100.648 E7.15665
G1 X96.552 Y100.243 E7.19067
G1 X96.62 Y100.074 E7.20521
G1 X96.792 Y99.712 E7.23721
G1 X96.867 Y99.575 E7.24967
G1 X97.091 Y99.224 E7.28291
G1 X97.196 Y99.083 E7.29694
G1 X97.564 Y98.654 E7.34206
G1 X97.656 Y98.555 E7.35285
G0 F12000 X97.6 Y98.615
G1 F1800 X97.6 Y112.082 E8.42784
G0 F12000 X99.2 Y113.189
G1 F1800 X99.2 Y97.508 E9.67957
G0 F12000 X100.8 Y97.167
G1 F1800 X100.8 Y114.78 E11.08552
G1 F2700 E6.08552
G0 F12000 X99.958 Y115.513
G0 X100.16 Y119.119
G0 X100.384 Y120.054
G0 X100.797 Y120.948
G0 X101.295 Y121.74
G0 X102.4 Y121.388
G1 F2700 E11.08552
G1 F1800 X102.4 Y97.152 E13.02014
G0 F12000 X104 Y97.153
G1 F1800 X104 Y122.497 E15.04321
G0 F12000 X105.6 Y122.839
G1 F1800 X105.6 Y97.175 E17.09182
G0 F12000 X107.2 Y97.604
G1 F1800 X107.2 Y122.846 E19.10674
G0 F12000 X108.8 Y122.846
G1 F1800 X108.8 Y98.84 E21.02301
G1 F2700 E16.02301
G0 F12000 X109.895 Y98.494
G0 X110.507 Y99.534
G0 X110.818 Y100.408
G0 X110.961 Y101.135
G0 X111.134 Y107.655
G0 X110.4 Y108.55
G1 F2700 E21.02301
G1 F1800 X110.4 Y122.847 E22.16425
G0 F12000 X112 Y122.847
G1 F1800 X112 Y109.891 E23.19846
G0 F12000 X113.6 Y110.151
G1 F1800 X113.6 Y122.848 E24.21199
G0 F12000 X115.2 Y122.848
G1 F1800 X115.2 Y110.152 E25.22544
G0 F12000 X116.8 Y110.153
G1 F1800 X116.8 Y122.849 E26.23889
G0 F12000 X118.4 Y122.849
G1 F1800 X118.4 Y110.154 E27.25226
G0 F12000 X120 Y110.263
G1 F1800 X120 Y122.737 E28.24799
G0 F12000 X121.6 Y122.056
G1 F1800 X121.6 Y110.943 E29.13507
G0 F12000 X123.2 Y112.706
G1 F1800 X123.2 Y120.303 E29.7415
G1 F2700 E24.7415
G0 F300 X123.2 Y120.303 Z0.54
G0 F12000 X124.36 Y120.341
G0 X124.658 Y119.435
G0 X124.814 Y118.08
G0 X124.809 Y115.389
G0 X124.725 Y113.889
G0 X123.59 Y113.69
;TIME_ELAPSED:21.053535
;LAYER:-5
M140 S50
;TYPE:SUPPORT
G1 F2700 E29.7415
G1 F1800 X120.207 Y110.307 E30.21888
G1 X120.112 Y110.283 E30.22865
G1 X119.697 Y110.204 E30.27081
G1 X119.522 Y110.182 E30.2884
G1 X119.082 Y110.154 E30.3324
G1 X118.639 Y110.154 E30.3766
G1 X123.749 Y115.264 E31.09768
G1 X123.747 Y116.676 E31.23857
G1 X117.224 Y110.153 E32.15903
G1 X115.809 Y110.152 E32.30022
G1 X123.745 Y118.088 E33.42008
G1 X123.745 Y118.182 E33.42946
G1 X123.717 Y118.623 E33.47355
G1 X123.695 Y118.798 E33.49115
G1 X123.614 Y119.213 E33.53334
G1 X123.583 Y119.341 E33.54648
G1 X114.393 Y110.15 E34.84336
G1 X113.266 Y110.149 E34.95581
G1 X112.947 Y110.119 E34.98778
G1 X123.175 Y120.346 E36.43099
G1 X123.135 Y120.418 E36.43921
G1 X122.908 Y120.775 E36.48142
G1 X122.803 Y120.916 E36.49896
G1 X122.583 Y121.169 E36.53242
G1 X99.01 Y97.596 E39.85882
G1 X98.698 Y97.753 E39.89367
G1 X98.556 Y97.838 E39.91019
G1 X98.229 Y98.058 E39.94951
G1 X98.133 Y98.133 E39.96167
G1 X121.864 Y121.864 E43.31037
G1 X121.769 Y121.939 E43.32244
G1 X121.442 Y122.161 E43.36188
G1 X121.3 Y122.245 E43.37834
G1 X120.988 Y122.403 E43.41324
G1 X97.413 Y98.828 E46.73993
G1 X97.196 Y99.082 E46.77326
G1 X97.09 Y99.223 E46.79086
G1 X96.867 Y99.574 E46.83236
G1 X96.824 Y99.652 E46.84124
G1 X119.923 Y122.752 E50.10083
G1 X119.816 Y122.776 E50.11177
G1 X119.647 Y122.801 E50.12882
G1 X118.948 Y122.849 E50.19873
G1 X118.605 Y122.848 E50.23296
G1 X96.415 Y100.658 E53.3642
G1 X96.384 Y100.785 E53.37725
G1 X96.303 Y101.201 E53.41954
G1 X96.281 Y101.375 E53.43704
G1 X96.254 Y101.816 E53.48112
G1 X96.252 Y101.909 E53.4904
G1 X117.191 Y122.848 E56.44512
G1 X115.776 Y122.847 E56.58631
G1 X96.399 Y103.47 E59.32062
G1 X96.438 Y103.628 E59.33685
G1 X96.654 Y104.318 E59.409
G1 X96.637 Y104.322 E59.41074
G1 X96.669 Y104.434 E59.42236
G1 X96.72 Y104.99 E59.47807
G1 X96.705 Y105.19 E59.49809
G1 X114.361 Y122.847 E61.98961
G1 X112.947 Y122.847 E62.1307
G1 X96.457 Y106.357 E64.45761
G1 X96.418 Y106.478 E64.4703
G1 X96.383 Y106.615 E64.48441
G1 X96.305 Y107.022 E64.52576
G1 X96.281 Y107.217 E64.54536
G1 X96.258 Y107.572 E64.58086
G1 X111.532 Y122.846 E66.73619
G1 X110.118 Y122.846 E66.87727
G1 X96.266 Y108.994 E68.83194
G1 X96.298 Y109.443 E68.87686
G1 X96.322 Y109.613 E68.89399
G1 X96.414 Y110.025 E68.93611
G1 X96.456 Y110.171 E68.95127
G1 X96.592 Y110.558 E68.9922
G1 X96.659 Y110.712 E69.00896
G1 X96.75 Y110.892 E69.02908
G1 X98.907 Y113.05 E69.33353
G1 X98.819 Y113.008 E69.34326
G1 X98.668 Y112.925 E69.36045
G1 X98.323 Y112.705 E69.40128
G1 X98.182 Y112.6 E69.41882
G1 X97.753 Y112.232 E69.47522
G1 X97.652 Y112.138 E69.48898
G1 X97.555 Y112.034 E69.50317
G1 X97.27 Y111.709 E69.54631
G1 X97.155 Y111.56 E69.56509
G1 X96.935 Y111.236 E69.60416
G1 X96.853 Y111.096 E69.62035
G0 F12000 X99.219 Y113.197
G1 F1800 X99.641 Y113.437 E69.66879
G1 X100.076 Y113.781 E69.72413
G1 X100.448 Y114.192 E69.77944
G1 X100.748 Y114.66 E69.83491
G1 X100.924 Y115.066 E69.87906
G1 X108.703 Y122.845 E70.97676
G1 X107.288 Y122.844 E71.11795
G1 X101.148 Y116.704 E71.98437
G1 X101.148 Y118.118 E72.12546
G1 X105.874 Y122.844 E72.79235
G1 X105.699 Y122.844 E72.80981
G1 X105.258 Y122.817 E72.8539
G1 X105.083 Y122.795 E72.8715
G1 X104.668 Y122.714 E72.91369
G1 X104.525 Y122.679 E72.92838
G1 X104.181 Y122.566 E72.96451
G1 X101.434 Y119.819 E73.35214
G0 F12000 X101.548 Y120.111
G1 F1800 X101.608 Y120.239 E73.36625
G1 X101.811 Y120.617 E73.40906
G1 X101.895 Y120.751 E73.42484
G1 X102.133 Y121.084 E73.46568
G1 X102.243 Y121.219 E73.48305
G1 X102.524 Y121.521 E73.52421
G1 X102.654 Y121.642 E73.54194
G1 X102.963 Y121.903 E73.58229
G1 X103.107 Y122.008 E73.60008
G1 X103.456 Y122.231 E73.6414
G1 X103.593 Y122.306 E73.65699
G1 X103.962 Y122.481 E73.69774
G1 X104.125 Y122.547 E73.71528
G1 X104.181 Y122.566 E73.72118
G1 F2700 E68.72118
G0 F12000 X103.849 Y123.578
G0 X104.913 Y123.848
G0 X105.802 Y123.914
G0 X119.144 Y123.907
G0 X120.011 Y123.825
G0 X121.167 Y123.493
G0 X122.001 Y123.069
G0 X122.955 Y122.33
G0 X123.786 Y121.378
G0 X124.36 Y120.341
G0 X124.658 Y119.435
G0 X124.814 Y118.08
G0 X124.807 Y114.756
G0 X124.725 Y113.889
G0 X124.393 Y112.733
G0 X123.968 Y111.898
G0 X123.23 Y110.945
G0 X122.278 Y110.114
G0 X121.241 Y109.54
G0 X120.335 Y109.242
G0 X119.238 Y109.116
G0 X112.835 Y109.038
G0 X112.636 Y110.089
G1 F2700 E73.72118
G1 F1800 X112.099 Y109.938 E73.77684
G1 X111.597 Y109.701 E73.83224
G1 X111.138 Y109.388 E73.88767
G1 X110.739 Y109.005 E73.94286
G1 X110.405 Y108.561 E73.99829
G1 X110.149 Y108.069 E74.05363
G1 X109.996 Y107.601 E74.10276
G1 X109.977 Y107.603 E74.10467
G1 X109.9 Y107.072 E74.15821
G1 X100.075 Y97.246 E75.54469
G1 X100.182 Y97.222 E75.55563
G1 X100.351 Y97.198 E75.57266
G1 X101.05 Y97.15 E75.64258
G1 X101.393 Y97.15 E75.6768
G1 X109.508 Y105.266 E76.82198
G1 X109.493 Y105.1 E76.83862
G1 X109.532 Y104.548 E76.89383
G1 X109.658 Y104.023 E76.9477
G1 X109.663 Y104.006 E76.94947
G1 X102.809 Y97.152 E77.91665
G1 X104.224 Y97.152 E78.05783
G1 X109.922 Y102.851 E78.86195
G1 X109.946 Y102.468 E78.90025
G1 X109.949 Y101.95 E78.95193
G1 X109.914 Y101.428 E79.00414
G1 X105.663 Y97.178 E79.60393
G1 X105.723 Y97.181 E79.60992
G1 X105.897 Y97.203 E79.62742
G1 X106.313 Y97.283 E79.66969
G1 X106.456 Y97.32 E79.68443
G1 X106.856 Y97.452 E79.72646
G1 X107.019 Y97.518 E79.744
G1 X107.387 Y97.691 E79.78458
G1 X107.524 Y97.767 E79.80021
G1 X107.874 Y97.99 E79.84162
G1 X107.934 Y98.035 E79.8491
G1 X109.061 Y99.161 E80.00807
G0 F12000 X109.04 Y99.13
G1 F1800 X108.92 Y98.977 E80.02747
G1 X108.636 Y98.653 E80.07046
G1 X108.548 Y98.56 E80.08323
G1 X108.016 Y98.095 E80.15374
G1 X107.934 Y98.035 E80.16387
G1 F2700 E75.16387
G0 F12000 X108.685 Y97.267
G0 X109.107 Y97.651
G0 X120.335 Y109.242
G0 X120.207 Y110.307
G1 F2700 E80.16387
G1 F1800 X120.256 Y110.319 E80.16891
G1 X120.656 Y110.451 E80.21094
G1 X120.819 Y110.517 E80.22848
G1 X121.186 Y110.691 E80.26901
G1 X121.323 Y110.766 E80.28459
G1 X121.675 Y110.991 E80.32628
G1 X121.816 Y111.096 E80.34382
G1 X122.347 Y111.56 E80.41418
G1 X122.436 Y111.654 E80.4271
G1 X122.72 Y111.976 E80.46994
G1 X122.84 Y112.13 E80.48942
G1 X123.066 Y112.463 E80.52958
G1 X123.14 Y112.589 E80.54416
G1 X123.346 Y112.997 E80.58976
G1 X123.4 Y113.12 E80.60317
G1 X123.547 Y113.538 E80.64738
G1 X123.582 Y113.657 E80.65975
G0 F300 X123.582 Y113.657 Z0.74
G0 F12000 X122.995 Y112.002
;TIME_ELAPSED:42.546265
;LAYER:-4
;TYPE:SUPPORT-INTERFACE
G1 F2400 X123.241 Y112.365 E80.67434
G1 X123.262 Y112.4 E80.6757
G1 X97.646 Y112.4 E81.52769
G1 X98.048 Y112.749 E81.5454
G1 X98.116 Y112.8 E81.54822
G1 X123.474 Y112.8 E82.39163
G1 X123.522 Y112.896 E82.3952
G1 X123.591 Y113.055 E82.40097
G1 X123.643 Y113.2 E82.40609
G1 X98.757 Y113.2 E83.2338
G1 X99.126 Y113.375 E83.24739
G1 X99.521 Y113.6 E83.26251
G1 X123.776 Y113.6 E84.06923
G1 X123.779 Y113.613 E84.06967
G1 X123.865 Y114 E84.08286
G1 X100.002 Y114 E84.87655
G1 X100.288 Y114.316 E84.89072
G1 X100.342 Y114.4 E84.89404
G1 X123.914 Y114.4 E85.67805
G1 X123.941 Y114.8 E85.69139
G1 X100.59 Y114.8 E86.46804
G1 X100.764 Y115.2 E86.48255
G1 X123.949 Y115.2 E87.25369
G1 X123.949 Y115.6 E87.26699
G1 X100.87 Y115.6 E88.0346
G1 X100.906 Y115.741 E88.03944
G1 X100.927 Y116 E88.04808
G1 X123.948 Y116 E88.81377
G1 X123.948 Y116.4 E88.82707
G1 X100.948 Y116.4 E89.59205
G1 X100.948 Y116.8 E89.60536
G1 X123.947 Y116.8 E90.37031
G1 X123.947 Y117.2 E90.38361
G1 X100.948 Y117.2 E91.14856
G1 X100.948 Y117.6 E91.16187
G1 X123.946 Y117.6 E91.92678
G1 X123.946 Y118 E91.94009
G1 X100.948 Y118 E92.705
G1 X100.949 Y118.186 E92.71119
G1 X100.966 Y118.4 E92.71833
G1 X123.932 Y118.4 E93.48218
G1 X123.916 Y118.65 E93.49051
G1 X123.898 Y118.8 E93.49554
G1 X100.999 Y118.8 E94.25716
G1 X101.016 Y119.009 E94.26414
G1 X101.048 Y119.198 E94.27051
G0 F12000 X101.048 Y119.2
G1 F2400 X123.821 Y119.2 E95.02795
G1 X123.814 Y119.239 E95.02926
G1 X123.766 Y119.426 E95.03568
G1 X123.708 Y119.6 E95.04178
G1 X101.147 Y119.6 E95.79217
G1 X101.15 Y119.611 E95.79255
G1 X101.201 Y119.774 E95.79823
G1 X101.288 Y120 E95.80628
G1 X123.563 Y120 E96.54715
G1 X123.38 Y120.386 E96.56136
