;FLAVOR:Marlin
;TIME:3490
;Filament used: 2.26146m
;Layer height: 0.2
;MINX:84.261
;MINY:81.416
;MINZ:0.24
;MAXX:135.739
;MAXY:138.584
;MAXZ:13.09
;Generated with Cura_SteamEngine 4.6.1
M140 S50
M105
M190 S50
M104 S205
M105
M109 S205
M82 ;absolute extrusion mode
M201 X500.00 Y500.00 Z100.00 E5000.00 ;Setup machine max acceleration
M203 X500.00 Y500.00 Z10.00 E50.00 ;Setup machine max feedrate
M204 P500.00 R1000.00 T500.00 ;Setup Print/Retract/Travel acceleration
M205 X8.00 Y8.00 Z0.40 E5.00 ;Setup Jerk
M220 S100 ;Reset Feedrate
M221 S100 ;Reset Flowrate

G28 ;Home

G92 E0 ;Reset Extruder
G1 Z2.0 F3000 ;Move Z Axis up
G1 X10.1 Y20 Z0.28 F5000.0 ;Move to start position
G1 X10.1 Y200.0 Z0.28 F1500.0 E15 ;Draw the first line
G1 X10.4 Y200.0 Z0.28 F5000.0 ;Move to side a little
G1 X10.4 Y20 Z0.28 F1500.0 E30 ;Draw the second line
G92 E0 ;Reset Extruder
G1 Z2.0 F3000 ;Move Z Axis up

G92 E0
G92 E0
G1 F2700 E-5
;LAYER_COUNT:60
;LAYER:-6
M107
G0 F12000 X86.731 Y83.885 Z0.24
;TYPE:SUPPORT-INTERFACE
G1 F2700 E0
G1 F1800 X86.837 Y83.787 E0.01152
G1 X87.152 Y83.509 E0.04506
G1 X87.306 Y83.389 E0.06064
G1 X87.632 Y83.168 E0.09208
G1 X87.775 Y83.084 E0.10532
G1 X88.167 Y82.885 E0.14041
G1 X88.296 Y82.829 E0.15164
G1 X88.7 Y82.686 E0.18585
G1 X88.845 Y82.644 E0.1979
G1 X89.258 Y82.553 E0.23166
G1 X89.428 Y82.528 E0.24537
G1 X90.128 Y82.48 E0.30138
G1 X95.72 Y82.483 E0.74776
G1 X96.193 Y82.513 E0.78559
G1 X96.367 Y82.535 E0.79959
G1 X96.783 Y82.615 E0.83341
G1 X96.925 Y82.651 E0.8451
G1 X97.33 Y82.785 E0.87915
G1 X97.479 Y82.844 E0.89195
G1 X97.858 Y83.024 E0.92544
G1 X97.991 Y83.097 E0.93755
G1 X98.344 Y83.324 E0.97105
G1 X98.492 Y83.433 E0.98572
G1 X99.022 Y83.896 E1.0419
G1 X99.119 Y84 E1.05325
G1 X99.396 Y84.315 E1.08674
G1 X99.516 Y84.469 E1.10232
G1 X99.737 Y84.795 E1.13376
G1 X99.821 Y84.938 E1.147
G1 X100.023 Y85.336 E1.18262
G1 X100.076 Y85.459 E1.19332
G1 X100.219 Y85.863 E1.22753
G1 X100.261 Y86.008 E1.23958
G1 X100.352 Y86.421 E1.27333
G1 X100.377 Y86.591 E1.28705
G1 X100.425 Y87.289 E1.3429
G1 X100.423 Y89.598 E1.52721
G1 X100.403 Y89.916 E1.55265
G1 X100.406 Y90.361 E1.58817
G1 X100.425 Y90.656 E1.61177
G1 X100.423 Y92.12 E1.72863
G1 X100.405 Y92.408 E1.75166
G1 X100.412 Y92.91 E1.79174
G1 X100.419 Y92.983 E1.79759
G1 X100.425 Y93.116 E1.80822
G1 X100.421 Y95.336 E1.98543
G1 X100.393 Y95.777 E2.02071
G1 X100.371 Y95.951 E2.03471
G1 X100.291 Y96.367 E2.06852
G1 X100.256 Y96.505 E2.07989
G1 X100.123 Y96.911 E2.11399
G1 X100.064 Y97.058 E2.12663
G1 X99.944 Y97.312 E2.14906
G1 X99.754 Y97.816 E2.19205
G1 X99.646 Y98.36 E2.23632
G1 X99.628 Y98.915 E2.28065
G1 X99.7 Y99.465 E2.32493
G1 X99.861 Y99.997 E2.3693
G1 X100.105 Y100.495 E2.41356
G1 X100.428 Y100.946 E2.45785
G1 X100.82 Y101.34 E2.50221
G1 X101.27 Y101.664 E2.54647
G1 X101.768 Y101.91 E2.59081
G1 X102.303 Y102.075 E2.6355
G1 X103.004 Y102.15 E2.69178
G1 X119.091 Y102.15 E3.97591
G1 X119.628 Y102.106 E4.01892
G1 X120.167 Y101.971 E4.06328
G1 X120.676 Y101.751 E4.10754
G1 X121.143 Y101.451 E4.15185
G1 X121.554 Y101.079 E4.1961
G1 X121.901 Y100.644 E4.24052
G1 X122.17 Y100.159 E4.28479
G1 X122.358 Y99.638 E4.329
G1 X122.458 Y99.099 E4.37276
G1 X122.475 Y98.76 E4.39985
G1 X122.479 Y90.557 E5.05465
G1 X122.492 Y90.354 E5.07089
G1 X122.506 Y90.354 E5.07201
G1 X122.475 Y89.528 E5.13799
G1 X122.479 Y87.147 E5.32805
G1 X122.507 Y86.706 E5.36332
G1 X122.529 Y86.532 E5.37732
G1 X122.609 Y86.116 E5.41114
G1 X122.644 Y85.978 E5.4225
G1 X122.777 Y85.573 E5.45653
G1 X122.845 Y85.404 E5.47107
G1 X123.017 Y85.042 E5.50307
G1 X123.092 Y84.905 E5.51553
G1 X123.316 Y84.554 E5.54877
G1 X123.421 Y84.413 E5.5628
G1 X123.789 Y83.984 E5.60792
G1 X123.881 Y83.885 E5.61871
G1 X123.987 Y83.787 E5.63023
G1 X124.302 Y83.509 E5.66377
G1 X124.456 Y83.389 E5.67935
G1 X124.782 Y83.168 E5.71079
G1 X124.925 Y83.084 E5.72403
G1 X125.317 Y82.885 E5.75912
G1 X125.446 Y82.829 E5.77035
G1 X125.85 Y82.686 E5.80456
G1 X125.995 Y82.644 E5.81661
G1 X126.408 Y82.553 E5.85037
G1 X126.578 Y82.528 E5.86408
G1 X127.276 Y82.48 E5.91993
G1 X130.008 Y82.484 E6.13801
G1 X130.449 Y82.512 E6.17329
G1 X130.623 Y82.534 E6.18729
G1 X131.039 Y82.614 E6.2211
G1 X131.182 Y82.65 E6.23287
G1 X131.579 Y82.781 E6.26624
G1 X131.745 Y82.848 E6.28053
G1 X132.113 Y83.022 E6.31303
G1 X132.246 Y83.095 E6.32514
G1 X132.601 Y83.321 E6.35873
G1 X132.742 Y83.426 E6.37276
G1 X133.266 Y83.882 E6.42821
G1 X133.362 Y83.984 E6.43939
G1 X133.646 Y84.307 E6.47373
G1 X133.766 Y84.461 E6.48931
G1 X133.987 Y84.787 E6.52075
G1 X134.069 Y84.926 E6.53363
G1 X134.273 Y85.328 E6.56962
G1 X134.325 Y85.448 E6.58006
G1 X134.469 Y85.853 E6.61437
G1 X134.511 Y86 E6.62657
G1 X134.601 Y86.405 E6.65969
G1 X134.627 Y86.583 E6.67405
G1 X134.675 Y87.281 E6.7299
G1 X134.673 Y89.598 E6.91485
G1 X134.653 Y89.917 E6.94036
G1 X134.656 Y90.361 E6.97581
G1 X134.675 Y90.656 E6.9994
G1 X134.671 Y129.438 E10.09515
G1 X134.66 Y129.625 E10.1101
G1 X134.642 Y129.625 E10.11154
G1 X134.675 Y130.468 E10.17888
G1 X134.671 Y132.85 E10.36903
G1 X134.643 Y133.294 E10.40454
G1 X134.622 Y133.462 E10.41805
G1 X134.541 Y133.884 E10.45235
G1 X134.506 Y134.022 E10.46372
G1 X134.373 Y134.427 E10.49775
G1 X134.307 Y134.59 E10.51178
G1 X134.133 Y134.958 E10.54428
G1 X134.058 Y135.095 E10.55674
G1 X133.834 Y135.446 E10.58998
G1 X133.729 Y135.587 E10.60401
G1 X133.269 Y136.115 E10.65991
G1 X133.171 Y136.207 E10.67064
G1 X132.848 Y136.491 E10.70498
G1 X132.695 Y136.61 E10.72045
G1 X132.368 Y136.832 E10.752
G1 X132.225 Y136.916 E10.76524
G1 X131.833 Y137.115 E10.80033
G1 X131.704 Y137.171 E10.81155
G1 X131.3 Y137.314 E10.84576
G1 X131.155 Y137.356 E10.85781
G1 X130.742 Y137.447 E10.89157
G1 X130.572 Y137.472 E10.90529
G1 X129.874 Y137.52 E10.96114
G1 X127.142 Y137.516 E11.17922
G1 X126.701 Y137.488 E11.21449
G1 X126.527 Y137.466 E11.22849
G1 X126.111 Y137.386 E11.26231
G1 X125.968 Y137.35 E11.27408
G1 X125.568 Y137.218 E11.3077
G1 X125.405 Y137.152 E11.32174
G1 X125.037 Y136.978 E11.35423
G1 X124.9 Y136.903 E11.3667
G1 X124.549 Y136.679 E11.39994
G1 X124.408 Y136.574 E11.41397
G1 X123.966 Y136.195 E11.46045
G1 X123.875 Y136.109 E11.47044
G1 X123.782 Y136.008 E11.4814
G1 X123.498 Y135.686 E11.51567
G1 X123.396 Y135.554 E11.52899
G1 X123.157 Y135.203 E11.56289
G1 X123.079 Y135.07 E11.57519
G1 X122.877 Y134.672 E11.61082
G1 X122.824 Y134.549 E11.62151
G1 X122.681 Y134.145 E11.65572
G1 X122.639 Y134 E11.66777
G1 X122.548 Y133.587 E11.70153
G1 X122.523 Y133.417 E11.71525
G1 X122.475 Y132.719 E11.7711
G1 X122.477 Y130.4 E11.95621
G1 X122.497 Y130.083 E11.98156
G1 X122.494 Y129.639 E12.01701
G1 X122.475 Y129.344 E12.0406
G1 X122.475 Y118.237 E12.92721
G1 X122.431 Y117.7 E12.97022
G1 X122.296 Y117.161 E13.01458
G1 X122.076 Y116.652 E13.05884
G1 X121.776 Y116.185 E13.10315
G1 X121.404 Y115.774 E13.1474
G1 X120.969 Y115.427 E13.19182
G1 X120.484 Y115.158 E13.23609
G1 X119.963 Y114.97 E13.2803
G1 X119.424 Y114.87 E13.32406
G1 X119.086 Y114.853 E13.35107
G1 X101.91 Y114.85 E14.72214
G1 X101.373 Y114.894 E14.76515
G1 X100.834 Y115.029 E14.8095
G1 X100.324 Y115.249 E14.85384
G1 X99.858 Y115.549 E14.89808
G1 X99.447 Y115.921 E14.94233
G1 X99.101 Y116.355 E14.98663
G1 X98.83 Y116.839 E15.03091
G1 X98.642 Y117.362 E15.07528
G1 X98.542 Y117.901 E15.11904
G1 X98.525 Y118.24 E15.14613
G1 X98.525 Y119.566 E15.25198
G1 X98.569 Y120.103 E15.29499
G1 X98.704 Y120.642 E15.33934
G1 X98.927 Y121.157 E15.38414
G1 X99.354 Y121.775 E15.4441
G1 X99.403 Y121.831 E15.45004
G1 X99.516 Y121.976 E15.46471
G1 X99.737 Y122.302 E15.49615
G1 X99.821 Y122.445 E15.50939
G1 X100.023 Y122.843 E15.54502
G1 X100.076 Y122.966 E15.55571
G1 X100.219 Y123.37 E15.58992
G1 X100.261 Y123.515 E15.60197
G1 X100.352 Y123.928 E15.63573
G1 X100.377 Y124.098 E15.64944
G1 X100.425 Y124.796 E15.70529
G1 X100.421 Y127.004 E15.88155
G1 X100.406 Y127.245 E15.90082
G1 X100.409 Y127.703 E15.93738
G1 X100.425 Y127.967 E15.95849
G1 X100.421 Y129.438 E16.07592
G1 X100.41 Y129.624 E16.09079
G1 X100.392 Y129.624 E16.09223
G1 X100.425 Y130.467 E16.15957
G1 X100.421 Y132.85 E16.34979
G1 X100.393 Y133.294 E16.3853
G1 X100.372 Y133.462 E16.39882
G1 X100.291 Y133.884 E16.43312
G1 X100.256 Y134.022 E16.44448
G1 X100.123 Y134.427 E16.47851
G1 X100.057 Y134.59 E16.49255
G1 X99.883 Y134.958 E16.52504
G1 X99.808 Y135.095 E16.53751
G1 X99.584 Y135.446 E16.57075
G1 X99.479 Y135.587 E16.58478
G1 X99.019 Y136.115 E16.64068
G1 X98.921 Y136.207 E16.65141
G1 X98.598 Y136.491 E16.68574
G1 X98.445 Y136.61 E16.70121
G1 X98.118 Y136.832 E16.73276
G1 X97.975 Y136.916 E16.746
G1 X97.583 Y137.115 E16.78109
G1 X97.454 Y137.171 E16.79232
G1 X97.05 Y137.314 E16.82653
G1 X96.905 Y137.356 E16.83858
G1 X96.492 Y137.447 E16.87234
G1 X96.322 Y137.472 E16.88605
G1 X95.622 Y137.52 E16.94206
G1 X90.03 Y137.517 E17.38844
G1 X89.557 Y137.487 E17.42627
G1 X89.383 Y137.465 E17.44027
G1 X88.967 Y137.385 E17.47409
G1 X88.825 Y137.349 E17.48578
G1 X88.418 Y137.214 E17.52001
G1 X88.271 Y137.156 E17.53262
G1 X87.892 Y136.976 E17.56612
G1 X87.759 Y136.903 E17.57823
G1 X87.406 Y136.676 E17.61173
G1 X87.258 Y136.567 E17.6264
G1 X86.836 Y136.205 E17.67078
G1 X86.732 Y136.108 E17.68214
G1 X86.632 Y136 E17.69388
G1 X86.342 Y135.671 E17.72889
G1 X86.246 Y135.546 E17.74147
G1 X86.007 Y135.195 E17.77537
G1 X85.928 Y135.06 E17.78786
G1 X85.727 Y134.664 E17.82331
G1 X85.674 Y134.541 E17.834
G1 X85.528 Y134.129 E17.86889
G1 X85.488 Y133.989 E17.88051
G1 X85.397 Y133.575 E17.91435
G1 X85.373 Y133.409 E17.92774
G1 X85.325 Y132.711 E17.98358
G1 X85.327 Y130.401 E18.16798
G1 X85.347 Y130.084 E18.19333
G1 X85.344 Y129.639 E18.22886
G1 X85.325 Y129.344 E18.25245
G1 X85.329 Y90.562 E21.3482
G1 X85.34 Y90.376 E21.36307
G1 X85.358 Y90.376 E21.36451
G1 X85.325 Y89.533 E21.43185
G1 X85.329 Y87.147 E21.62231
G1 X85.357 Y86.706 E21.65759
G1 X85.379 Y86.532 E21.67159
G1 X85.459 Y86.116 E21.7054
G1 X85.494 Y85.978 E21.71677
G1 X85.627 Y85.573 E21.7508
G1 X85.695 Y85.404 E21.76534
G1 X85.867 Y85.042 E21.79733
G1 X85.942 Y84.905 E21.8098
G1 X86.166 Y84.554 E21.84303
G1 X86.271 Y84.413 E21.85707
G1 X86.639 Y83.984 E21.90219
G1 X86.731 Y83.885 E21.91297
G0 F12000 X86.4 Y84.262
G1 F1800 X86.4 Y135.736 E26.02185
G0 F12000 X88 Y137.027
G1 F1800 X88 Y82.969 E30.33699
G0 F12000 X89.6 Y82.516
G1 F1800 X89.6 Y137.489 E34.72518
G0 F12000 X91.2 Y137.517
G1 F1800 X91.2 Y82.481 E39.11839
G0 F12000 X92.8 Y82.482
G1 F1800 X92.8 Y137.518 E43.5116
G0 F12000 X94.4 Y137.519
G1 F1800 X94.4 Y82.483 E47.90481
G0 F12000 X96 Y82.501
G1 F1800 X96 Y137.495 E52.29467
G0 F12000 X97.6 Y137.107
G1 F1800 X97.6 Y82.902 E56.62155
G0 F12000 X99.2 Y84.093
G1 F1800 X99.2 Y116.231 E59.18694
G0 F12000 X100.8 Y115.044
G1 F1800 X100.8 Y101.32 E60.28245
G0 F12000 X102.4 Y102.086
G1 F1800 X102.4 Y114.85 E61.30133
G0 F12000 X104 Y114.85
G1 F1800 X104 Y102.15 E62.3151
G0 F12000 X105.6 Y102.15
G1 F1800 X105.6 Y114.85 E63.32887
G0 F12000 X107.2 Y114.85
G1 F1800 X107.2 Y102.15 E64.34264
G0 F12000 X108.8 Y102.15
G1 F1800 X108.8 Y114.851 E65.35648
G0 F12000 X110.4 Y114.851
G1 F1800 X110.4 Y102.15 E66.37033
G0 F12000 X112 Y102.15
G1 F1800 X112 Y114.851 E67.38418
G0 F12000 X113.6 Y114.852
G1 F1800 X113.6 Y102.15 E68.39811
G0 F12000 X115.2 Y102.15
G1 F1800 X115.2 Y114.852 E69.41204
G0 F12000 X116.8 Y114.852
G1 F1800 X116.8 Y102.15 E70.42597
G0 F12000 X118.4 Y102.15
G1 F1800 X118.4 Y114.852 E71.4399
G0 F12000 X120 Y114.983
G1 F1800 X120 Y102.012 E72.4753
G0 F12000 X121.6 Y101.021
G1 F1800 X121.6 Y115.99 E73.67019
G1 F2700 E68.67019
G0 F12000 X120.928 Y116.834
G0 X121.464 Y133.535
G0 X121.665 Y134.466
G0 X122.144 Y135.582
G0 X123.2 Y135.266
G1 F2700 E73.67019
G1 F1800 X123.2 Y84.735 E77.70379
G0 F12000 X124.8 Y83.157
G1 F1800 X124.8 Y136.839 E81.98892
G0 F12000 X126.4 Y137.441
G1 F1800 X126.4 Y82.554 E86.37024
G0 F12000 X128 Y82.482
G1 F1800 X128 Y137.517 E90.76337
G0 F12000 X129.6 Y137.519
G1 F1800 X129.6 Y82.484 E95.1565
G0 F12000 X131.2 Y82.656
G1 F1800 X131.2 Y137.343 E99.52185
G0 F12000 X132.8 Y136.529
G1 F1800 X132.8 Y83.477 E103.75669
G0 F12000 X134.4 Y85.659
G1 F1800 X134.4 Y134.345 E107.64302
G1 F2700 E102.64302
G0 F12000 X135.285 Y135.011
G0 X134.711 Y136.048
G0 X133.88 Y137
G0 X132.926 Y137.739
G0 X132.092 Y138.163
G0 X130.936 Y138.495
G0 X129.904 Y138.584
G0 X126.93 Y138.552
G0 X100.308 Y136.255
G0 X99.2 Y135.908
G1 F2700 E107.64302
G1 F1800 X99.2 Y121.553 E108.7889
G1 F2700 E103.7889
G0 F300 X99.2 Y121.553 Z0.54
G0 F12000 X100.075 Y120.947
G0 X100.756 Y121.933
G0 X101.235 Y123.049
G0 X101.436 Y123.98
G0 X101.489 Y124.766
G0 X101.453 Y133.396
G0 X101.274 Y134.333
G0 X100.829 Y135.447
G0 X100.308 Y136.255
G0 X99.63 Y137
G0 X98.676 Y137.739
G0 X97.842 Y138.163
G0 X96.686 Y138.495
G0 X95.652 Y138.584
G0 X89.455 Y138.547
G0 X88.517 Y138.368
G0 X87.408 Y137.924
G0 X86.594 Y137.4
G0 X85.845 Y136.717
G0 X85.107 Y135.763
G0 X84.682 Y134.929
G0 X84.495 Y134.274
G0 X84.314 Y133.527
G0 X85.397 Y133.573
;TIME_ELAPSED:57.106315
;LAYER:-5
M140 S50
;TYPE:SUPPORT
G1 F2700 E108.7889
G1 F1800 X85.487 Y133.988 E108.83127
G1 X85.527 Y134.128 E108.8458
G1 X85.673 Y134.54 E108.88941
G1 X85.726 Y134.662 E108.90268
G1 X85.928 Y135.059 E108.94713
G1 X86.006 Y135.194 E108.96269
G1 X86.245 Y135.545 E109.00506
G1 X86.341 Y135.669 E109.02071
G1 X86.631 Y135.999 E109.06454
G1 X86.731 Y136.107 E109.07923
G1 X86.835 Y136.204 E109.09342
G1 X87.258 Y136.566 E109.14897
G1 X87.405 Y136.675 E109.16723
G1 X87.759 Y136.902 E109.20919
G1 X87.891 Y136.975 E109.22424
G1 X88.27 Y137.154 E109.26607
G1 X88.418 Y137.212 E109.28193
G1 X88.825 Y137.348 E109.32474
G1 X88.967 Y137.384 E109.33936
G1 X89.38 Y137.463 E109.38132
G1 X85.381 Y133.464 E109.94562
G1 X85.373 Y133.408 E109.95126
G1 X85.325 Y132.709 E110.02117
G1 X85.325 Y131.994 E110.09252
G1 X90.847 Y137.516 E110.87173
G1 X92.262 Y137.517 E111.01292
G1 X85.325 Y130.58 E111.99181
G1 X85.326 Y130.4 E112.00977
G1 X85.347 Y130.082 E112.04157
G1 X85.343 Y129.638 E112.08587
G1 X85.324 Y129.343 E112.11537
G1 X85.324 Y129.165 E112.13313
G1 X93.677 Y137.518 E113.31183
G1 X95.092 Y137.518 E113.45302
G1 X85.324 Y127.75 E114.83139
G1 X85.324 Y126.336 E114.97248
G1 X96.44 Y137.453 E116.54113
G1 X96.491 Y137.446 E116.54627
G1 X96.904 Y137.355 E116.58847
G1 X97.05 Y137.313 E116.60363
G1 X97.453 Y137.17 E116.64629
G1 X97.536 Y137.134 E116.65532
G1 X85.324 Y124.922 E118.37857
G1 X85.324 Y123.508 E118.51966
G1 X98.432 Y136.616 E120.36934
G1 X98.444 Y136.608 E120.37078
G1 X98.598 Y136.49 E120.39013
G1 X98.92 Y136.206 E120.43298
G1 X99.018 Y136.113 E120.44646
G1 X99.171 Y135.94 E120.4695
G1 X85.325 Y122.094 E122.42332
G1 X85.325 Y120.68 E122.56441
G1 X99.781 Y135.136 E124.60431
G1 X99.808 Y135.094 E124.60929
G1 X99.883 Y134.956 E124.62496
G1 X100.057 Y134.589 E124.66549
G1 X100.122 Y134.425 E124.68309
G1 X100.212 Y134.153 E124.71168
G1 X85.325 Y119.266 E126.81239
G1 X85.325 Y117.852 E126.95348
G1 X100.415 Y132.942 E129.08285
G1 X100.421 Y132.849 E129.09214
G1 X100.424 Y131.536 E129.22316
G1 X85.325 Y116.437 E131.35379
G1 X85.325 Y115.024 E131.49478
G1 X100.411 Y130.109 E133.62351
G1 X100.391 Y129.623 E133.67204
G1 X100.409 Y129.623 E133.67384
G1 X100.42 Y129.437 E133.69243
G1 X100.422 Y128.706 E133.76537
G1 X85.325 Y113.61 E135.89565
G1 X85.325 Y112.195 E136.03684
G1 X100.406 Y127.276 E138.16493
G1 X100.405 Y127.244 E138.16812
G1 X100.42 Y127.003 E138.19222
G1 X100.423 Y125.879 E138.30437
G1 X85.325 Y110.781 E140.43486
G1 X85.326 Y109.368 E140.57585
G1 X100.401 Y124.443 E142.7031
G1 X100.376 Y124.097 E142.73771
G1 X100.351 Y123.926 E142.75495
G1 X100.26 Y123.514 E142.79705
G1 X100.218 Y123.369 E142.81212
G1 X100.076 Y122.965 E142.85485
G1 X100.023 Y122.842 E142.86821
G1 X99.825 Y122.453 E142.91176
G1 X85.326 Y107.953 E144.9578
G1 X85.326 Y106.539 E145.09889
G1 X98.54 Y119.754 E146.9636
G1 X98.524 Y119.565 E146.98252
G1 X98.525 Y118.324 E147.10635
G1 X85.326 Y105.125 E148.96887
G1 X85.326 Y103.711 E149.10996
G1 X98.73 Y117.115 E151.00141
G1 X98.83 Y116.838 E151.0308
G1 X99.101 Y116.354 E151.08614
G1 X99.226 Y116.197 E151.10617
G1 X85.327 Y102.297 E153.06754
G1 X85.327 Y100.883 E153.20863
G1 X99.938 Y115.495 E155.27047
G1 X100.324 Y115.248 E155.31619
