;FLAVOR:Marlin
;TIME:4059
;Filament used: 2.99566m
;Layer height: 0.2
;MINX:95.186
;MINY:86.344
;MINZ:0.24
;MAXX:124.447
;MAXY:133.166
;MAXZ:38.49
;Generated with Cura_SteamEngine 4.6.1
M140 S50
M105
M190 S50
M104 S205
M105
M109 S205
M82 ;absolute extrusion mode
M201 X500.00 Y500.00 Z100.00 E5000.00 ;Setup machine max acceleration
M203 X500.00 Y500.00 Z10.00 E50.00 ;Setup machine max feedrate
M204 P500.00 R1000.00 T500.00 ;Setup Print/Retract/Travel acceleration
M205 X8.00 Y8.00 Z0.40 E5.00 ;Setup Jerk
M220 S100 ;Reset Feedrate
M221 S100 ;Reset Flowrate

G28 ;Home

G92 E0 ;Reset Extruder
G1 Z2.0 F3000 ;Move Z Axis up
G1 X10.1 Y20 Z0.28 F5000.0 ;Move to start position
G1 X10.1 Y200.0 Z0.28 F1500.0 E15 ;Draw the first line
G1 X10.4 Y200.0 Z0.28 F5000.0 ;Move to side a little
G1 X10.4 Y20 Z0.28 F1500.0 E30 ;Draw the second line
G92 E0 ;Reset Extruder
G1 Z2.0 F3000 ;Move Z Axis up

G92 E0
G92 E0
G1 F2700 E-5
;LAYER_COUNT:187
;LAYER:-6
M107
G0 F12000 X105.278 Y90.934 Z0.24
;TYPE:SUPPORT-INTERFACE
G1 F2700 E0
G1 F1800 X105.567 Y90.604 E0.03502
G1 X105.699 Y90.472 E0.04992
G1 X106.128 Y90.096 E0.09545
G1 X107.36 Y89.15 E0.21944
G1 X107.735 Y88.898 E0.25551
G1 X107.897 Y88.803 E0.2705
G1 X108.429 Y88.541 E0.31784
G1 X109.872 Y87.944 E0.44249
G1 X110.266 Y87.808 E0.47576
G1 X110.468 Y87.753 E0.49248
G1 X110.956 Y87.654 E0.53222
G1 X111.024 Y87.642 E0.53774
G1 X112.563 Y87.441 E0.66163
G1 X113.04 Y87.408 E0.6998
G1 X113.18 Y87.405 E0.71097
G1 X113.607 Y87.425 E0.7451
G1 X113.831 Y87.45 E0.76309
G1 X115.301 Y87.645 E0.88146
G1 X115.807 Y87.744 E0.92261
G1 X115.928 Y87.775 E0.93259
G1 X116.249 Y87.875 E0.95942
G1 X116.566 Y87.997 E0.98654
G1 X117.916 Y88.559 E1.10326
G1 X118.344 Y88.769 E1.14132
G1 X118.502 Y88.86 E1.15587
G1 X118.962 Y89.167 E1.20002
G1 X120.217 Y90.131 E1.32634
G1 X120.534 Y90.407 E1.35989
G1 X120.677 Y90.547 E1.37587
G1 X121.048 Y90.971 E1.42084
G1 X121.996 Y92.205 E1.54506
G1 X122.248 Y92.579 E1.58106
G1 X122.347 Y92.748 E1.59669
G1 X122.604 Y93.267 E1.64292
G1 X123.211 Y94.735 E1.76972
G1 X123.343 Y95.12 E1.80221
G1 X123.395 Y95.309 E1.81786
G1 X123.512 Y95.905 E1.86634
G1 X123.71 Y97.409 E1.98744
G1 X123.749 Y98.055 E2.0391
G1 X123.746 Y113.516 E3.27326
G1 X123.73 Y113.772 E3.29373
G1 X123.737 Y114.275 E3.33389
G1 X123.744 Y114.346 E3.33959
G1 X123.75 Y114.48 E3.35029
G1 X123.746 Y127.435 E4.38442
G1 X123.718 Y127.876 E4.41969
G1 X123.697 Y128.044 E4.4332
G1 X123.616 Y128.466 E4.46751
G1 X123.581 Y128.604 E4.47887
G1 X123.448 Y129.009 E4.5129
G1 X123.382 Y129.172 E4.52694
G1 X123.208 Y129.54 E4.55943
G1 X123.133 Y129.677 E4.5719
G1 X122.909 Y130.028 E4.60513
G1 X122.804 Y130.169 E4.61917
G1 X122.34 Y130.701 E4.67552
G1 X122.246 Y130.789 E4.68579
G1 X121.923 Y131.073 E4.72013
G1 X121.77 Y131.192 E4.7356
G1 X121.443 Y131.414 E4.76715
G1 X121.3 Y131.498 E4.78039
G1 X120.908 Y131.697 E4.81548
G1 X120.779 Y131.753 E4.82671
G1 X120.375 Y131.896 E4.86092
G1 X120.23 Y131.938 E4.87297
G1 X119.817 Y132.029 E4.90672
G1 X119.647 Y132.054 E4.92044
G1 X118.949 Y132.102 E4.97629
G1 X114.717 Y132.098 E5.31411
G1 X114.276 Y132.07 E5.34938
G1 X114.102 Y132.048 E5.36338
G1 X113.686 Y131.968 E5.39719
G1 X113.543 Y131.932 E5.40897
G1 X113.143 Y131.8 E5.44259
G1 X112.98 Y131.734 E5.45663
G1 X112.612 Y131.56 E5.48912
G1 X112.475 Y131.485 E5.50159
G1 X112.124 Y131.261 E5.53483
G1 X111.983 Y131.156 E5.54886
G1 X111.554 Y130.788 E5.59398
G1 X111.453 Y130.694 E5.60499
G1 X111.357 Y130.59 E5.61629
G1 X111.074 Y130.269 E5.65045
G1 X110.971 Y130.136 E5.66388
G1 X110.732 Y129.785 E5.69777
G1 X110.654 Y129.652 E5.71008
G1 X110.452 Y129.254 E5.74571
G1 X110.399 Y129.131 E5.7564
G1 X110.256 Y128.727 E5.79061
G1 X110.214 Y128.582 E5.80266
G1 X110.123 Y128.169 E5.83642
G1 X110.098 Y127.999 E5.85013
G1 X110.05 Y127.301 E5.90598
G1 X110.05 Y125.655 E6.03737
G1 X110.006 Y125.118 E6.08038
G1 X109.871 Y124.579 E6.12474
G1 X109.651 Y124.07 E6.169
G1 X109.351 Y123.603 E6.21331
G1 X108.979 Y123.192 E6.25756
G1 X108.544 Y122.845 E6.30198
G1 X108.058 Y122.575 E6.34636
G1 X107.517 Y122.383 E6.39218
G1 X107.376 Y122.347 E6.4038
G1 X106.933 Y122.202 E6.441
G1 X106.661 Y122.099 E6.46422
G1 X106.53 Y122.042 E6.47562
G1 X105.869 Y121.721 E6.53428
G1 X105.791 Y121.672 E6.54163
G1 X105.298 Y121.335 E6.5893
G1 X104.877 Y121.006 E6.63195
G1 X104.537 Y120.707 E6.6681
G1 X104.413 Y120.584 E6.68204
G1 X104.003 Y120.235 E6.72502
G1 X103.527 Y119.949 E6.76934
G1 X103.011 Y119.745 E6.81364
G1 X102.472 Y119.628 E6.85766
G1 X102.031 Y119.599 E6.89294
G1 X101.015 Y119.596 E6.97404
G1 X100.57 Y119.568 E7.00964
G1 X100.399 Y119.546 E7.0234
G1 X99.993 Y119.469 E7.05638
G1 X99.826 Y119.426 E7.07015
G1 X99.454 Y119.305 E7.10138
G1 X99.263 Y119.229 E7.11779
G1 X98.926 Y119.069 E7.14756
G1 X98.75 Y118.972 E7.16361
G1 X98.426 Y118.765 E7.1943
G1 X98.275 Y118.653 E7.2093
G1 X97.769 Y118.216 E7.26267
G1 X97.556 Y117.996 E7.28712
G1 X97.274 Y117.675 E7.32122
G1 X97.171 Y117.542 E7.33465
G1 X96.932 Y117.191 E7.36855
G1 X96.854 Y117.058 E7.38086
G1 X96.652 Y116.66 E7.41648
G1 X96.599 Y116.537 E7.42717
G1 X96.456 Y116.133 E7.46138
G1 X96.414 Y115.988 E7.47343
G1 X96.323 Y115.575 E7.50719
G1 X96.298 Y115.405 E7.52091
G1 X96.25 Y114.707 E7.57676
G1 X96.254 Y111.567 E7.82741
G1 X96.282 Y111.126 E7.86268
G1 X96.304 Y110.952 E7.87668
G1 X96.384 Y110.536 E7.9105
G1 X96.419 Y110.398 E7.92186
G1 X96.552 Y109.993 E7.95589
G1 X96.62 Y109.824 E7.97043
G1 X96.792 Y109.462 E8.00242
G1 X96.867 Y109.325 E8.01489
G1 X97.091 Y108.974 E8.04813
G1 X97.196 Y108.833 E8.06216
G1 X97.564 Y108.404 E8.10728
G1 X97.658 Y108.303 E8.11829
G1 X97.754 Y108.213 E8.1288
G1 X98.077 Y107.929 E8.16313
G1 X98.231 Y107.809 E8.17871
G1 X98.557 Y107.588 E8.21015
G1 X98.7 Y107.504 E8.22339
G1 X99.092 Y107.305 E8.25848
G1 X99.221 Y107.249 E8.26971
G1 X99.636 Y107.102 E8.30485
G1 X99.759 Y107.066 E8.31508
G1 X99.903 Y107.034 E8.32686
G1 X100.418 Y106.874 E8.3699
G1 X100.914 Y106.626 E8.41417
G1 X101.364 Y106.301 E8.45848
G1 X101.754 Y105.906 E8.50279
G1 X102.075 Y105.454 E8.54704
G1 X102.319 Y104.955 E8.59138
G1 X102.479 Y104.419 E8.63603
G1 X102.55 Y103.739 E8.69061
G1 X102.552 Y97.984 E9.15
G1 X102.597 Y97.345 E9.20113
G1 X102.797 Y95.834 E9.3228
G1 X102.892 Y95.348 E9.36233
G1 X102.917 Y95.247 E9.37063
G1 X103.02 Y94.912 E9.39861
G1 X103.126 Y94.63 E9.42266
G1 X103.71 Y93.231 E9.54367
G1 X103.933 Y92.778 E9.58398
G1 X104.002 Y92.655 E9.59523
G1 X104.196 Y92.353 E9.62389
G1 X104.374 Y92.109 E9.648
G1 X105.278 Y90.934 E9.76634
G0 F12000 X105.6 Y90.571
G1 F1800 X105.6 Y121.541 E12.2385
G0 F12000 X107.2 Y122.289
G1 F1800 X107.2 Y89.272 E14.87406
G0 F12000 X108.8 Y88.387
G1 F1800 X108.8 Y123.049 E17.64093
G1 F2700 E12.64093
G0 F12000 X107.951 Y123.733
G0 X106.095 Y123.014
G0 X105.216 Y122.568
G0 X104.072 Y121.686
G0 X103.69 Y121.366
G0 X104 Y120.233
G1 F2700 E17.64093
G1 F1800 X104 Y92.658 E19.84208
G1 F2700 E14.84208
G0 F12000 X103.332 Y91.731
G0 X104.786 Y89.879
G0 X105.471 Y89.259
G0 X107.18 Y87.989
G0 X107.411 Y87.87
G0 X109.503 Y86.945
G0 X110.4 Y87.771
G1 F2700 E19.84208
G1 F1800 X110.4 Y129.133 E23.14378
G0 F12000 X112 Y131.168
G1 F1800 X112 Y87.514 E26.62843
G0 F12000 X113.6 Y87.425
G1 F1800 X113.6 Y131.946 E30.18229
G0 F12000 X115.2 Y132.098
G1 F1800 X115.2 Y87.632 E33.73175
G0 F12000 X116.8 Y88.095
G1 F1800 X116.8 Y132.099 E37.24434
G0 F12000 X118.4 Y132.101
G1 F1800 X118.4 Y88.802 E40.70066
G0 F12000 X120 Y89.965
G1 F1800 X120 Y131.989 E44.05519
G0 F12000 X121.6 Y131.308
G1 F1800 X121.6 Y91.69 E47.21767
G0 F12000 X123.2 Y94.709
G1 F1800 X123.2 Y129.555 E49.99923
G1 F2700 E44.99923
G0 F12000 X124.133 Y130.069
G0 X123.633 Y130.837
G0 X122.955 Y131.582
G0 X122.001 Y132.321
G0 X121.167 Y132.745
G0 X120.011 Y133.077
G0 X118.979 Y133.166
G0 X114.174 Y133.13
G0 X113.237 Y132.951
G0 X112.123 Y132.506
G0 X111.315 Y131.985
G0 X110.57 Y131.307
G0 X110.362 Y131.037
G0 X102.703 Y120.768
G0 X102.4 Y119.623
G1 F2700 E49.99923
G1 F1800 X102.4 Y104.683 E51.19181
G0 F12000 X100.8 Y106.683
G1 F1800 X100.8 Y119.582 E52.22146
G0 F12000 X99.2 Y119.199
G1 F1800 X99.2 Y107.258 E53.17464
G0 F12000 X97.6 Y108.365
G1 F1800 X97.6 Y118.041 E53.94702
G0 F300 X97.6 Y118.041 Z0.54
G0 F12000 X96.598 Y116.536
;TIME_ELAPSED:31.674748
;LAYER:-5
M140 S50
;TYPE:SUPPORT
G1 F1800 X96.652 Y116.659 E53.96043
G1 X96.853 Y117.057 E54.00492
G1 X96.931 Y117.19 E54.0203
G1 X97.171 Y117.541 E54.06273
G1 X97.273 Y117.673 E54.07937
G1 X97.555 Y117.995 E54.12208
G1 X97.768 Y118.215 E54.15264
G1 X98.275 Y118.652 E54.21943
G1 X98.426 Y118.764 E54.23818
G1 X98.749 Y118.971 E54.27646
G1 X98.925 Y119.068 E54.29652
G1 X99.262 Y119.228 E54.33374
G1 X99.453 Y119.303 E54.35421
G1 X99.528 Y119.327 E54.36207
G1 X96.522 Y116.321 E54.78625
G1 X96.456 Y116.132 E54.80623
G1 X96.414 Y115.986 E54.82138
G1 X96.322 Y115.574 E54.86351
G1 X96.298 Y115.404 E54.88064
G1 X96.249 Y114.706 E54.95046
G1 X96.249 Y114.634 E54.95764
G1 X101.21 Y119.595 E55.65769
G1 X102.031 Y119.598 E55.73961
G1 X102.471 Y119.627 E55.78361
G1 X102.707 Y119.678 E55.8077
G1 X96.251 Y113.221 E56.71878
G1 X96.253 Y111.809 E56.85967
G1 X106.441 Y121.997 E58.29731
G0 F12000 X106.529 Y122.04
G1 F1800 X106.66 Y122.098 E58.3116
G1 X106.932 Y122.2 E58.34059
G1 X107.375 Y122.346 E58.38713
G1 X107.517 Y122.381 E58.40172
G1 X108.057 Y122.574 E58.45894
G1 X108.543 Y122.844 E58.51442
G1 X108.978 Y123.191 E58.56994
G1 X109.351 Y123.602 E58.62532
G1 X109.651 Y124.068 E58.68062
G1 X109.87 Y124.578 E58.736
G1 X110.006 Y125.116 E58.79137
G1 X110.044 Y125.601 E58.83991
G1 X116.542 Y132.098 E59.75678
G1 X117.957 Y132.099 E59.89797
G1 X96.385 Y110.527 E62.94201
G1 X96.418 Y110.397 E62.9554
G1 X96.551 Y109.992 E62.99793
G1 X96.619 Y109.822 E63.0162
G1 X96.772 Y109.5 E63.05177
G1 X119.345 Y132.073 E66.23707
G1 X119.646 Y132.053 E66.26717
G1 X119.817 Y132.028 E66.28441
G1 X120.23 Y131.936 E66.32663
G1 X120.375 Y131.895 E66.34167
G1 X120.527 Y131.84 E66.35779
G1 X97.344 Y108.658 E69.6291
G1 X97.563 Y108.403 E69.66263
G1 X97.657 Y108.302 E69.6764
G1 X97.753 Y108.212 E69.68953
G1 X98.051 Y107.951 E69.72906
G1 X121.484 Y131.383 E73.03564
G1 X121.77 Y131.191 E73.07001
G1 X121.922 Y131.072 E73.08927
G1 X122.246 Y130.787 E73.13233
G1 X122.275 Y130.76 E73.13628
G1 X98.911 Y107.396 E76.43319
G1 X99.091 Y107.304 E76.45336
G1 X99.221 Y107.248 E76.46749
G1 X99.635 Y107.101 E76.51132
G1 X99.759 Y107.065 E76.52421
G1 X99.902 Y107.033 E76.53883
G1 X99.948 Y107.019 E76.54363
G1 X122.927 Y129.998 E79.78621
G1 X123.132 Y129.676 E79.8243
G1 X123.207 Y129.539 E79.83988
G1 X123.381 Y129.171 E79.8805
G1 X123.42 Y129.077 E79.89066
G1 X100.945 Y106.602 E83.06212
G1 X101.364 Y106.3 E83.11366
G1 X101.708 Y105.95 E83.16262
G1 X123.708 Y127.95 E86.26706
G1 X123.717 Y127.875 E86.2746
G1 X123.745 Y127.434 E86.31869
G1 X123.746 Y126.574 E86.4045
G1 X102.255 Y105.083 E89.43711
G1 X102.319 Y104.953 E89.45157
G1 X102.478 Y104.417 E89.50736
G1 X102.528 Y103.942 E89.55502
G1 X123.746 Y125.16 E92.5491
G1 X123.747 Y123.747 E92.69009
G1 X102.55 Y102.55 E95.68122
G1 X102.55 Y101.136 E95.82231
G1 X123.747 Y122.333 E98.81344
G1 X123.747 Y120.919 E98.95452
G1 X102.55 Y99.722 E101.94565
G1 X102.55 Y98.308 E102.08674
G1 X123.748 Y119.505 E105.07794
G1 X123.748 Y118.091 E105.21903
G1 X102.643 Y96.986 E108.19717
G1 X102.796 Y95.834 E108.31313
G1 X102.814 Y95.742 E108.32248
G1 X123.749 Y116.678 E111.2767
G1 X123.749 Y115.264 E111.41779
G1 X103.122 Y94.637 E114.32849
G1 X103.125 Y94.629 E114.32934
G1 X103.538 Y93.639 E114.43637
G1 X123.73 Y113.831 E117.28568
G1 X123.729 Y113.772 E117.29157
G1 X123.745 Y113.516 E117.31716
G1 X123.745 Y112.432 E117.42533
G1 X103.989 Y92.675 E120.21318
G1 X104.001 Y92.655 E120.21551
G1 X104.195 Y92.353 E120.25132
G1 X104.373 Y92.109 E120.28146
G1 X104.574 Y91.846 E120.31449
G1 X123.745 Y111.017 E123.01972
G1 X123.746 Y109.604 E123.16071
G1 X105.189 Y91.047 E125.77931
G1 X105.276 Y90.933 E125.79362
G1 X105.566 Y90.603 E125.83745
G1 X105.698 Y90.471 E125.85608
G1 X105.874 Y90.318 E125.87935
G1 X123.746 Y108.19 E128.40128
G1 X123.747 Y106.776 E128.54237
G1 X106.659 Y89.688 E130.95367
G1 X107.359 Y89.149 E131.04182
G1 X107.464 Y89.079 E131.05442
G1 X123.747 Y105.362 E133.35212
G1 X123.747 Y103.948 E133.49321
G1 X108.369 Y88.57 E135.66321
G1 X108.427 Y88.541 E135.66968
G1 X109.366 Y88.153 E135.77106
G1 X123.747 Y102.534 E137.80038
G1 X123.748 Y101.121 E137.94137
G1 X110.399 Y87.771 E139.82512
G1 X110.467 Y87.753 E139.83214
G1 X110.955 Y87.653 E139.88185
G1 X111.023 Y87.642 E139.88872
G1 X111.608 Y87.566 E139.94758
G1 X123.748 Y99.707 E141.66074
G1 X123.748 Y98.292 E141.80193
G1 X112.876 Y87.42 E143.33608
G1 X113.039 Y87.408 E143.35239
G1 X113.179 Y87.405 E143.36637
G1 X113.606 Y87.425 E143.40902
G1 X113.83 Y87.45 E143.43151
G1 X114.395 Y87.524 E143.48837
G1 X123.623 Y96.753 E144.79061
G1 X123.511 Y95.904 E144.87605
G1 X123.394 Y95.309 E144.93656
G1 X123.342 Y95.12 E144.95612
G1 X123.31 Y95.025 E144.96612
G1 X116.118 Y87.834 E145.98092
G1 X116.248 Y87.874 E145.99449
G1 X116.565 Y87.996 E146.02838
G1 X117.915 Y88.558 E146.17429
G1 X118.343 Y88.769 E146.22191
G1 X118.501 Y88.859 E146.24005
G1 X118.672 Y88.973 E146.26056
G1 X122.185 Y92.487 E146.75635
G0 F12000 X121.995 Y92.204
G1 F1800 X121.047 Y90.971 E146.91154
G1 X120.676 Y90.546 E146.96783
G1 X120.533 Y90.406 E146.9878
G1 X120.216 Y90.13 E147.02974
G1 X118.961 Y89.166 E147.18764
G1 X118.672 Y88.973 E147.22232
G1 F2700 E142.22232
G0 F12000 X119.26 Y88.085
G0 X118.269 Y87.552
G0 X116.205 Y86.747
G0 X113.996 Y86.397
G0 X112.995 Y86.344
G0 X110.755 Y86.609
G0 X109.503 Y86.945
G0 X107.384 Y87.869
G0 X106.647 Y88.353
G0 X104.97 Y89.695
G0 X104.37 Y90.365
G0 X103.081 Y92.12
G0 X102.139 Y94.232
G0 X95.551 Y109.632
G0 X95.252 Y110.781
G0 X95.186 Y111.67
G0 X95.193 Y114.902
G0 X95.275 Y115.769
G0 X95.607 Y116.925
G0 X96.032 Y117.759
G0 X96.77 Y118.713
G0 X97.823 Y119.641
G0 X98.405 Y119.963
G0 X108.952 Y125.289
G0 X110.044 Y125.601
G1 F2700 E147.22232
G1 F1800 X110.049 Y125.654 E147.22763
G1 X110.049 Y127.02 E147.36393
G1 X115.126 Y132.097 E148.08035
G1 X114.716 Y132.097 E148.12126
G1 X114.275 Y132.069 E148.16535
G1 X114.102 Y132.047 E148.18275
G1 X113.685 Y131.967 E148.22512
G1 X113.547 Y131.931 E148.23935
G1 X110.22 Y128.605 E148.70875
G0 F12000 X110.256 Y128.725
G1 F1800 X110.399 Y129.13 E148.75161
G1 X110.451 Y129.253 E148.76493
G1 X110.654 Y129.651 E148.80951
G1 X110.732 Y129.784 E148.8249
G1 X110.971 Y130.135 E148.86727
G1 X111.074 Y130.268 E148.88406
G1 X111.357 Y130.589 E148.92676
G1 X111.452 Y130.693 E148.94081
G1 X111.553 Y130.787 E148.95458
G1 X111.983 Y131.155 E149.01105
G1 X112.124 Y131.26 E149.02859
G1 X112.474 Y131.484 E149.07005
G1 X112.611 Y131.559 E149.08564
G1 X112.979 Y131.733 E149.12626
G1 X113.142 Y131.799 E149.1438
G1 X113.543 Y131.931 E149.18593
G0 F300 X113.543 Y131.931 Z0.74
G0 F12000 X113.472 Y132.119
;TIME_ELAPSED:67.549541
;LAYER:-4
;TYPE:SUPPORT-INTERFACE
G1 F2400 X113.659 Y132.167 E149.19235
G1 X114.066 Y132.246 E149.20614
G1 X114.248 Y132.268 E149.21223
G1 X114.716 Y132.298 E149.22783
G1 X118.956 Y132.302 E149.36886
G1 X119.095 Y132.297 E149.37348
G1 X119.662 Y132.254 E149.39239
G1 X119.861 Y132.225 E149.39908
G1 X120.278 Y132.132 E149.41329
G1 X120.433 Y132.088 E149.41865
G1 X120.681 Y132 E149.4274
G1 X113.11 Y132 E149.67922
G1 X113.083 Y131.991 E149.68016
G1 X112.899 Y131.917 E149.68676
G1 X112.511 Y131.733 E149.70104
G1 X112.378 Y131.659 E149.7061
G1 X112.285 Y131.6 E149.70977
G1 X121.521 Y131.6 E150.01696
G1 X121.533 Y131.593 E150.01742
G1 X121.896 Y131.347 E150.03201
G1 X122.045 Y131.231 E150.03829
G1 X122.08 Y131.2 E150.03984
G1 X111.727 Y131.2 E150.38418
G1 X111.315 Y130.841 E150.40236
G1 X111.277 Y130.8 E150.40422
G1 X122.519 Y130.8 E150.77813
G1 X122.581 Y130.734 E150.78114
G1 X122.867 Y130.4 E150.79577
G1 X110.921 Y130.4 E151.19309
G1 X110.912 Y130.389 E151.19356
G1 X110.8 Y130.244 E151.19966
G1 X110.634 Y130 E151.20947
G1 X123.161 Y130 E151.62612
G1 X123.306 Y129.773 E151.63508
G1 X123.38 Y129.638 E151.6402
G1 X123.398 Y129.6 E151.6416
G1 X110.401 Y129.6 E152.07388
G1 X110.277 Y129.354 E152.08305
G1 X110.209 Y129.2 E152.08864
