;FLAVOR:Marlin
;TIME:7161
;Filament used: 2.59203m
;Layer height: 0.2
;MINX:95.186
;MINY:96.086
;MINZ:0.24
;MAXX:124.814
;MAXY:123.914
;MAXZ:101.09
;Generated with Cura_SteamEngine 4.6.1
M140 S50
M105
M190 S50
M104 S205
M105
M109 S205
M82 ;absolute extrusion mode
M201 X500.00 Y500.00 Z100.00 E5000.00 ;Setup machine max acceleration
M203 X500.00 Y500.00 Z10.00 E50.00 ;Setup machine max feedrate
M204 P500.00 R1000.00 T500.00 ;Setup Print/Retract/Travel acceleration
M205 X8.00 Y8.00 Z0.40 E5.00 ;Setup Jerk
M220 S100 ;Reset Feedrate
M221 S100 ;Reset Flowrate

G28 ;Home

G92 E0 ;Reset Extruder
G1 Z2.0 F3000 ;Move Z Axis up
G1 X10.1 Y20 Z0.28 F5000.0 ;Move to start position
G1 X10.1 Y200.0 Z0.28 F1500.0 E15 ;Draw the first line
G1 X10.4 Y200.0 Z0.28 F5000.0 ;Move to side a little
G1 X10.4 Y20 Z0.28 F1500.0 E30 ;Draw the second line
G92 E0 ;Reset Extruder
G1 Z2.0 F3000 ;Move Z Axis up

G92 E0
G92 E0
G1 F2700 E-5
;LAYER_COUNT:501
;LAYER:-6
M107
G0 F12000 X97.762 Y111.456 Z0.24
;TYPE:SUPPORT-INTERFACE
G1 F2700 E0
G1 F1800 X98.077 Y111.179 E0.03348
G1 X98.231 Y111.059 E0.04907
G1 X98.557 Y110.838 E0.08051
G1 X98.7 Y110.754 E0.09375
G1 X99.092 Y110.555 E0.12884
G1 X99.221 Y110.499 E0.14006
G1 X99.625 Y110.356 E0.17427
G1 X99.77 Y110.314 E0.18632
G1 X100.183 Y110.223 E0.22008
G1 X100.353 Y110.198 E0.2338
G1 X101.051 Y110.15 E0.28965
G1 X106.728 Y110.15 E0.74281
G1 X107.265 Y110.106 E0.78582
G1 X107.804 Y109.971 E0.83017
G1 X108.313 Y109.751 E0.87444
G1 X108.78 Y109.451 E0.91874
G1 X109.191 Y109.079 E0.96299
G1 X109.538 Y108.644 E1.00741
G1 X109.807 Y108.159 E1.05168
G1 X109.995 Y107.64 E1.09575
G1 X110.082 Y107.198 E1.13171
G1 X110.103 Y107.039 E1.14451
G1 X110.181 Y106.631 E1.17767
G1 X110.225 Y106.459 E1.19184
G1 X110.341 Y106.106 E1.2215
G1 X110.467 Y105.582 E1.26452
G1 X110.506 Y105.029 E1.30877
G1 X110.455 Y104.477 E1.35302
G1 X110.324 Y103.97 E1.39482
G1 X110.249 Y103.752 E1.41322
G1 X110.197 Y103.567 E1.42856
G1 X110.119 Y103.194 E1.45898
G1 X110.092 Y103.006 E1.47414
G1 X110.05 Y102.377 E1.52447
G1 X110.054 Y101.817 E1.56917
G1 X110.082 Y101.376 E1.60444
G1 X110.104 Y101.202 E1.61844
G1 X110.184 Y100.786 E1.65226
G1 X110.219 Y100.648 E1.66362
G1 X110.352 Y100.243 E1.69765
G1 X110.42 Y100.074 E1.71219
G1 X110.592 Y99.712 E1.74418
G1 X110.667 Y99.575 E1.75665
G1 X110.891 Y99.224 E1.78989
G1 X110.996 Y99.083 E1.80392
G1 X111.364 Y98.654 E1.84904
G1 X111.456 Y98.555 E1.85983
G1 X111.562 Y98.457 E1.87135
G1 X111.877 Y98.179 E1.90489
G1 X112.031 Y98.059 E1.92047
G1 X112.357 Y97.838 E1.95191
G1 X112.5 Y97.754 E1.96515
G1 X112.892 Y97.555 E2.00024
G1 X113.021 Y97.499 E2.01147
G1 X113.425 Y97.356 E2.04568
G1 X113.57 Y97.314 E2.05773
G1 X113.983 Y97.223 E2.09148
G1 X114.153 Y97.198 E2.1052
G1 X114.851 Y97.15 E2.16105
G1 X119.083 Y97.154 E2.49887
G1 X119.524 Y97.182 E2.53414
G1 X119.698 Y97.204 E2.54814
G1 X120.114 Y97.284 E2.58195
G1 X120.257 Y97.32 E2.59373
G1 X120.657 Y97.452 E2.62735
G1 X120.82 Y97.518 E2.64139
G1 X121.188 Y97.692 E2.67388
G1 X121.325 Y97.767 E2.68635
G1 X121.676 Y97.991 E2.71959
G1 X121.817 Y98.096 E2.73362
G1 X122.349 Y98.56 E2.78997
G1 X122.437 Y98.654 E2.80025
G1 X122.721 Y98.977 E2.83458
G1 X122.841 Y99.131 E2.85016
G1 X123.062 Y99.457 E2.8816
G1 X123.146 Y99.6 E2.89484
G1 X123.348 Y99.998 E2.93047
G1 X123.401 Y100.121 E2.94116
G1 X123.544 Y100.523 E2.97522
G1 X123.586 Y100.67 E2.98742
G1 X123.677 Y101.083 E3.02118
G1 X123.702 Y101.253 E3.0349
G1 X123.75 Y101.951 E3.09075
G1 X123.746 Y102.394 E3.12611
G1 X123.718 Y102.835 E3.16138
G1 X123.696 Y103.009 E3.17538
G1 X123.619 Y103.411 E3.20806
G1 X123.579 Y103.567 E3.22091
G1 X123.444 Y103.977 E3.25537
G1 X123.318 Y104.5 E3.29831
G1 X123.278 Y105.053 E3.34257
G1 X123.328 Y105.606 E3.38689
G1 X123.472 Y106.153 E3.43204
G1 X123.547 Y106.363 E3.44984
G1 X123.586 Y106.501 E3.46129
G1 X123.677 Y106.914 E3.49505
G1 X123.702 Y107.084 E3.50876
G1 X123.75 Y107.782 E3.56461
G1 X123.746 Y108.88 E3.65226
G1 X123.718 Y109.321 E3.68753
G1 X123.696 Y109.495 E3.70153
G1 X123.616 Y109.911 E3.73535
G1 X123.581 Y110.049 E3.74671
G1 X123.448 Y110.454 E3.78074
G1 X123.382 Y110.617 E3.79478
G1 X123.208 Y110.985 E3.82727
G1 X123.133 Y111.122 E3.83974
G1 X122.909 Y111.473 E3.87298
G1 X122.804 Y111.614 E3.88701
G1 X122.34 Y112.146 E3.94336
G1 X122.238 Y112.241 E3.95449
G1 X121.923 Y112.518 E3.98797
G1 X121.77 Y112.637 E4.00344
G1 X121.443 Y112.859 E4.03499
G1 X121.3 Y112.943 E4.04823
G1 X120.893 Y113.149 E4.08464
G1 X120.422 Y113.398 E4.12717
G1 X119.98 Y113.734 E4.17149
G1 X119.599 Y114.137 E4.21576
G1 X119.287 Y114.597 E4.26013
G1 X119.056 Y115.102 E4.30446
G1 X118.909 Y115.639 E4.3489
G1 X118.852 Y116.246 E4.39757
G1 X118.848 Y118.3 E4.56153
G1 X118.82 Y118.741 E4.5968
G1 X118.798 Y118.915 E4.6108
G1 X118.718 Y119.331 E4.64462
G1 X118.683 Y119.469 E4.65598
G1 X118.55 Y119.874 E4.69001
G1 X118.484 Y120.037 E4.70405
G1 X118.31 Y120.405 E4.73654
G1 X118.235 Y120.542 E4.74901
G1 X118.011 Y120.892 E4.78218
G1 X117.906 Y121.035 E4.79634
G1 X117.646 Y121.345 E4.82864
G1 X117.524 Y121.475 E4.84287
G1 X117.222 Y121.755 E4.87574
G1 X117.091 Y121.862 E4.88924
G1 X116.758 Y122.101 E4.92196
G1 X116.62 Y122.188 E4.93498
G1 X116.234 Y122.395 E4.96995
G1 X116.126 Y122.446 E4.97948
G1 X115.702 Y122.611 E5.0158
G1 X115.559 Y122.655 E5.02774
G1 X115.177 Y122.75 E5.05916
G1 X114.972 Y122.784 E5.07575
G1 X114.301 Y122.844 E5.12953
G1 X114.167 Y122.85 E5.14023
G1 X101.043 Y122.85 E6.18785
G1 X100.476 Y122.818 E6.23318
G1 X100.302 Y122.796 E6.24718
G1 X99.886 Y122.716 E6.281
G1 X99.743 Y122.68 E6.29277
G1 X99.343 Y122.548 E6.32639
G1 X99.18 Y122.482 E6.34043
G1 X98.812 Y122.308 E6.37292
G1 X98.675 Y122.233 E6.38539
G1 X98.324 Y122.009 E6.41863
G1 X98.183 Y121.904 E6.43266
G1 X97.754 Y121.536 E6.47778
G1 X97.653 Y121.442 E6.48879
G1 X97.556 Y121.338 E6.50014
G1 X97.274 Y121.017 E6.53425
G1 X97.171 Y120.884 E6.54768
G1 X96.932 Y120.533 E6.58158
G1 X96.853 Y120.398 E6.59406
G1 X96.652 Y120.002 E6.62951
G1 X96.599 Y119.879 E6.6402
G1 X96.454 Y119.469 E6.67492
G1 X96.414 Y119.33 E6.68646
G1 X96.323 Y118.917 E6.72022
G1 X96.298 Y118.747 E6.73394
G1 X96.25 Y118.049 E6.78979
G1 X96.254 Y114.817 E7.04778
G1 X96.282 Y114.376 E7.08305
G1 X96.304 Y114.202 E7.09705
G1 X96.384 Y113.786 E7.13087
G1 X96.419 Y113.648 E7.14223
G1 X96.552 Y113.243 E7.17626
G1 X96.62 Y113.074 E7.1908
G1 X96.792 Y112.711 E7.22286
G1 X96.863 Y112.582 E7.23462
G1 X97.098 Y112.215 E7.2694
G1 X97.196 Y112.083 E7.28253
G1 X97.564 Y111.654 E7.32765
G1 X97.658 Y111.553 E7.33866
G1 X97.762 Y111.456 E7.35001
G0 F12000 X97.6 Y111.615
G1 F1800 X97.6 Y121.385 E8.1299
G0 F12000 X99.2 Y122.49
G1 F1800 X99.2 Y110.508 E9.08635
G0 F12000 X100.8 Y110.167
G1 F1800 X100.8 Y122.836 E10.09764
G0 F12000 X102.4 Y122.85
G1 F1800 X102.4 Y110.15 E11.11141
G0 F12000 X104 Y110.15
G1 F1800 X104 Y122.85 E12.12518
G0 F12000 X105.6 Y122.85
G1 F1800 X105.6 Y110.15 E13.13895
G0 F12000 X107.2 Y110.111
G1 F1800 X107.2 Y122.85 E14.15583
G0 F12000 X108.8 Y122.85
G1 F1800 X108.8 Y109.432 E15.22692
G0 F12000 X110.4 Y105.86
G1 F1800 X110.4 Y122.85 E16.58313
G0 F12000 X112 Y122.85
G1 F1800 X112 Y98.083 E18.56014
G0 F12000 X113.6 Y97.307
G1 F1800 X113.6 Y122.85 E20.59909
G0 F12000 X115.2 Y122.745
G1 F1800 X115.2 Y97.151 E22.64212
G0 F12000 X116.8 Y97.152
G1 F1800 X116.8 Y122.071 E24.63126
G0 F12000 X118.4 Y120.215
G1 F1800 X118.4 Y97.154 E26.47209
G0 F12000 X120 Y97.263
G1 F1800 X120 Y113.719 E27.78568
G0 F12000 X121.6 Y112.753
G1 F1800 X121.6 Y97.943 E28.96788
G0 F12000 X123.2 Y99.707
G1 F1800 X123.2 Y111 E29.86933
G1 F2700 E24.86933
G0 F12000 X124.133 Y111.514
G0 X124.599 Y110.36
G0 X124.778 Y109.423
G0 X124.807 Y101.756
G0 X124.725 Y100.889
G0 X124.393 Y99.733
G0 X123.969 Y98.899
G0 X123.11 Y97.816
G0 X122.278 Y97.114
G0 X121.241 Y96.54
G0 X120.335 Y96.242
G0 X118.98 Y96.086
G0 X114.656 Y96.093
G0 X113.789 Y96.175
G0 X112.633 Y96.507
G0 X111.799 Y96.931
G0 X110.724 Y97.782
G0 X110.014 Y98.622
G0 X109.44 Y99.659
G0 X109.142 Y100.565
G0 X108.986 Y101.92
G0 X109.06 Y103.228
G0 X109.404 Y104.66
G0 X110.4 Y104.264
G1 F2700 E29.86933
G1 F1800 X110.4 Y100.123 E30.19988
G1 F2700 E25.19988
G0 F300 X110.4 Y100.123 Z0.54
G0 F12000 X109.44 Y99.659
G0 X110.014 Y98.622
G0 X110.845 Y97.67
G0 X111.799 Y96.931
G0 X112.633 Y96.507
G0 X113.789 Y96.175
G0 X114.821 Y96.086
G0 X119.626 Y96.122
G0 X120.563 Y96.301
G0 X121.677 Y96.746
G0 X122.485 Y97.267
G0 X123.23 Y97.945
G0 X123.969 Y98.899
G0 X124.088 Y99.135
G0 X124.56 Y100.204
G0 X123.585 Y100.669
;TIME_ELAPSED:21.465210
;LAYER:-5
M140 S50
;TYPE:SUPPORT
G1 F2700 E30.19988
G1 F1800 X123.543 Y100.523 E30.21504
G1 X123.4 Y100.12 E30.25771
G1 X123.346 Y99.998 E30.27102
G1 X123.145 Y99.6 E30.31551
G1 X123.061 Y99.456 E30.33215
G1 X122.84 Y99.13 E30.37145
G1 X122.72 Y98.977 E30.39085
G1 X122.436 Y98.653 E30.43384
G1 X122.348 Y98.56 E30.44661
G1 X121.816 Y98.095 E30.51712
G1 X121.675 Y97.991 E30.5346
G1 X121.324 Y97.766 E30.5762
G1 X121.187 Y97.691 E30.59178
G1 X120.819 Y97.517 E30.6324
G1 X120.656 Y97.452 E30.64991
G1 X120.256 Y97.32 E30.69194
G1 X120.113 Y97.283 E30.70668
G1 X119.863 Y97.236 E30.73206
G1 X123.667 Y101.039 E31.26877
G1 X123.676 Y101.083 E31.27326
G1 X123.701 Y101.253 E31.2904
G1 X123.749 Y101.95 E31.36011
G1 X123.745 Y102.394 E31.40442
G1 X123.738 Y102.524 E31.41741
G1 X118.366 Y97.153 E32.17538
G1 X116.951 Y97.152 E32.31657
G1 X123.525 Y103.726 E33.24424
G1 X123.443 Y103.976 E33.27049
G1 X123.317 Y104.499 E33.32417
G1 X123.289 Y104.904 E33.36467
G1 X115.535 Y97.15 E34.45885
G1 X114.85 Y97.15 E34.5272
G1 X114.168 Y97.197 E34.59541
G1 X123.617 Y106.647 E35.92883
G1 X123.676 Y106.913 E35.95602
G1 X123.701 Y107.084 E35.97326
G1 X123.749 Y107.781 E36.04298
G1 X123.747 Y108.191 E36.08389
G1 X113.046 Y97.49 E37.59391
G1 X113.02 Y97.499 E37.59666
G1 X112.891 Y97.555 E37.61069
G1 X112.499 Y97.754 E37.65456
G1 X112.356 Y97.838 E37.6711
G1 X112.132 Y97.99 E37.69812
G1 X123.685 Y109.543 E39.32837
G1 X123.614 Y109.911 E39.36577
G1 X123.58 Y110.049 E39.37995
G1 X123.447 Y110.453 E39.42239
G1 X123.381 Y110.616 E39.43993
G1 X123.37 Y110.642 E39.44275
G1 X111.372 Y98.644 E41.1358
G1 X111.363 Y98.654 E41.13714
G1 X110.995 Y99.083 E41.19354
G1 X110.889 Y99.224 E41.21114
G1 X110.752 Y99.439 E41.23658
G1 X122.856 Y111.543 E42.94458
G1 X122.803 Y111.613 E42.95334
G1 X122.339 Y112.145 E43.02378
G1 X122.236 Y112.241 E43.03783
G1 X122.185 Y112.285 E43.04455
G1 X110.299 Y100.399 E44.72179
G1 X110.218 Y100.648 E44.74792
G1 X110.183 Y100.786 E44.76212
G1 X110.102 Y101.201 E44.80431
G1 X110.081 Y101.375 E44.8218
G1 X110.068 Y101.582 E44.8425
G1 X121.379 Y112.894 E46.43867
G1 X121.299 Y112.942 E46.44798
G1 X120.891 Y113.149 E46.49363
G1 X120.452 Y113.381 E46.54318
G1 X110.093 Y103.022 E48.00494
G1 X110.118 Y103.194 E48.02229
G1 X110.196 Y103.566 E48.06021
G1 X110.248 Y103.751 E48.07939
G1 X110.322 Y103.97 E48.10245
G1 X110.454 Y104.476 E48.15463
G1 X110.486 Y104.829 E48.19
G1 X119.694 Y114.037 E49.48935
G1 X119.598 Y114.136 E49.50311
G1 X119.286 Y114.596 E49.55857
G1 X119.146 Y114.903 E49.59223
G1 X110.341 Y106.099 E50.83464
G1 X110.34 Y106.106 E50.83535
G1 X110.223 Y106.459 E50.87246
G1 X110.18 Y106.63 E50.89005
G1 X110.102 Y107.038 E50.9315
G1 X110.081 Y107.198 E50.9476
G1 X110.072 Y107.244 E50.95228
G1 X118.871 Y116.042 E52.19384
G1 X118.851 Y116.246 E52.21429
G1 X118.849 Y117.434 E52.33283
G1 X109.723 Y108.308 E53.62061
G1 X109.537 Y108.643 E53.65884
G1 X109.19 Y109.078 E53.71436
G1 X109.132 Y109.132 E53.72227
G1 X118.81 Y118.81 E55.08794
G1 X118.798 Y118.914 E55.09839
G1 X118.718 Y119.33 E55.14066
G1 X118.682 Y119.467 E55.15479
G1 X118.549 Y119.873 E55.19742
G1 X118.523 Y119.938 E55.20441
G1 X108.327 Y109.741 E56.64324
G1 X108.313 Y109.75 E56.6449
G1 X107.804 Y109.97 E56.70023
G1 X107.274 Y110.102 E56.75473
G1 X118.03 Y120.859 E58.27259
G1 X118.01 Y120.891 E58.27635
G1 X117.905 Y121.034 E58.29406
G1 X117.646 Y121.344 E58.33436
G1 X117.523 Y121.473 E58.35215
G1 X117.371 Y121.614 E58.37284
G1 X105.906 Y110.148 E59.99074
G1 X104.491 Y110.148 E60.13193
G1 X116.561 Y122.218 E61.83514
G1 X116.234 Y122.394 E61.87219
G1 X116.126 Y122.444 E61.88407
G1 X115.701 Y122.61 E61.92959
G1 X115.577 Y122.648 E61.94253
G1 X103.077 Y110.148 E63.70642
G1 X101.663 Y110.148 E63.84751
G1 X114.352 Y122.837 E65.63806
G1 X114.3 Y122.842 E65.64328
G1 X114.167 Y122.849 E65.65657
G1 X112.949 Y122.849 E65.7781
G1 X100.305 Y110.204 E67.56237
G1 X100.182 Y110.222 E67.57478
G1 X99.769 Y110.312 E67.61695
G1 X99.624 Y110.354 E67.63202
G1 X99.221 Y110.498 E67.67472
G1 X99.195 Y110.509 E67.67754
G1 X111.535 Y122.849 E69.41884
G1 X110.121 Y122.849 E69.55993
G1 X98.29 Y111.018 E71.22941
G1 X98.231 Y111.058 E71.23653
G1 X98.077 Y111.178 E71.25601
G1 X97.761 Y111.455 E71.29794
G1 X97.657 Y111.552 E71.31213
G1 X97.563 Y111.653 E71.32589
G1 X97.539 Y111.681 E71.32957
G1 X108.707 Y122.849 E72.9055
G1 X107.292 Y122.849 E73.04669
G1 X96.925 Y112.481 E74.50965
G1 X96.862 Y112.581 E74.52145
G1 X96.791 Y112.709 E74.53605
G1 X96.62 Y113.073 E74.57618
G1 X96.551 Y113.242 E74.5944
G1 X96.482 Y113.453 E74.61655
G1 X105.878 Y122.849 E75.94242
G1 X104.464 Y122.849 E76.08351
G1 X96.264 Y114.648 E77.24069
G1 X96.253 Y114.816 E77.25749
G1 X96.252 Y116.051 E77.38072
G1 X103.05 Y122.849 E78.33999
G1 X101.635 Y122.849 E78.48118
G1 X96.249 Y117.463 E79.2412
G1 X96.249 Y118.048 E79.29957
G1 X96.298 Y118.745 E79.36929
G1 X96.322 Y118.916 E79.38652
G1 X96.331 Y118.959 E79.39091
G1 X100.135 Y122.762 E79.92762
G1 X99.885 Y122.715 E79.953
G1 X99.743 Y122.678 E79.96765
G1 X99.342 Y122.547 E80.00974
G1 X99.179 Y122.481 E80.02728
G1 X98.811 Y122.307 E80.0679
G1 X98.674 Y122.232 E80.08349
G1 X98.323 Y122.007 E80.12509
G1 X98.183 Y121.903 E80.14249
G1 X97.753 Y121.535 E80.19896
G1 X97.652 Y121.441 E80.21273
G1 X97.555 Y121.337 E80.22692
G1 X97.274 Y121.016 E80.26949
G1 X97.171 Y120.883 E80.28627
G1 X96.931 Y120.532 E80.3287
G1 X96.853 Y120.396 E80.34434
G1 X96.652 Y120 E80.38865
G1 X96.599 Y119.878 E80.40193
G1 X96.453 Y119.468 E80.44535
G1 X96.414 Y119.329 E80.45976
G1 F2700 E75.45976
G0 F300 X96.414 Y119.329 Z0.74
G0 F12000 X95.44 Y119.796
G0 X95.919 Y120.912
G0 X96.451 Y121.692
G0 X97.039 Y122.324
G0 X97.722 Y122.886
G0 X98.759 Y123.46
G0 X99.468 Y122.8
;TIME_ELAPSED:41.098903
;LAYER:-4
;TYPE:SUPPORT-INTERFACE
G1 F2700 E80.45976
G1 F2400 X115.765 Y122.8 E81.0018
G1 X115.613 Y122.848 E81.0071
G1 X115.218 Y122.945 E81.02063
G1 X114.996 Y122.983 E81.02812
G1 X114.309 Y123.044 E81.05106
G1 X114.175 Y123.05 E81.05552
G1 X100.916 Y123.046 E81.49652
G1 X100.448 Y123.016 E81.51211
G1 X100.266 Y122.994 E81.51821
G1 X99.859 Y122.915 E81.532
G1 X99.672 Y122.867 E81.53842
G1 F2700 E76.53842
G0 F12000 X99.665 Y123.758
G0 X101.02 Y123.914
G0 X114.363 Y123.907
G0 X114.654 Y123.875
G0 X115.851 Y123.679
G0 X115.765 Y122.8
G1 F2700 E81.53842
G1 F2400 X115.775 Y122.797 E81.53877
G1 X116.184 Y122.638 E81.55337
G1 X116.33 Y122.57 E81.55872
G1 X116.646 Y122.4 E81.57066
G1 X98.567 Y122.4 E82.17197
G1 X98.206 Y122.17 E82.1862
G1 X98.047 Y122.052 E82.19279
G1 X97.987 Y122 E82.19543
G1 X117.237 Y122 E82.83569
G1 X117.36 Y121.901 E82.84094
G1 X117.668 Y121.614 E82.85494
G1 X117.681 Y121.6 E82.85558
G1 X97.527 Y121.6 E83.5259
G1 X97.515 Y121.589 E83.52644
G1 X97.409 Y121.474 E83.53164
G1 X97.167 Y121.2 E83.5438
G1 X118.029 Y121.2 E84.23768
G1 X118.065 Y121.157 E84.23954
G1 X118.164 Y121.021 E84.24514
G1 X118.305 Y120.8 E84.25386
G1 X96.869 Y120.8 E84.96682
G1 X96.76 Y120.639 E84.97329
G1 X96.674 Y120.492 E84.97895
G1 X96.627 Y120.4 E84.98239
G1 X118.531 Y120.4 E85.71092
G1 X118.667 Y120.114 E85.72145
G1 X118.712 Y120 E85.72553
G1 X96.432 Y120 E86.46656
G1 X96.408 Y119.944 E86.46859
G1 X96.286 Y119.6 E86.48073
G1 X118.849 Y119.6 E87.23118
G1 X118.87 Y119.537 E87.23339
G1 X118.916 Y119.356 E87.2396
G1 X118.946 Y119.2 E87.24488
G1 X96.178 Y119.2 E88.00215
G1 X96.125 Y118.957 E88.01042
G1 X96.103 Y118.8 E88.01569
G1 X119.014 Y118.8 E88.77772
G1 X119.018 Y118.767 E88.77882
G1 X119.041 Y118.4 E88.79105
G1 X96.073 Y118.4 E89.55497
G1 X96.05 Y118.066 E89.56611
G1 X96.051 Y118 E89.5683
G1 X119.048 Y118 E90.33318
G1 X119.049 Y117.6 E90.34649
