;FLAVOR:Marlin
;TIME:5782
;Filament used: 4.88866m
;Layer height: 0.2
;MINX:67.127
;MINY:63.168
;MINZ:0.24
;MAXX:152.868
;MAXY:156.833
;MAXZ:14.49
;Generated with Cura_SteamEngine 4.6.1
M140 S50
M105
M190 S50
M104 S205
M105
M109 S205
M82 ;absolute extrusion mode
M201 X500.00 Y500.00 Z100.00 E5000.00 ;Setup machine max acceleration
M203 X500.00 Y500.00 Z10.00 E50.00 ;Setup machine max feedrate
M204 P500.00 R1000.00 T500.00 ;Setup Print/Retract/Travel acceleration
M205 X8.00 Y8.00 Z0.40 E5.00 ;Setup Jerk
M220 S100 ;Reset Feedrate
M221 S100 ;Reset Flowrate

G28 ;Home

G92 E0 ;Reset Extruder
G1 Z2.0 F3000 ;Move Z Axis up
G1 X10.1 Y20 Z0.28 F5000.0 ;Move to start position
G1 X10.1 Y200.0 Z0.28 F1500.0 E15 ;Draw the first line
G1 X10.4 Y200.0 Z0.28 F5000.0 ;Move to side a little
G1 X10.4 Y20 Z0.28 F1500.0 E30 ;Draw the second line
G92 E0 ;Reset Extruder
G1 Z2.0 F3000 ;Move Z Axis up

G92 E0
G92 E0
G1 F2700 E-5
;LAYER_COUNT:67
;LAYER:-6
M107
G0 F12000 X76.984 Y67.875 Z0.24
;TYPE:SUPPORT-INTERFACE
G1 F2700 E0
G1 F1800 X77.429 Y67.401 E0.0519
G1 X78.026 Y66.846 E0.11697
G1 X78.547 Y66.426 E0.17038
G1 X79.224 Y65.953 E0.23631
G1 X79.764 Y65.627 E0.28666
G1 X80.511 Y65.242 E0.35374
G1 X81.101 Y64.988 E0.40502
G1 X81.859 Y64.719 E0.46922
G1 X82.496 Y64.541 E0.52202
G1 X83.294 Y64.377 E0.58705
G1 X83.882 Y64.292 E0.63447
G1 X84.003 Y64.283 E0.64416
G1 X84.874 Y64.232 E0.7138
G1 X85.489 Y64.236 E0.7629
G1 X86.291 Y64.295 E0.82709
G1 X86.9 Y64.382 E0.8762
G1 X87.72 Y64.553 E0.94306
G1 X88.363 Y64.738 E0.99647
G1 X89.124 Y65.011 E1.06101
G1 X89.731 Y65.279 E1.11397
G1 X90.453 Y65.655 E1.17895
G1 X90.999 Y65.988 E1.23
G1 X91.677 Y66.469 E1.29636
G1 X92.132 Y66.835 E1.34297
G1 X92.793 Y67.456 E1.41537
G1 X93.246 Y67.948 E1.46875
G1 X93.743 Y68.562 E1.53181
G1 X94.124 Y69.105 E1.58476
G1 X94.532 Y69.778 E1.64758
G1 X94.843 Y70.381 E1.70174
G1 X95.186 Y71.182 E1.7713
G1 X95.4 Y71.795 E1.82313
G1 X95.455 Y71.991 E1.83938
G1 X95.644 Y72.497 E1.88249
G1 X95.921 Y72.978 E1.9268
G1 X96.272 Y73.407 E1.97105
G1 X96.688 Y73.775 E2.01538
G1 X97.158 Y74.069 E2.05963
G1 X97.67 Y74.284 E2.10396
G1 X98.208 Y74.411 E2.14809
G1 X98.707 Y74.449 E2.18804
G1 X119.919 Y74.449 E3.88127
G1 X120.456 Y74.405 E3.92428
G1 X120.995 Y74.27 E3.96863
G1 X121.504 Y74.05 E4.0129
G1 X121.971 Y73.75 E4.0572
G1 X122.382 Y73.378 E4.10145
G1 X122.729 Y72.943 E4.14587
G1 X122.998 Y72.459 E4.19007
G1 X123.174 Y71.975 E4.23118
G1 X123.25 Y71.712 E4.25304
G1 X123.467 Y71.101 E4.30479
G1 X123.798 Y70.343 E4.37082
G1 X124.113 Y69.744 E4.42484
G1 X124.549 Y69.032 E4.49148
G1 X124.925 Y68.506 E4.5431
G1 X125.442 Y67.875 E4.60821
G1 X125.887 Y67.401 E4.66011
G1 X126.484 Y66.846 E4.72518
G1 X127.005 Y66.426 E4.7786
G1 X127.682 Y65.953 E4.84452
G1 X128.222 Y65.627 E4.89487
G1 X128.952 Y65.249 E4.96049
G1 X129.565 Y64.986 E5.01374
G1 X130.308 Y64.721 E5.07671
G1 X130.967 Y64.538 E5.1313
G1 X131.779 Y64.371 E5.19748
G1 X132.34 Y64.292 E5.2427
G1 X132.461 Y64.283 E5.25239
G1 X133.332 Y64.232 E5.32203
G1 X133.947 Y64.236 E5.37113
G1 X134.749 Y64.295 E5.43532
G1 X135.358 Y64.382 E5.48442
G1 X136.178 Y64.553 E5.55129
G1 X136.821 Y64.738 E5.6047
G1 X137.582 Y65.011 E5.66923
G1 X138.189 Y65.279 E5.7222
G1 X138.911 Y65.655 E5.78718
G1 X139.457 Y65.988 E5.83823
G1 X140.135 Y66.469 E5.90459
G1 X140.59 Y66.835 E5.9512
G1 X141.251 Y67.456 E6.0236
G1 X141.704 Y67.948 E6.07698
G1 X142.201 Y68.562 E6.14004
G1 X142.582 Y69.105 E6.19299
G1 X142.99 Y69.778 E6.25581
G1 X143.301 Y70.381 E6.30997
G1 X143.644 Y71.182 E6.37953
G1 X143.85 Y71.769 E6.42918
G1 X144.04 Y72.446 E6.48531
G1 X144.227 Y72.951 E6.5283
G1 X144.503 Y73.433 E6.57264
G1 X144.853 Y73.864 E6.61696
G1 X145.268 Y74.231 E6.66118
G1 X145.738 Y74.527 E6.70552
G1 X146.215 Y74.729 E6.74687
G1 X146.827 Y74.937 E6.79846
G1 X147.478 Y75.209 E6.85478
G1 X147.883 Y75.406 E6.89073
G1 X148.05 Y75.501 E6.90607
G1 X148.533 Y75.823 E6.95241
G1 X149.121 Y76.275 E7.01161
G1 X149.472 Y76.578 E7.04862
G1 X149.605 Y76.711 E7.06364
G1 X149.989 Y77.146 E7.10995
G1 X150.414 Y77.698 E7.16556
G1 X150.681 Y78.091 E7.20349
G1 X150.777 Y78.254 E7.21859
G1 X151.013 Y78.724 E7.26057
G1 X151.304 Y79.396 E7.31903
G1 X151.468 Y79.849 E7.35748
G1 X151.518 Y80.021 E7.37178
G1 X151.635 Y80.556 E7.4155
G1 X151.751 Y81.345 E7.47916
G1 X151.801 Y82.072 E7.53733
G1 X151.809 Y137.773 E11.98362
G1 X151.805 Y137.987 E12.00071
G1 X151.764 Y138.591 E12.04903
G1 X151.671 Y139.282 E12.10469
G1 X151.577 Y139.764 E12.14389
G1 X151.539 Y139.915 E12.15632
G1 X151.382 Y140.387 E12.19602
G1 X151.104 Y141.09 E12.25637
G1 X150.903 Y141.522 E12.2944
G1 X150.819 Y141.675 E12.30833
G1 X150.507 Y142.16 E12.35437
G1 X150.04 Y142.788 E12.41684
G1 X149.65 Y143.247 E12.46492
G1 X149.575 Y143.319 E12.47322
G1 X149.07 Y143.766 E12.52705
G1 X148.578 Y144.146 E12.57668
G1 X148.119 Y144.46 E12.62107
G1 X147.969 Y144.547 E12.63491
G1 X147.444 Y144.807 E12.68168
G1 X146.791 Y145.077 E12.73808
G1 X145.898 Y145.387 E12.81354
G1 X145.901 Y145.401 E12.81468
G1 X145.853 Y145.419 E12.81877
G1 X145.373 Y145.696 E12.86301
G1 X144.943 Y146.049 E12.90742
G1 X144.577 Y146.466 E12.95171
G1 X144.281 Y146.94 E12.99632
G1 X144.037 Y147.562 E13.04965
G1 X143.862 Y148.191 E13.10177
G1 X143.822 Y148.315 E13.11217
G1 X143.6 Y148.931 E13.16444
G1 X143.295 Y149.634 E13.22561
G1 X142.965 Y150.265 E13.28245
G1 X142.534 Y150.968 E13.34827
G1 X142.165 Y151.485 E13.39897
G1 X141.641 Y152.125 E13.465
G1 X141.196 Y152.599 E13.5169
G1 X140.592 Y153.159 E13.58265
G1 X140.078 Y153.574 E13.63538
G1 X139.409 Y154.042 E13.70055
G1 X138.861 Y154.373 E13.75166
G1 X138.114 Y154.758 E13.81874
G1 X137.524 Y155.012 E13.87001
G1 X136.766 Y155.281 E13.93422
G1 X136.129 Y155.459 E13.98701
G1 X135.309 Y155.627 E14.05383
G1 X134.74 Y155.708 E14.09971
G1 X133.829 Y155.768 E14.17259
G1 X133.177 Y155.766 E14.22463
G1 X132.348 Y155.706 E14.29098
G1 X131.722 Y155.618 E14.34144
G1 X130.894 Y155.444 E14.40898
G1 X130.245 Y155.257 E14.46289
G1 X129.511 Y154.994 E14.52513
G1 X128.886 Y154.717 E14.5797
G1 X128.172 Y154.345 E14.64397
G1 X127.622 Y154.01 E14.69537
G1 X126.954 Y153.537 E14.76071
G1 X126.436 Y153.112 E14.81419
G1 X125.839 Y152.551 E14.87959
G1 X125.379 Y152.052 E14.93376
G1 X124.891 Y151.451 E14.99556
G1 X124.509 Y150.908 E15.04856
G1 X124.074 Y150.189 E15.11564
G1 X123.778 Y149.613 E15.16733
G1 X123.456 Y148.869 E15.23205
G1 X123.236 Y148.242 E15.28509
G1 X123.173 Y148.016 E15.30382
G1 X122.986 Y147.511 E15.3468
G1 X122.71 Y147.029 E15.39114
G1 X122.361 Y146.598 E15.43541
G1 X121.945 Y146.23 E15.47974
G1 X121.476 Y145.935 E15.52397
G1 X120.964 Y145.719 E15.56833
G1 X120.425 Y145.59 E15.61257
G1 X119.919 Y145.551 E15.65308
G1 X98.664 Y145.551 E17.34975
G1 X98.127 Y145.595 E17.39275
G1 X97.588 Y145.73 E17.43711
G1 X97.079 Y145.95 E17.48137
G1 X96.612 Y146.25 E17.52568
G1 X96.201 Y146.622 E17.56993
G1 X95.854 Y147.057 E17.61435
G1 X95.585 Y147.541 E17.65855
G1 X95.41 Y148.021 E17.69933
G1 X95.326 Y148.305 E17.72297
G1 X95.1 Y148.931 E17.7761
G1 X94.795 Y149.634 E17.83727
G1 X94.465 Y150.265 E17.89411
G1 X94.034 Y150.968 E17.95994
G1 X93.665 Y151.485 E18.01064
G1 X93.141 Y152.125 E18.07666
G1 X92.696 Y152.599 E18.12856
G1 X92.092 Y153.159 E18.19431
G1 X91.578 Y153.574 E18.24704
G1 X90.909 Y154.042 E18.31222
G1 X90.361 Y154.373 E18.36332
G1 X89.614 Y154.758 E18.4304
G1 X89.024 Y155.012 E18.48168
G1 X88.266 Y155.281 E18.54588
G1 X87.629 Y155.459 E18.59868
G1 X86.809 Y155.627 E18.66549
G1 X86.24 Y155.708 E18.71137
G1 X85.329 Y155.768 E18.78425
G1 X84.677 Y155.766 E18.8363
G1 X83.848 Y155.706 E18.90264
G1 X83.222 Y155.618 E18.9531
G1 X82.394 Y155.444 E19.02064
G1 X81.745 Y155.257 E19.07456
G1 X81.011 Y154.994 E19.13679
G1 X80.386 Y154.717 E19.19137
G1 X79.672 Y154.345 E19.25563
G1 X79.122 Y154.01 E19.30704
G1 X78.454 Y153.537 E19.37237
G1 X77.936 Y153.112 E19.42586
G1 X77.339 Y152.551 E19.49125
G1 X76.879 Y152.052 E19.54543
G1 X76.391 Y151.451 E19.60723
G1 X76.009 Y150.908 E19.66022
G1 X75.574 Y150.189 E19.7273
G1 X75.278 Y149.613 E19.779
G1 X74.956 Y148.869 E19.84371
G1 X74.729 Y148.22 E19.89859
G1 X74.515 Y147.45 E19.96239
G1 X74.459 Y147.181 E19.98432
G1 X74.305 Y146.665 E20.02731
G1 X74.064 Y146.165 E20.07161
G1 X73.743 Y145.712 E20.11593
G1 X73.353 Y145.317 E20.16024
G1 X73.054 Y145.101 E20.18968
G1 X73.089 Y145.066 E20.19364
G1 X72.12 Y144.596 E20.2796
G1 X71.962 Y144.507 E20.29408
G1 X71.459 Y144.171 E20.34237
G1 X70.879 Y143.725 E20.40077
G1 X70.528 Y143.422 E20.43778
G1 X70.395 Y143.289 E20.4528
G1 X70.003 Y142.844 E20.50014
G1 X69.586 Y142.302 E20.55472
G1 X69.317 Y141.906 E20.59294
G1 X69.223 Y141.746 E20.60775
G1 X68.981 Y141.263 E20.65087
G1 X68.692 Y140.592 E20.70919
G1 X68.532 Y140.151 E20.74664
G1 X68.482 Y139.979 E20.76094
G1 X68.363 Y139.433 E20.80555
G1 X68.249 Y138.655 E20.86831
G1 X68.199 Y137.92 E20.92712
G1 X68.191 Y82.127 E25.38076
G1 X68.195 Y82.008 E25.39026
G1 X68.238 Y81.393 E25.43947
G1 X68.329 Y80.718 E25.49384
G1 X68.423 Y80.236 E25.53304
G1 X68.462 Y80.083 E25.54565
G1 X68.618 Y79.613 E25.58518
G1 X68.896 Y78.91 E25.64552
G1 X69.094 Y78.485 E25.68295
G1 X69.183 Y78.322 E25.69777
G1 X69.495 Y77.836 E25.74387
G1 X69.964 Y77.207 E25.8065
G1 X70.231 Y76.888 E25.83971
G1 X70.376 Y76.737 E25.85642
G1 X70.805 Y76.347 E25.9027
G1 X71.383 Y75.888 E25.96162
G1 X71.788 Y75.604 E26.0011
G1 X71.913 Y75.528 E26.01278
G1 X72.468 Y75.244 E26.06255
G1 X72.554 Y75.206 E26.07005
G1 X73.029 Y74.952 E26.11305
G1 X73.468 Y74.613 E26.15732
G1 X73.847 Y74.207 E26.20166
G1 X74.154 Y73.744 E26.246
G1 X74.382 Y73.241 E26.29009
G1 X74.507 Y72.795 E26.32706
G1 X74.57 Y72.5 E26.35114
G1 X74.803 Y71.685 E26.4188
G1 X75.028 Y71.062 E26.47168
G1 X75.341 Y70.343 E26.53428
G1 X75.66 Y69.735 E26.58908
G1 X76.019 Y69.144 E26.64428
G1 X76.102 Y69.017 E26.65639
G1 X76.46 Y68.515 E26.70561
G1 X76.984 Y67.875 E26.77164
G1 F2700 E21.77164
G0 F12000 X76.09 Y67.281
G0 X85.41 Y95.996
G0 X84.761 Y95.148
G1 F2700 E26.77164
G1 F1800 X84.35 Y95.52 E26.81589
G1 X84.003 Y95.955 E26.8603
G1 X83.734 Y96.44 E26.90458
G1 X83.546 Y96.961 E26.94879
G1 X83.446 Y97.5 E26.99255
G1 X83.429 Y97.839 E27.01964
G1 X83.429 Y122.167 E28.96161
G1 X83.473 Y122.704 E29.00462
G1 X83.608 Y123.243 E29.04897
G1 X83.828 Y123.752 E29.09324
G1 X84.128 Y124.219 E29.13754
G1 X84.5 Y124.63 E29.18179
G1 X84.935 Y124.977 E29.22621
G1 X85.42 Y125.246 E29.27048
G1 X85.941 Y125.434 E29.3147
G1 X86.48 Y125.534 E29.35846
G1 X86.819 Y125.551 E29.38555
G1 X125.769 Y125.551 E32.49471
G1 X126.306 Y125.507 E32.53772
G1 X126.845 Y125.372 E32.58207
G1 X127.354 Y125.152 E32.62633
G1 X127.821 Y124.852 E32.67064
G1 X128.232 Y124.48 E32.71489
G1 X128.579 Y124.045 E32.75931
G1 X128.848 Y123.56 E32.80358
G1 X129.036 Y123.039 E32.84779
G1 X129.136 Y122.5 E32.89155
G1 X129.153 Y122.161 E32.91865
G1 X129.153 Y97.833 E34.86061
G1 X129.109 Y97.296 E34.90362
G1 X128.974 Y96.757 E34.94798
G1 X128.754 Y96.248 E34.99224
G1 X128.454 Y95.781 E35.03655
G1 X128.082 Y95.37 E35.0808
G1 X127.647 Y95.023 E35.12522
G1 X127.162 Y94.754 E35.16949
G1 X126.641 Y94.566 E35.2137
G1 X126.102 Y94.466 E35.25746
G1 X125.763 Y94.449 E35.28456
G1 X86.813 Y94.449 E38.39371
G1 X86.276 Y94.493 E38.43672
G1 X85.737 Y94.628 E38.48108
G1 X85.228 Y94.848 E38.52534
G1 X84.761 Y95.148 E38.56965
G0 F12000 X84.8 Y95.123
G1 F1800 X84.8 Y64.236 E41.03518
G0 F12000 X86.4 Y64.311
G1 F1800 X86.4 Y94.483 E43.44364
G0 F12000 X88 Y94.449
G1 F1800 X88 Y64.634 E45.8236
G0 F12000 X89.6 Y65.222
G1 F1800 X89.6 Y94.449 E48.15663
G0 F12000 X91.2 Y94.449
G1 F1800 X91.2 Y66.131 E50.41709
G0 F12000 X92.8 Y67.464
G1 F1800 X92.8 Y94.449 E52.57115
G0 F12000 X94.4 Y94.449
G1 F1800 X94.4 Y69.561 E54.55782
G0 F12000 X96 Y73.075
G1 F1800 X96 Y94.449 E56.26399
G0 F12000 X97.6 Y94.449
G1 F1800 X97.6 Y74.255 E57.87596
G0 F12000 X99.2 Y74.449
G1 F1800 X99.2 Y94.449 E59.47244
G0 F12000 X100.8 Y94.449
G1 F1800 X100.8 Y74.449 E61.06893
G0 F12000 X102.4 Y74.449
G1 F1800 X102.4 Y94.449 E62.66542
G0 F12000 X104 Y94.449
G1 F1800 X104 Y74.449 E64.2619
G0 F12000 X105.6 Y74.449
G1 F1800 X105.6 Y94.449 E65.85839
G0 F12000 X107.2 Y94.449
G1 F1800 X107.2 Y74.449 E67.45488
G0 F12000 X108.8 Y74.449
G1 F1800 X108.8 Y94.449 E69.05136
G0 F12000 X110.4 Y94.449
G1 F1800 X110.4 Y74.449 E70.64785
G0 F12000 X112 Y74.449
G1 F1800 X112 Y94.449 E72.24434
G0 F12000 X113.6 Y94.449
G1 F1800 X113.6 Y74.449 E73.84082
G0 F12000 X115.2 Y74.449
G1 F1800 X115.2 Y94.449 E75.43731
G0 F12000 X116.8 Y94.449
G1 F1800 X116.8 Y74.449 E77.0338
G0 F12000 X118.4 Y74.449
G1 F1800 X118.4 Y94.449 E78.63028
G0 F12000 X120 Y94.449
G1 F1800 X120 Y74.442 E80.22733
G0 F12000 X121.6 Y73.988
G1 F1800 X121.6 Y94.449 E81.86061
G0 F12000 X123.2 Y94.449
G1 F1800 X123.2 Y71.885 E83.66177
G0 F12000 X124.8 Y68.68
G1 F1800 X124.8 Y94.449 E85.71876
G0 F12000 X126.4 Y94.521
G1 F1800 X126.4 Y66.924 E87.92167
G0 F12000 X128 Y65.761
G1 F1800 X128 Y95.304 E90.27992
G1 F2700 E85.27992
G0 F12000 X127.335 Y96.136
G0 X146.168 Y73.54
G0 X145.6 Y74.441
G1 F2700 E90.27992
G1 F1800 X145.6 Y145.566 E95.95743
G0 F12000 X147.2 Y144.908
G1 F1800 X147.2 Y75.093 E101.53036
G0 F12000 X148.8 Y76.029
G1 F1800 X148.8 Y143.975 E106.95411
G0 F12000 X150.4 Y142.304
G1 F1800 X150.4 Y77.68 E112.11267
G1 F2700 E107.11267
G0 F12000 X150.824 Y76.485
G0 X150.201 Y75.801
G0 X149.562 Y75.291
G0 X145.055 Y72.121
G0 X144 Y72.304
G1 F2700 E112.11267
G1 F1800 X144 Y147.695 E118.13071
G0 F12000 X142.4 Y151.156
G1 F1800 X142.4 Y68.846 E124.70105
G0 F12000 X140.8 Y67.033
G1 F1800 X140.8 Y152.967 E131.56067
G0 F12000 X139.2 Y154.169
G1 F1800 X139.2 Y65.832 E138.61212
G0 F12000 X137.6 Y65.019
G1 F1800 X137.6 Y154.98 E145.79319
G0 F12000 X136 Y155.486
G1 F1800 X136 Y64.516 E153.05481
G0 F12000 X134.4 Y64.27
G1 F1800 X134.4 Y155.731 E160.35562
G0 F12000 X132.8 Y155.738
G1 F1800 X132.8 Y64.263 E167.65755
G0 F12000 X131.2 Y64.49
G1 F1800 X131.2 Y155.508 E174.923
G0 F12000 X129.6 Y155.025
G1 F1800 X129.6 Y64.973 E182.11134
G1 F2700 E177.11134
G0 F12000 X129.077 Y64.033
G0 X84.704 Y63.173
G0 X83.679 Y63.243
G0 X83.2 Y64.396
G1 F2700 E182.11134
G1 F1800 X83.2 Y155.613 E189.39268
G0 F12000 X84.8 Y155.766
G1 F1800 X84.8 Y124.87 E191.85893
G0 F12000 X86.4 Y125.52
G1 F1800 X86.4 Y155.686 E194.26691
G0 F12000 X88 Y155.356
G1 F1800 X88 Y125.551 E196.64608
G0 F12000 X89.6 Y125.551
G1 F1800 X89.6 Y154.765 E198.97806
G0 F12000 X91.2 Y153.839
G1 F1800 X91.2 Y125.551 E201.23613
G0 F12000 X92.8 Y125.551
G1 F1800 X92.8 Y152.489 E203.38644
G0 F12000 X94.4 Y150.372
G1 F1800 X94.4 Y125.551 E205.36776
G0 F12000 X96 Y125.551
G1 F1800 X96 Y146.874 E207.06985
G0 F12000 X97.6 Y145.727
G1 F1800 X97.6 Y125.551 E208.68039
G0 F12000 X99.2 Y125.551
G1 F1800 X99.2 Y145.551 E210.27688
G0 F12000 X100.8 Y145.551
G1 F1800 X100.8 Y125.551 E211.87336
G0 F12000 X102.4 Y125.551
G1 F1800 X102.4 Y145.551 E213.46985
G0 F12000 X104 Y145.551
G1 F1800 X104 Y125.551 E215.06634
G0 F12000 X105.6 Y125.551
G1 F1800 X105.6 Y145.551 E216.66282
G0 F12000 X107.2 Y145.551
G1 F1800 X107.2 Y125.551 E218.25931
G0 F12000 X108.8 Y125.551
G1 F1800 X108.8 Y145.551 E219.8558
G0 F12000 X110.4 Y145.551
G1 F1800 X110.4 Y125.551 E221.45228
G0 F12000 X112 Y125.551
G1 F1800 X112 Y145.551 E223.04877
G0 F12000 X113.6 Y145.551
G1 F1800 X113.6 Y125.551 E224.64526
G0 F12000 X115.2 Y125.551
G1 F1800 X115.2 Y145.551 E226.24174
G0 F12000 X116.8 Y145.551
G1 F1800 X116.8 Y125.551 E227.83823
G0 F12000 X118.4 Y125.551
G1 F1800 X118.4 Y145.551 E229.43471
G0 F12000 X120 Y145.557
G1 F1800 X120 Y125.551 E231.03168
G0 F12000 X121.6 Y125.551
G1 F1800 X121.6 Y146.012 E232.66497
G0 F12000 X123.2 Y148.112
G1 F1800 X123.2 Y125.551 E234.46588
G0 F12000 X124.8 Y125.551
G1 F1800 X124.8 Y151.321 E236.52295
G0 F12000 X126.4 Y153.078
G1 F1800 X126.4 Y125.483 E238.72571
G0 F12000 X128 Y124.689
G1 F1800 X128 Y154.24 E241.0846
G1 F2700 E236.0846
G0 F12000 X127.108 Y154.944
G0 X84.631 Y156.829
G0 X83.186 Y156.682
G0 X81.573 Y156.319
G0 X81.6 Y155.205
G1 F2700 E241.0846
G1 F1800 X81.6 Y64.81 E248.30032
G0 F12000 X80 Y65.505
G1 F1800 X80 Y154.515 E255.40548
G0 F12000 X78.4 Y153.492
G1 F1800 X78.4 Y66.544 E262.34604
G0 F12000 X76.8 Y68.099
G1 F1800 X76.8 Y151.954 E269.03971
