;FLAVOR:Marlin
;TIME:4630
;Filament used: 2.94835m
;Layer height: 0.2
;MINX:95.185
;MINY:86.355
;MINZ:0.24
;MAXX:124.814
;MAXY:133.166
;MAXZ:38.49
;Generated with Cura_SteamEngine 4.6.1
M140 S50
M105
M190 S50
M104 S205
M105
M109 S205
M82 ;absolute extrusion mode
M201 X500.00 Y500.00 Z100.00 E5000.00 ;Setup machine max acceleration
M203 X500.00 Y500.00 Z10.00 E50.00 ;Setup machine max feedrate
M204 P500.00 R1000.00 T500.00 ;Setup Print/Retract/Travel acceleration
M205 X8.00 Y8.00 Z0.40 E5.00 ;Setup Jerk
M220 S100 ;Reset Feedrate
M221 S100 ;Reset Flowrate

G28 ;Home

G92 E0 ;Reset Extruder
G1 Z2.0 F3000 ;Move Z Axis up
G1 X10.1 Y20 Z0.28 F5000.0 ;Move to start position
G1 X10.1 Y200.0 Z0.28 F1500.0 E15 ;Draw the first line
G1 X10.4 Y200.0 Z0.28 F5000.0 ;Move to side a little
G1 X10.4 Y20 Z0.28 F1500.0 E30 ;Draw the second line
G92 E0 ;Reset Extruder
G1 Z2.0 F3000 ;Move Z Axis up

G92 E0
G92 E0
G1 F2700 E-5
;LAYER_COUNT:187
;LAYER:-6
M107
G0 F12000 X99.289 Y90.579 Z0.24
;TYPE:SUPPORT-INTERFACE
G1 F2700 E0
G1 F1800 X99.377 Y90.489 E0.01005
G1 X99.67 Y90.22 E0.0418
G1 X99.862 Y90.067 E0.0614
G1 X101.072 Y89.141 E0.18302
G1 X101.448 Y88.889 E0.21915
G1 X101.596 Y88.803 E0.23282
G1 X102.119 Y88.546 E0.27933
G1 X103.545 Y87.954 E0.40258
G1 X103.974 Y87.806 E0.43881
G1 X104.156 Y87.756 E0.45387
G1 X104.732 Y87.642 E0.50074
G1 X106.263 Y87.441 E0.624
G1 X106.74 Y87.408 E0.66217
G1 X106.88 Y87.405 E0.67335
G1 X107.307 Y87.425 E0.70747
G1 X107.531 Y87.45 E0.72546
G1 X109.001 Y87.645 E0.84383
G1 X109.507 Y87.744 E0.88499
G1 X109.628 Y87.775 E0.89496
G1 X109.94 Y87.871 E0.92102
G1 X110.22 Y87.976 E0.94489
G1 X111.619 Y88.56 E1.0659
G1 X112.072 Y88.783 E1.10621
G1 X112.195 Y88.852 E1.11746
G1 X112.497 Y89.046 E1.14612
G1 X112.742 Y89.224 E1.17029
G1 X113.916 Y90.128 E1.28857
G1 X114.246 Y90.417 E1.32358
G1 X114.378 Y90.549 E1.33848
G1 X114.748 Y90.97 E1.38322
G1 X115.7 Y92.21 E1.50801
G1 X115.952 Y92.585 E1.54408
G1 X116.05 Y92.753 E1.5596
G1 X116.304 Y93.267 E1.60537
G1 X116.911 Y94.735 E1.73218
G1 X117.043 Y95.12 E1.76466
G1 X117.095 Y95.309 E1.78031
G1 X117.212 Y95.905 E1.82879
G1 X117.41 Y97.409 E1.94989
G1 X117.449 Y98.055 E2.00155
G1 X117.45 Y103.73 E2.45455
G1 X117.494 Y104.266 E2.49748
G1 X117.629 Y104.805 E2.54183
G1 X117.849 Y105.314 E2.5861
G1 X118.149 Y105.781 E2.6304
G1 X118.522 Y106.193 E2.67477
G1 X118.957 Y106.538 E2.71909
G1 X119.442 Y106.809 E2.76343
G1 X119.981 Y107 E2.80908
G1 X120.26 Y107.072 E2.83208
G1 X120.657 Y107.202 E2.86543
G1 X120.82 Y107.268 E2.87947
G1 X121.188 Y107.442 E2.91196
G1 X121.325 Y107.517 E2.92443
G1 X121.676 Y107.741 E2.95766
G1 X121.817 Y107.846 E2.9717
G1 X122.349 Y108.31 E3.02805
G1 X122.437 Y108.404 E3.03833
G1 X122.721 Y108.727 E3.07266
G1 X122.841 Y108.881 E3.08824
G1 X123.062 Y109.207 E3.11968
G1 X123.146 Y109.35 E3.13292
G1 X123.348 Y109.748 E3.16855
G1 X123.401 Y109.871 E3.17924
G1 X123.544 Y110.275 E3.21345
G1 X123.586 Y110.42 E3.2255
G1 X123.677 Y110.833 E3.25926
G1 X123.702 Y111.003 E3.27297
G1 X123.75 Y111.701 E3.32882
G1 X123.746 Y114.933 E3.58681
G1 X123.718 Y115.374 E3.62209
G1 X123.696 Y115.548 E3.63609
G1 X123.616 Y115.964 E3.6699
G1 X123.581 Y116.102 E3.68127
G1 X123.448 Y116.507 E3.71529
G1 X123.382 Y116.67 E3.72933
G1 X123.208 Y117.038 E3.76183
G1 X123.133 Y117.175 E3.77429
G1 X122.909 Y117.526 E3.80753
G1 X122.804 Y117.667 E3.82156
G1 X122.34 Y118.199 E3.87791
G1 X122.246 Y118.287 E3.88819
G1 X121.923 Y118.571 E3.92252
G1 X121.77 Y118.69 E3.938
G1 X121.443 Y118.912 E3.96955
G1 X121.3 Y118.996 E3.98278
G1 X120.908 Y119.195 E4.01788
G1 X120.779 Y119.251 E4.0291
G1 X120.375 Y119.394 E4.06331
G1 X120.23 Y119.436 E4.07536
G1 X119.817 Y119.527 E4.10912
G1 X119.647 Y119.552 E4.12284
G1 X118.949 Y119.6 E4.17869
G1 X117.962 Y119.6 E4.25747
G1 X117.425 Y119.644 E4.30048
G1 X116.886 Y119.779 E4.34484
G1 X116.377 Y119.999 E4.3891
G1 X115.913 Y120.297 E4.43312
G1 X115.603 Y120.567 E4.46593
G1 X115.431 Y120.737 E4.48524
G1 X115.055 Y121.061 E4.52486
G1 X114.649 Y121.377 E4.56593
G1 X114.276 Y121.634 E4.60208
G1 X114.106 Y121.734 E4.61783
G1 X113.552 Y122.01 E4.66724
G1 X113.152 Y122.176 E4.70181
G1 X112.708 Y122.331 E4.73934
G1 X112.44 Y122.403 E4.7615
G1 X111.933 Y122.587 E4.80455
G1 X111.45 Y122.858 E4.84876
G1 X111.016 Y123.205 E4.89311
G1 X110.645 Y123.618 E4.93743
G1 X110.345 Y124.085 E4.98174
G1 X110.127 Y124.595 E5.02601
G1 X109.993 Y125.133 E5.07027
G1 X109.95 Y125.663 E5.11271
G1 X109.946 Y127.419 E5.25289
G1 X109.918 Y127.86 E5.28816
G1 X109.896 Y128.034 E5.30216
G1 X109.816 Y128.45 E5.33598
G1 X109.781 Y128.588 E5.34734
G1 X109.648 Y128.993 E5.38137
G1 X109.582 Y129.156 E5.39541
G1 X109.408 Y129.524 E5.4279
G1 X109.333 Y129.661 E5.44037
G1 X109.109 Y130.012 E5.4736
G1 X109.004 Y130.153 E5.48764
G1 X108.639 Y130.578 E5.53236
G1 X108.524 Y130.701 E5.5458
G1 X108.43 Y130.789 E5.55608
G1 X108.107 Y131.073 E5.59041
G1 X107.954 Y131.192 E5.60588
G1 X107.627 Y131.414 E5.63743
G1 X107.484 Y131.498 E5.65067
G1 X107.092 Y131.697 E5.68576
G1 X106.963 Y131.753 E5.69699
G1 X106.559 Y131.896 E5.7312
G1 X106.414 Y131.938 E5.74325
G1 X106.001 Y132.029 E5.77701
G1 X105.831 Y132.054 E5.79072
G1 X105.133 Y132.102 E5.84657
G1 X100.919 Y132.099 E6.18295
G1 X100.477 Y132.071 E6.2183
G1 X100.303 Y132.049 E6.2323
G1 X99.892 Y131.97 E6.26571
G1 X99.738 Y131.931 E6.27839
G1 X99.353 Y131.805 E6.31073
G1 X99.177 Y131.735 E6.32585
G1 X98.808 Y131.56 E6.35845
G1 X98.681 Y131.49 E6.37002
G1 X98.317 Y131.256 E6.40457
G1 X98.185 Y131.158 E6.41769
G1 X97.751 Y130.786 E6.46332
G1 X97.649 Y130.691 E6.47444
G1 X97.557 Y130.591 E6.48529
G1 X97.274 Y130.27 E6.51945
G1 X97.171 Y130.137 E6.53288
G1 X96.932 Y129.786 E6.56678
G1 X96.853 Y129.651 E6.57926
G1 X96.652 Y129.255 E6.61471
G1 X96.597 Y129.127 E6.62583
G1 X96.456 Y128.728 E6.65961
G1 X96.414 Y128.583 E6.67166
G1 X96.323 Y128.17 E6.70542
G1 X96.298 Y128 E6.71914
G1 X96.25 Y127.302 E6.77499
G1 X96.254 Y114.358 E7.80823
G1 X96.269 Y114.117 E7.82751
G1 X96.266 Y113.659 E7.86407
G1 X96.25 Y113.395 E7.88518
G1 X96.252 Y97.984 E9.11535
G1 X96.297 Y97.345 E9.16649
G1 X96.497 Y95.834 E9.28815
G1 X96.592 Y95.348 E9.32768
G1 X96.617 Y95.247 E9.33599
G1 X96.72 Y94.912 E9.36396
G1 X96.826 Y94.63 E9.38801
G1 X97.41 Y93.231 E9.50903
G1 X97.633 Y92.778 E9.54933
G1 X97.702 Y92.655 E9.56059
G1 X97.896 Y92.353 E9.58924
G1 X98.074 Y92.109 E9.61335
G1 X98.979 Y90.933 E9.7318
G1 X99.289 Y90.579 E9.76936
G0 F12000 X99.2 Y90.68
G1 F1800 X99.2 Y131.744 E13.04727
G0 F12000 X100.8 Y132.091
G1 F1800 X100.8 Y89.349 E16.45912
G0 F12000 X102.4 Y88.429
G1 F1800 X102.4 Y132.1 E19.94513
G0 F12000 X104 Y132.101
G1 F1800 X104 Y87.798 E23.48158
G0 F12000 X105.6 Y87.528
G1 F1800 X105.6 Y132.07 E27.03712
G0 F12000 X107.2 Y131.643
G1 F1800 X107.2 Y87.42 E30.56719
G0 F12000 X108.8 Y87.619
G1 F1800 X108.8 Y130.391 E33.98144
G1 F2700 E28.98144
G0 F12000 X109.986 Y130.614
G0 X110.56 Y129.577
G0 X110.858 Y128.671
G0 X110.946 Y127.904
G0 X111.14 Y124.929
G0 X110.4 Y124
G1 F2700 E33.98144
G1 F1800 X110.4 Y88.052 E36.85096
G0 F12000 X112 Y88.748
G1 F1800 X112 Y122.563 E39.55022
G0 F12000 X113.6 Y121.987
G1 F1800 X113.6 Y89.885 E42.11274
G0 F12000 X115.2 Y91.559
G1 F1800 X115.2 Y120.937 E44.45782
G0 F12000 X116.8 Y119.817
G1 F1800 X116.8 Y94.467 E46.48137
G1 F2700 E41.48137
G0 F12000 X117.91 Y94.368
G0 X118.237 Y95.588
G0 X118.455 Y97.461
G0 X118.997 Y105.132
G0 X118.4 Y106.059
G1 F2700 E46.48137
G1 F1800 X118.4 Y119.6 E47.56227
G0 F12000 X120 Y119.487
G1 F1800 X120 Y107.005 E48.55864
G0 F12000 X121.6 Y107.693
G1 F1800 X121.6 Y118.806 E49.44572
G0 F12000 X123.2 Y117.053
G1 F1800 X123.2 Y109.457 E50.05207
G1 F2700 E45.05207
G0 F12000 X123.969 Y108.649
G0 X116.981 Y92.234
G0 X116.497 Y91.497
G0 X115.155 Y89.82
G0 X114.485 Y89.22
G0 X112.73 Y87.931
G0 X110.618 Y86.989
G0 X109.74 Y86.704
G0 X107.258 Y86.355
G0 X106.05 Y86.393
G0 X103.903 Y86.722
G0 X103.075 Y86.994
G0 X101.088 Y87.867
G0 X100.349 Y88.351
G0 X98.644 Y89.717
G0 X97.365 Y91.295
G0 X96.645 Y92.376
G0 X97.6 Y92.845
G1 F2700 E50.05207
G1 F1800 X97.6 Y130.637 E53.06879
G0 F300 X97.6 Y130.637 Z0.54
G0 F12000 X96.596 Y129.126
;TIME_ELAPSED:31.485104
;LAYER:-5
M140 S50
;TYPE:SUPPORT
G1 F1800 X96.652 Y129.254 E53.08273
G1 X96.853 Y129.65 E53.12704
G1 X96.931 Y129.785 E53.1426
G1 X97.171 Y130.136 E53.18503
G1 X97.273 Y130.268 E53.20167
G1 X97.556 Y130.589 E53.24437
G1 X97.648 Y130.69 E53.258
G1 X97.751 Y130.785 E53.27198
G1 X98.184 Y131.156 E53.32888
G1 X98.316 Y131.255 E53.34534
G1 X98.68 Y131.489 E53.38852
G1 X98.807 Y131.559 E53.40299
G1 X99.177 Y131.733 E53.44379
G1 X99.226 Y131.753 E53.44907
G1 X96.594 Y129.121 E53.82047
G1 F2700 E48.82047
G0 F12000 X95.693 Y129.719
G0 X96.305 Y130.757
G0 X97.036 Y131.574
G0 X97.425 Y131.894
G0 X98.326 Y132.508
G0 X99.226 Y131.753
G1 F2700 E53.82047
G1 F1800 X99.352 Y131.804 E53.83404
G1 X99.738 Y131.929 E53.87452
G1 X99.892 Y131.969 E53.8904
G1 X100.303 Y132.047 E53.93214
G1 X100.477 Y132.07 E53.94965
G1 X100.918 Y132.098 E53.99374
G1 X100.985 Y132.098 E54.00043
G1 X96.254 Y127.366 E54.66809
G1 X96.249 Y127.301 E54.6746
G1 X96.249 Y125.948 E54.8096
G1 X102.4 Y132.098 E55.6775
G1 X103.815 Y132.099 E55.81869
G1 X96.25 Y124.534 E56.8862
G1 X96.25 Y123.12 E57.02729
G1 X105.224 Y132.094 E58.29361
G1 X105.831 Y132.053 E58.35432
G1 X106 Y132.028 E58.37136
G1 X106.413 Y131.937 E58.41356
G1 X106.466 Y131.922 E58.41906
G1 X96.251 Y121.707 E59.86051
G1 X96.252 Y120.293 E60.00159
G1 X107.464 Y131.506 E61.5838
G1 X107.483 Y131.497 E61.5859
G1 X107.627 Y131.412 E61.60258
G1 X107.953 Y131.19 E61.64194
G1 X108.106 Y131.072 E61.66122
G1 X108.286 Y130.913 E61.68518
G1 X96.252 Y118.879 E63.38331
G1 X96.252 Y117.465 E63.5244
G1 X108.974 Y130.187 E65.31961
G1 X109.004 Y130.152 E65.32421
G1 X109.109 Y130.011 E65.34175
G1 X109.332 Y129.66 E65.38324
G1 X109.407 Y129.523 E65.39883
G1 X109.51 Y129.309 E65.42253
G1 X96.253 Y116.052 E67.29323
G1 X96.253 Y114.638 E67.43432
G1 X109.856 Y128.24 E69.35378
G1 X109.895 Y128.032 E69.3749
G1 X109.918 Y127.859 E69.39231
G1 X109.945 Y127.418 E69.4364
G1 X109.947 Y126.917 E69.48639
G1 X96.249 Y113.22 E71.41925
G1 X96.249 Y111.806 E71.56034
G1 X109.962 Y125.518 E73.49532
G1 X109.993 Y125.132 E73.53396
G1 X110.126 Y124.594 E73.58926
G1 X110.224 Y124.366 E73.61402
G1 X96.249 Y110.392 E75.58598
G1 X96.249 Y108.977 E75.72716
G1 X110.76 Y123.488 E77.77482
G1 X111.016 Y123.204 E77.81297
G1 X111.449 Y122.856 E77.8684
G1 X111.509 Y122.823 E77.87524
G1 X96.25 Y107.564 E80.02845
G1 X96.25 Y106.15 E80.16954
G1 X112.489 Y122.388 E82.46096
G1 X112.707 Y122.33 E82.48347
G1 X113.152 Y122.175 E82.53049
G1 X113.531 Y122.016 E82.5715
G1 X96.25 Y104.735 E85.01004
G1 X96.25 Y103.321 E85.15113
G1 X114.445 Y121.516 E87.71864
G1 X114.648 Y121.376 E87.74324
G1 X115.055 Y121.06 E87.79466
G1 X115.241 Y120.898 E87.81927
G1 X96.251 Y101.908 E90.49896
G1 X96.251 Y100.494 E90.64005
G1 X115.998 Y120.24 E93.4265
G1 X116.377 Y119.998 E93.47136
G1 X116.886 Y119.778 E93.52669
G1 X116.937 Y119.765 E93.53195
G1 X96.251 Y99.079 E96.45096
G1 X96.252 Y97.983 E96.56032
G1 X96.272 Y97.686 E96.59002
G1 X118.185 Y119.599 E99.68219
G1 X118.948 Y119.599 E99.75832
G1 X119.557 Y119.557 E99.81923
G1 X96.418 Y96.418 E103.08439
G1 X96.496 Y95.834 E103.14318
G1 X96.591 Y95.348 E103.19259
G1 X96.616 Y95.247 E103.20297
G1 X96.626 Y95.212 E103.20661
G1 X120.693 Y119.279 E106.60272
G1 X120.778 Y119.25 E106.61168
G1 X120.907 Y119.194 E106.62571
G1 X121.299 Y118.995 E106.66958
G1 X121.442 Y118.912 E106.68608
G1 X121.619 Y118.791 E106.70747
G1 X97.01 Y94.182 E110.18007
G1 X97.408 Y93.231 E110.28293
G1 X97.43 Y93.187 E110.28784
G1 X122.387 Y118.144 E113.80954
G1 X122.803 Y117.666 E113.87277
G1 X122.908 Y117.526 E113.89023
G1 X123.015 Y117.358 E113.91011
G1 X97.943 Y92.286 E117.44804
G1 X98.072 Y92.109 E117.46989
G1 X98.554 Y91.483 E117.54872
G1 X123.479 Y116.408 E121.06591
G1 X123.58 Y116.101 E121.09816
G1 X123.614 Y115.964 E121.11224
G1 X123.695 Y115.548 E121.15453
G1 X123.717 Y115.373 E121.17213
G1 X123.726 Y115.24 E121.18543
G1 X99.183 Y90.697 E124.64871
G1 X99.287 Y90.578 E124.66448
G1 X99.376 Y90.489 E124.67704
G1 X99.669 Y90.219 E124.7168
G1 X99.861 Y90.067 E124.74123
G1 X99.921 Y90.021 E124.74878
G1 X123.746 Y113.847 E128.11081
G1 X123.747 Y112.434 E128.2518
G1 X100.722 Y89.408 E131.50095
G1 X101.071 Y89.14 E131.54485
G1 X101.447 Y88.888 E131.59002
G1 X101.554 Y88.826 E131.60236
G1 X117.7 Y104.972 E133.88073
G1 X117.848 Y105.314 E133.91792
G1 X118.148 Y105.781 E133.9733
G1 X118.52 Y106.193 E134.02869
G1 X118.956 Y106.538 E134.08416
G1 X119.44 Y106.809 E134.13951
G0 F12000 X117.7 Y104.972
G1 F1800 X117.627 Y104.805 E134.1577
G1 X117.492 Y104.265 E134.21324
G1 X117.449 Y103.729 E134.26689
G1 X117.449 Y103.306 E134.3091
G1 X102.521 Y88.379 E136.41553
G1 X103.521 Y87.964 E136.52356
G1 X117.449 Y101.892 E138.48895
G1 X117.449 Y100.478 E138.63004
G1 X104.632 Y87.661 E140.43866
G1 X104.73 Y87.641 E140.44864
G1 X105.876 Y87.491 E140.56396
G1 X117.449 Y99.064 E142.19704
G1 X117.448 Y98.055 E142.29772
G1 X117.422 Y97.623 E142.3409
G1 X107.22 Y87.421 E143.78051
G1 X107.306 Y87.425 E143.7891
G1 X107.53 Y87.45 E143.81159
G1 X108.837 Y87.623 E143.94314
G1 X117.225 Y96.012 E145.12685
G1 X117.211 Y95.904 E145.13772
G1 X117.094 Y95.308 E145.19832
G1 X117.041 Y95.12 E145.21781
G1 X116.91 Y94.735 E145.25839
G1 X116.592 Y93.964 E145.34161
G1 X110.878 Y88.251 E146.14784
G1 X111.618 Y88.559 E146.22782
G1 X112.07 Y88.782 E146.27811
G1 X112.193 Y88.852 E146.29223
G1 X112.496 Y89.045 E146.32808
G1 X112.741 Y89.224 E146.35836
G1 X113.914 Y90.127 E146.50606
G1 X114.245 Y90.417 E146.54997
G1 X114.377 Y90.549 E146.5686
G1 X114.747 Y90.969 E146.62445
G1 X115.698 Y92.21 E146.78045
G1 X115.95 Y92.585 E146.82554
G1 X116.049 Y92.753 E146.84499
G1 X116.303 Y93.267 E146.9022
G1 F2700 E141.9022
G0 F12000 X117.285 Y92.857
G0 X124.393 Y109.483
G0 X124.618 Y110.158
G0 X123.676 Y110.832
G1 F2700 E146.9022
G1 F1800 X123.585 Y110.42 E146.9443
G1 X123.543 Y110.275 E146.95936
G1 X123.4 Y109.87 E147.00222
G1 X123.346 Y109.747 E147.01562
G1 X123.145 Y109.349 E147.06011
G1 X123.06 Y109.206 E147.07671
G1 X122.84 Y108.881 E147.11587
G1 X122.72 Y108.726 E147.13543
G1 X122.436 Y108.404 E147.17827
G1 X122.348 Y108.309 E147.19119
G1 X121.816 Y107.846 E147.26156
G1 X121.675 Y107.741 E147.27911
G1 X121.323 Y107.517 E147.32074
G1 X121.186 Y107.442 E147.33632
G1 X120.819 Y107.268 E147.37685
G1 X120.656 Y107.201 E147.39443
G1 X120.259 Y107.071 E147.43611
G1 X119.979 Y107 E147.46494
G1 X119.59 Y106.862 E147.50612
G1 X123.696 Y110.968 E148.08552
G1 F2700 E143.08552
G0 F300 X123.696 Y110.968 Z0.74
G0 F12000 X124.725 Y110.639
G0 X124.393 Y109.483
G0 X116.981 Y92.234
G0 X116.497 Y91.497
G0 X115.155 Y89.82
G0 X114.485 Y89.22
G0 X112.73 Y87.931
G0 X111.533 Y87.398
G0 X110.307 Y86.872
G0 X109.739 Y87.6
;TIME_ELAPSED:68.376827
;LAYER:-4
;TYPE:SUPPORT-INTERFACE
G1 F2700 E148.08552
G1 F2400 X103.968 Y87.6 E148.27747
G1 X104.105 Y87.562 E148.2822
G1 X104.713 Y87.442 E148.30281
G1 X106.239 Y87.243 E148.35399
G1 X106.738 Y87.208 E148.37063
G1 X106.885 Y87.205 E148.37552
G1 X107.298 Y87.224 E148.38927
G1 X107.512 Y87.247 E148.39643
G1 X109.04 Y87.448 E148.44769
G1 X109.544 Y87.547 E148.46477
G1 X109.677 Y87.581 E148.46934
G1 F2700 E143.46934
G0 F12000 X109.74 Y86.704
G0 X107.258 Y86.355
G0 X106.28 Y86.385
G0 X103.903 Y86.722
G0 X103.968 Y87.6
G1 F2700 E148.46934
G1 F2400 X103.917 Y87.614 E148.4711
G1 X103.477 Y87.766 E148.48658
G1 X102.914 Y88 E148.50686
G1 X110.798 Y88 E148.76908
G1 X111.714 Y88.383 E148.8021
G1 X111.749 Y88.4 E148.8034
G1 X101.964 Y88.4 E149.12885
G1 X101.496 Y88.63 E149.14619
G1 X101.351 Y88.714 E149.15177
G1 X101.223 Y88.8 E149.1569
G1 X112.487 Y88.8 E149.53154
G1 X112.578 Y88.858 E149.53513
G1 X112.857 Y89.061 E149.5466
G1 X113.038 Y89.2 E149.55419
G1 X100.667 Y89.2 E149.96565
G1 X100.144 Y89.6 E149.98755
G1 X113.556 Y89.6 E150.43364
G1 X114.051 Y89.982 E150.45444
G1 X114.072 Y90 E150.45536
G1 X99.625 Y90 E150.93586
G1 X99.554 Y90.056 E150.93887
G1 X99.249 Y90.334 E150.9526
G1 X99.185 Y90.4 E150.95566
G1 X114.513 Y90.4 E151.46547
G1 X114.52 Y90.407 E151.4658
