;FLAVOR:Marlin
;TIME:5461
;Filament used: 4.04984m
;Layer height: 0.2
;MINX:67.112
;MINY:62.882
;MINZ:0.24
;MAXX:152.914
;MAXY:157.119
;MAXZ:8.69
;Generated with Cura_SteamEngine 4.6.1
M140 S50
M105
M190 S50
M104 S205
M105
M109 S205
M82 ;absolute extrusion mode
M201 X500.00 Y500.00 Z100.00 E5000.00 ;Setup machine max acceleration
M203 X500.00 Y500.00 Z10.00 E50.00 ;Setup machine max feedrate
M204 P500.00 R1000.00 T500.00 ;Setup Print/Retract/Travel acceleration
M205 X8.00 Y8.00 Z0.40 E5.00 ;Setup Jerk
M220 S100 ;Reset Feedrate
M221 S100 ;Reset Flowrate

G28 ;Home

G92 E0 ;Reset Extruder
G1 Z2.0 F3000 ;Move Z Axis up
G1 X10.1 Y20 Z0.28 F5000.0 ;Move to start position
G1 X10.1 Y200.0 Z0.28 F1500.0 E15 ;Draw the first line
G1 X10.4 Y200.0 Z0.28 F5000.0 ;Move to side a little
G1 X10.4 Y20 Z0.28 F1500.0 E30 ;Draw the second line
G92 E0 ;Reset Extruder
G1 Z2.0 F3000 ;Move Z Axis up

G92 E0
G92 E0
G1 F2700 E-5
;LAYER_COUNT:38
;LAYER:-6
M107
G0 F12000 X72.174 Y65.56 Z0.24
;TYPE:SUPPORT-INTERFACE
G1 F2700 E0
G1 F1800 X72.476 Y65.252 E0.03443
G1 X72.601 Y65.139 E0.04788
G1 X72.924 Y64.88 E0.08093
G1 X73.027 Y64.809 E0.09092
G1 X73.417 Y64.56 E0.12785
G1 X73.545 Y64.49 E0.1395
G1 X73.935 Y64.306 E0.17392
G1 X74.089 Y64.244 E0.18717
G1 X74.475 Y64.118 E0.21959
G1 X74.644 Y64.075 E0.23351
G1 X75.042 Y63.999 E0.26585
G1 X75.223 Y63.977 E0.2804
G1 X75.749 Y63.946 E0.32246
G1 X78.433 Y63.95 E0.53671
G1 X78.874 Y63.978 E0.57199
G1 X79.048 Y64 E0.58599
G1 X79.464 Y64.08 E0.6198
G1 X79.607 Y64.116 E0.63157
G1 X80.007 Y64.248 E0.6652
G1 X80.17 Y64.314 E0.67923
G1 X80.538 Y64.488 E0.71173
G1 X80.675 Y64.563 E0.7242
G1 X81.026 Y64.787 E0.75743
G1 X81.167 Y64.892 E0.77147
G1 X81.699 Y65.356 E0.82782
G1 X81.787 Y65.45 E0.83809
G1 X82.071 Y65.773 E0.87243
G1 X82.191 Y65.927 E0.88801
G1 X82.412 Y66.253 E0.91945
G1 X82.496 Y66.396 E0.93269
G1 X82.698 Y66.794 E0.96832
G1 X82.751 Y66.917 E0.97901
G1 X82.894 Y67.319 E1.01307
G1 X82.936 Y67.466 E1.02527
G1 X83.028 Y67.88 E1.05912
G1 X83.051 Y68.043 E1.07226
G1 X83.1 Y68.747 E1.1286
G1 X83.1 Y73.562 E1.51295
G1 X83.144 Y74.099 E1.55596
G1 X83.279 Y74.638 E1.60031
G1 X83.499 Y75.147 E1.64458
G1 X83.799 Y75.614 E1.68888
G1 X84.171 Y76.025 E1.73313
G1 X84.606 Y76.372 E1.77755
G1 X85.091 Y76.641 E1.82182
G1 X85.612 Y76.829 E1.86604
G1 X86.151 Y76.929 E1.9098
G1 X86.49 Y76.946 E1.93689
G1 X94.016 Y76.946 E2.53765
G1 X94.553 Y76.902 E2.58066
G1 X95.092 Y76.767 E2.62501
G1 X95.601 Y76.547 E2.66928
G1 X96.068 Y76.247 E2.71358
G1 X96.479 Y75.875 E2.75783
G1 X96.826 Y75.44 E2.80225
G1 X97.095 Y74.955 E2.84652
G1 X97.283 Y74.434 E2.89074
G1 X97.383 Y73.895 E2.9345
G1 X97.4 Y73.556 E2.96159
G1 X97.404 Y68.613 E3.35616
G1 X97.432 Y68.172 E3.39143
G1 X97.454 Y67.998 E3.40543
G1 X97.534 Y67.582 E3.43925
G1 X97.569 Y67.444 E3.45061
G1 X97.703 Y67.037 E3.48482
G1 X97.77 Y66.871 E3.49911
G1 X97.944 Y66.504 E3.53153
G1 X98.017 Y66.371 E3.54364
G1 X98.244 Y66.017 E3.57721
G1 X98.346 Y65.879 E3.59091
G1 X98.714 Y65.45 E3.63602
G1 X98.806 Y65.351 E3.64681
G1 X98.912 Y65.253 E3.65834
G1 X99.227 Y64.975 E3.69187
G1 X99.381 Y64.855 E3.70746
G1 X99.707 Y64.634 E3.7389
G1 X99.85 Y64.55 E3.75213
G1 X100.242 Y64.351 E3.78723
G1 X100.371 Y64.295 E3.79845
G1 X100.775 Y64.152 E3.83266
G1 X100.92 Y64.11 E3.84471
G1 X101.333 Y64.019 E3.87847
G1 X101.503 Y63.994 E3.89219
G1 X102.201 Y63.946 E3.94804
G1 X116.433 Y63.95 E5.0841
G1 X116.874 Y63.978 E5.11937
G1 X117.048 Y64 E5.13337
G1 X117.464 Y64.08 E5.16718
G1 X117.607 Y64.116 E5.17896
G1 X118.007 Y64.248 E5.21258
G1 X118.17 Y64.314 E5.22662
G1 X118.538 Y64.488 E5.25911
G1 X118.675 Y64.563 E5.27158
G1 X119.026 Y64.787 E5.30482
G1 X119.167 Y64.892 E5.31885
G1 X119.699 Y65.356 E5.3752
G1 X119.787 Y65.45 E5.38548
G1 X120.071 Y65.773 E5.41981
G1 X120.191 Y65.927 E5.43539
G1 X120.412 Y66.253 E5.46683
G1 X120.496 Y66.396 E5.48007
G1 X120.698 Y66.794 E5.5157
G1 X120.751 Y66.917 E5.52639
G1 X120.894 Y67.319 E5.56045
G1 X120.936 Y67.466 E5.57265
G1 X121.028 Y67.88 E5.60651
G1 X121.051 Y68.043 E5.61965
G1 X121.1 Y68.747 E5.67598
G1 X121.1 Y73.562 E6.06033
G1 X121.144 Y74.099 E6.10334
G1 X121.279 Y74.638 E6.1477
G1 X121.499 Y75.147 E6.19196
G1 X121.799 Y75.614 E6.23627
G1 X122.171 Y76.025 E6.28052
G1 X122.606 Y76.372 E6.32493
G1 X123.091 Y76.641 E6.36921
G1 X123.612 Y76.829 E6.41342
G1 X124.151 Y76.929 E6.45718
G1 X124.49 Y76.946 E6.48427
G1 X132.016 Y76.946 E7.08503
G1 X132.553 Y76.902 E7.12804
G1 X133.092 Y76.767 E7.17239
G1 X133.601 Y76.547 E7.21666
G1 X134.068 Y76.247 E7.26096
G1 X134.479 Y75.875 E7.30522
G1 X134.826 Y75.44 E7.34963
G1 X135.095 Y74.955 E7.3939
G1 X135.283 Y74.434 E7.43812
G1 X135.383 Y73.895 E7.48188
G1 X135.4 Y73.556 E7.50897
G1 X135.404 Y68.613 E7.90354
G1 X135.432 Y68.172 E7.93882
G1 X135.454 Y67.998 E7.95282
G1 X135.534 Y67.582 E7.98663
G1 X135.569 Y67.444 E7.998
G1 X135.703 Y67.037 E8.0322
G1 X135.77 Y66.871 E8.04649
G1 X135.944 Y66.504 E8.07891
G1 X136.017 Y66.371 E8.09102
G1 X136.244 Y66.017 E8.12459
G1 X136.346 Y65.879 E8.13829
G1 X136.714 Y65.45 E8.18341
G1 X136.806 Y65.351 E8.19419
G1 X136.912 Y65.253 E8.20572
G1 X137.227 Y64.975 E8.23925
G1 X137.381 Y64.855 E8.25484
G1 X137.707 Y64.634 E8.28628
G1 X137.85 Y64.55 E8.29952
G1 X138.242 Y64.351 E8.33461
G1 X138.371 Y64.295 E8.34583
G1 X138.775 Y64.152 E8.38004
G1 X138.92 Y64.11 E8.39209
G1 X139.333 Y64.019 E8.42585
G1 X139.503 Y63.994 E8.43957
G1 X140.201 Y63.946 E8.49542
G1 X143.603 Y63.95 E8.76698
G1 X144.044 Y63.978 E8.80225
G1 X144.218 Y64 E8.81625
G1 X144.634 Y64.08 E8.85007
G1 X144.777 Y64.116 E8.86184
G1 X145.177 Y64.248 E8.89546
G1 X145.324 Y64.307 E8.90811
G1 X145.726 Y64.497 E8.9436
G1 X145.841 Y64.559 E8.95403
G1 X146.303 Y64.859 E8.998
G1 X146.686 Y65.165 E9.03713
G1 X146.801 Y65.27 E9.04956
G1 X147.096 Y65.574 E9.08338
G1 X147.197 Y65.692 E9.09578
G1 X147.45 Y66.027 E9.12929
G1 X147.534 Y66.157 E9.14164
G1 X147.762 Y66.557 E9.17839
G1 X147.809 Y66.651 E9.18678
G1 X147.956 Y66.991 E9.21635
G1 X148.468 Y68.333 E9.33101
G1 X148.933 Y69.639 E9.44167
G1 X149.482 Y71.337 E9.58412
G1 X149.836 Y72.534 E9.68376
G1 X150.326 Y74.411 E9.83861
G1 X150.593 Y75.57 E9.93355
G1 X150.949 Y77.315 E10.07571
G1 X151.177 Y78.603 E10.18013
G1 X151.421 Y80.256 E10.31351
G1 X151.607 Y81.782 E10.43622
G1 X151.634 Y82.25 E10.47364
G1 X151.633 Y82.43 E10.48801
G1 X151.619 Y82.638 E10.50465
G1 X151.661 Y83.412 E10.56652
G1 X151.678 Y83.509 E10.57438
G1 X151.8 Y84.395 E10.64578
G1 X151.836 Y84.862 E10.68316
G1 X151.839 Y85.046 E10.69785
G1 X151.805 Y85.604 E10.74248
G1 X151.77 Y85.9 E10.76627
G1 X151.75 Y86.433 E10.80885
G1 X151.788 Y86.809 E10.83901
G1 X151.817 Y86.989 E10.85357
G1 X151.831 Y87.124 E10.8644
G1 X151.849 Y87.506 E10.89493
G1 X151.846 Y89.409 E11.04683
G1 X151.818 Y89.851 E11.08219
G1 X151.796 Y90.028 E11.09643
G1 X151.717 Y90.437 E11.12968
G1 X151.678 Y90.589 E11.1422
G1 X151.556 Y90.965 E11.17376
G1 X151.478 Y91.161 E11.1906
G1 X151.315 Y91.505 E11.22098
G1 X151.228 Y91.662 E11.23531
G1 X151.015 Y91.995 E11.26687
G1 X150.901 Y92.149 E11.28216
G1 X150.42 Y92.699 E11.34048
G1 X150.324 Y92.789 E11.35099
G1 X150.003 Y93.071 E11.3851
G1 X149.85 Y93.19 E11.40057
G1 X149.523 Y93.412 E11.43212
G1 X149.38 Y93.496 E11.44536
G1 X148.988 Y93.695 E11.48045
G1 X148.859 Y93.751 E11.49167
G1 X148.455 Y93.894 E11.52588
G1 X148.31 Y93.936 E11.53793
G1 X147.897 Y94.027 E11.57169
G1 X147.727 Y94.052 E11.58541
G1 X147.029 Y94.1 E11.64126
G1 X143.317 Y94.096 E11.93757
G1 X142.876 Y94.068 E11.97284
G1 X142.702 Y94.046 E11.98684
G1 X142.286 Y93.966 E12.02065
G1 X142.143 Y93.93 E12.03242
G1 X141.743 Y93.798 E12.06605
G1 X141.58 Y93.732 E12.08009
G1 X141.212 Y93.558 E12.11258
G1 X141.075 Y93.483 E12.12505
G1 X140.724 Y93.259 E12.15828
G1 X140.583 Y93.154 E12.17232
G1 X140.154 Y92.786 E12.21744
G1 X140.052 Y92.691 E12.22856
G1 X139.853 Y92.485 E12.25143
G1 X139.528 Y92.111 E12.29098
G1 X139.171 Y91.72 E12.33324
G1 X138.916 Y91.506 E12.35981
G1 X138.468 Y91.161 E12.40495
G1 X138.134 Y90.871 E12.44026
G1 X137.642 Y90.386 E12.49541
G1 X137.632 Y90.396 E12.49654
G1 X137.179 Y90.087 E12.54031
G1 X136.676 Y89.853 E12.58459
G1 X136.138 Y89.704 E12.62915
G1 X135.52 Y89.646 E12.6787
G1 X85.234 Y89.646 E16.69275
G1 X84.697 Y89.69 E16.73576
G1 X84.158 Y89.825 E16.78011
G1 X83.649 Y90.045 E16.82437
G1 X83.182 Y90.345 E16.86868
G1 X82.771 Y90.717 E16.91293
G1 X82.424 Y91.152 E16.95735
G1 X82.155 Y91.637 E17.00162
G1 X81.967 Y92.158 E17.04583
G1 X81.867 Y92.697 E17.08959
G1 X81.85 Y93.036 E17.11669
G1 X81.85 Y126.846 E19.81555
G1 X81.894 Y127.383 E19.85856
G1 X82.029 Y127.922 E19.90291
G1 X82.249 Y128.431 E19.94718
G1 X82.549 Y128.898 E19.99148
G1 X82.921 Y129.309 E20.03573
G1 X83.356 Y129.656 E20.08015
G1 X83.841 Y129.925 E20.12442
G1 X84.362 Y130.113 E20.16864
G1 X84.901 Y130.213 E20.2124
G1 X85.24 Y130.23 E20.23949
G1 X135.639 Y130.23 E24.26256
G1 X136.176 Y130.186 E24.30557
G1 X136.715 Y130.051 E24.34992
G1 X137.224 Y129.831 E24.39418
G1 X137.689 Y129.532 E24.43831
G1 X138.48 Y128.832 E24.52263
G1 X139.183 Y128.29 E24.59349
G1 X139.56 Y128.033 E24.62991
G1 X139.704 Y127.948 E24.64325
G1 X140.245 Y127.679 E24.69148
G1 X141.062 Y127.336 E24.76221
G1 X141.492 Y127.185 E24.79859
G1 X141.656 Y127.14 E24.81217
G1 X142.235 Y127.021 E24.85935
G1 X143.121 Y126.901 E24.93072
G1 X143.578 Y126.866 E24.96731
G1 X143.769 Y126.864 E24.98256
G1 X144.324 Y126.897 E25.02694
G1 X145.217 Y127.01 E25.09879
G1 X145.673 Y127.095 E25.13582
G1 X145.823 Y127.134 E25.14819
G1 X146.398 Y127.326 E25.19658
G1 X147.212 Y127.657 E25.26672
G1 X147.636 Y127.859 E25.30421
G1 X147.784 Y127.942 E25.31776
G1 X148.252 Y128.249 E25.36244
G1 X148.976 Y128.794 E25.43477
G1 X149.316 Y129.084 E25.47044
G1 X149.462 Y129.228 E25.48681
G1 X149.862 Y129.676 E25.53475
G1 X150.414 Y130.388 E25.60667
G1 X150.67 Y130.762 E25.64285
G1 X150.767 Y130.925 E25.65799
G1 X151.037 Y131.469 E25.70647
G1 X151.379 Y132.291 E25.77754
G1 X151.53 Y132.724 E25.81414
G1 X151.575 Y132.888 E25.82772
G1 X151.69 Y133.458 E25.87413
G1 X151.81 Y134.363 E25.94701
G1 X151.842 Y134.813 E25.98302
G1 X151.843 Y134.992 E25.99731
G1 X151.805 Y135.578 E26.04418
G1 X151.693 Y136.443 E26.11381
G1 X151.668 Y136.573 E26.12437
G1 X151.636 Y136.852 E26.14679
G1 X151.612 Y136.852 E26.14871
G1 X151.608 Y137.104 E26.16882
G1 X151.612 Y137.222 E26.17825
G1 X151.611 Y138.057 E26.2449
G1 X151.605 Y138.186 E26.25521
G1 X151.575 Y138.497 E26.28015
G1 X151.434 Y139.675 E26.37486
G1 X151.174 Y141.439 E26.51719
G1 X151.004 Y142.403 E26.59533
G1 X150.999 Y142.403 E26.59572
G1 X150.944 Y142.733 E26.62243
G1 X150.613 Y144.355 E26.75457
G1 X150.312 Y145.642 E26.86008
G1 X149.882 Y147.261 E26.9938
G1 X149.439 Y148.781 E27.12018
G1 X148.909 Y150.435 E27.25882
G1 X148.429 Y151.786 E27.37327
G1 X147.944 Y153.041 E27.48067
G1 X147.738 Y153.489 E27.52003
G1 X147.656 Y153.641 E27.53381
G1 X147.442 Y153.984 E27.56608
G1 X147.338 Y154.13 E27.58039
G1 X147.068 Y154.46 E27.61443
G1 X146.966 Y154.57 E27.6264
G1 X146.656 Y154.864 E27.66051
G1 X146.549 Y154.955 E27.67172
G1 X146.164 Y155.239 E27.70991
G1 X145.764 Y155.482 E27.74727
G1 X145.607 Y155.564 E27.76141
G1 X145.231 Y155.731 E27.79425
G1 X145.077 Y155.788 E27.80736
G1 X144.676 Y155.91 E27.84082
G1 X144.505 Y155.949 E27.85482
G1 X144.113 Y156.015 E27.88655
G1 X143.932 Y156.035 E27.90108
G1 X143.504 Y156.054 E27.93528
G1 X140.067 Y156.05 E28.20964
G1 X139.626 Y156.022 E28.24491
G1 X139.452 Y156 E28.25891
G1 X139.036 Y155.92 E28.29273
G1 X138.893 Y155.884 E28.3045
G1 X138.493 Y155.752 E28.33812
G1 X138.33 Y155.686 E28.35216
G1 X137.962 Y155.512 E28.38465
G1 X137.824 Y155.436 E28.39723
G1 X137.474 Y155.213 E28.43036
G1 X137.333 Y155.108 E28.44439
G1 X136.904 Y154.74 E28.48951
G1 X136.803 Y154.646 E28.50052
G1 X136.707 Y154.542 E28.51182
G1 X136.424 Y154.221 E28.54598
G1 X136.321 Y154.088 E28.55941
G1 X136.082 Y153.737 E28.5933
G1 X136.004 Y153.604 E28.60561
G1 X135.802 Y153.206 E28.64124
G1 X135.749 Y153.083 E28.65193
G1 X135.606 Y152.679 E28.68614
G1 X135.564 Y152.534 E28.69819
G1 X135.473 Y152.121 E28.73195
G1 X135.448 Y151.951 E28.74566
G1 X135.4 Y151.253 E28.80151
G1 X135.4 Y146.438 E29.18587
G1 X135.356 Y145.901 E29.22888
G1 X135.221 Y145.362 E29.27323
G1 X135.001 Y144.853 E29.31749
G1 X134.701 Y144.386 E29.3618
G1 X134.329 Y143.975 E29.40605
G1 X133.894 Y143.628 E29.45047
G1 X133.409 Y143.359 E29.49474
G1 X132.888 Y143.171 E29.53895
G1 X132.349 Y143.071 E29.58271
G1 X132.01 Y143.054 E29.60981
G1 X124.484 Y143.054 E30.21057
G1 X123.947 Y143.098 E30.25358
G1 X123.408 Y143.233 E30.29793
G1 X122.899 Y143.453 E30.34219
G1 X122.432 Y143.753 E30.3865
G1 X122.021 Y144.125 E30.43075
G1 X121.674 Y144.56 E30.47517
G1 X121.405 Y145.045 E30.51944
G1 X121.217 Y145.566 E30.56365
G1 X121.117 Y146.105 E30.60741
G1 X121.1 Y146.444 E30.63451
G1 X121.096 Y151.387 E31.02908
G1 X121.068 Y151.828 E31.06435
G1 X121.047 Y151.996 E31.07787
G1 X120.966 Y152.418 E31.11217
G1 X120.931 Y152.556 E31.12353
G1 X120.802 Y152.95 E31.15663
G1 X120.732 Y153.124 E31.1716
G1 X120.56 Y153.489 E31.20381
G1 X120.483 Y153.629 E31.21656
G1 X120.259 Y153.98 E31.2498
G1 X120.155 Y154.12 E31.26372
G1 X119.69 Y154.653 E31.32018
G1 X119.596 Y154.741 E31.33046
G1 X119.273 Y155.025 E31.36479
G1 X119.122 Y155.143 E31.38009
G1 X118.793 Y155.366 E31.41182
G1 X118.65 Y155.45 E31.42505
G1 X118.258 Y155.649 E31.46015
G1 X118.129 Y155.705 E31.47137
G1 X117.725 Y155.848 E31.50558
G1 X117.58 Y155.89 E31.51763
G1 X117.167 Y155.981 E31.55139
G1 X116.997 Y156.006 E31.56511
G1 X116.299 Y156.054 E31.62096
G1 X102.067 Y156.05 E32.75702
G1 X101.626 Y156.022 E32.79229
G1 X101.452 Y156 E32.80629
G1 X101.036 Y155.92 E32.8401
G1 X100.893 Y155.884 E32.85188
G1 X100.493 Y155.752 E32.8855
G1 X100.33 Y155.686 E32.89954
G1 X99.962 Y155.512 E32.93203
G1 X99.824 Y155.436 E32.94461
G1 X99.474 Y155.213 E32.97773
G1 X99.333 Y155.108 E32.99177
G1 X98.904 Y154.74 E33.03688
G1 X98.803 Y154.646 E33.0479
G1 X98.707 Y154.542 E33.0592
G1 X98.424 Y154.221 E33.09336
G1 X98.321 Y154.088 E33.10678
G1 X98.082 Y153.737 E33.14068
G1 X98.004 Y153.604 E33.15299
G1 X97.802 Y153.206 E33.18862
G1 X97.749 Y153.083 E33.19931
G1 X97.606 Y152.679 E33.23352
G1 X97.564 Y152.534 E33.24557
G1 X97.473 Y152.121 E33.27933
G1 X97.448 Y151.951 E33.29304
G1 X97.4 Y151.253 E33.34889
G1 X97.4 Y146.438 E33.73324
G1 X97.356 Y145.901 E33.77625
G1 X97.221 Y145.362 E33.82061
G1 X97.001 Y144.853 E33.86487
G1 X96.701 Y144.386 E33.90918
G1 X96.329 Y143.975 E33.95343
G1 X95.894 Y143.628 E33.99785
G1 X95.409 Y143.359 E34.04212
G1 X94.888 Y143.171 E34.08633
G1 X94.349 Y143.071 E34.13009
G1 X94.01 Y143.054 E34.15719
G1 X86.484 Y143.054 E34.75794
G1 X85.947 Y143.098 E34.80095
G1 X85.408 Y143.233 E34.84531
G1 X84.899 Y143.453 E34.88957
G1 X84.432 Y143.753 E34.93388
G1 X84.021 Y144.125 E34.97813
G1 X83.674 Y144.56 E35.02255
G1 X83.405 Y145.045 E35.06682
G1 X83.217 Y145.566 E35.11103
G1 X83.117 Y146.105 E35.15479
G1 X83.1 Y146.444 E35.18188
G1 X83.096 Y151.387 E35.57646
G1 X83.068 Y151.828 E35.61173
G1 X83.047 Y151.996 E35.62524
G1 X82.966 Y152.418 E35.65955
G1 X82.931 Y152.556 E35.67091
G1 X82.802 Y152.95 E35.704
G1 X82.732 Y153.124 E35.71897
G1 X82.56 Y153.489 E35.75118
G1 X82.483 Y153.629 E35.76394
G1 X82.259 Y153.98 E35.79718
G1 X82.155 Y154.12 E35.8111
G1 X81.69 Y154.653 E35.86756
G1 X81.596 Y154.741 E35.87784
G1 X81.273 Y155.025 E35.91217
G1 X81.122 Y155.143 E35.92747
G1 X80.793 Y155.366 E35.95919
G1 X80.65 Y155.45 E35.97243
G1 X80.258 Y155.649 E36.00752
G1 X80.129 Y155.705 E36.01875
G1 X79.725 Y155.848 E36.05296
G1 X79.58 Y155.89 E36.06501
G1 X79.167 Y155.981 E36.09877
G1 X78.997 Y156.006 E36.11248
G1 X78.299 Y156.054 E36.16833
G1 X75.654 Y156.05 E36.37947
G1 X75.213 Y156.022 E36.41474
G1 X75.039 Y156 E36.42874
G1 X74.623 Y155.92 E36.46256
G1 X74.48 Y155.884 E36.47433
G1 X74.08 Y155.752 E36.50795
G1 X73.931 Y155.692 E36.52077
G1 X73.539 Y155.507 E36.55538
G1 X73.397 Y155.428 E36.56835
G1 X72.956 Y155.145 E36.61017
G1 X72.914 Y155.112 E36.61444
G1 X72.531 Y154.8 E36.65387
G1 X72.423 Y154.699 E36.66567
G1 X72.129 Y154.391 E36.69966
G1 X72.033 Y154.277 E36.71156
G1 X71.78 Y153.932 E36.74571
