;FLAVOR:Marlin
;TIME:710
;Filament used: 0.263178m
;Layer height: 0.2
;MINX:101.467
;MINY:98.173
;MINZ:0.24
;MAXX:118.55
;MAXY:123.657
;MAXZ:13.09
;Generated with Cura_SteamEngine 4.6.1
M140 S50
M105
M190 S50
M104 S205
M105
M109 S205
M82 ;absolute extrusion mode
M201 X500.00 Y500.00 Z100.00 E5000.00 ;Setup machine max acceleration
M203 X500.00 Y500.00 Z10.00 E50.00 ;Setup machine max feedrate
M204 P500.00 R1000.00 T500.00 ;Setup Print/Retract/Travel acceleration
M205 X8.00 Y8.00 Z0.40 E5.00 ;Setup Jerk
M220 S100 ;Reset Feedrate
M221 S100 ;Reset Flowrate

G28 ;Home

G92 E0 ;Reset Extruder
G1 Z2.0 F3000 ;Move Z Axis up
G1 X10.1 Y20 Z0.28 F5000.0 ;Move to start position
G1 X10.1 Y200.0 Z0.28 F1500.0 E15 ;Draw the first line
G1 X10.4 Y200.0 Z0.28 F5000.0 ;Move to side a little
G1 X10.4 Y20 Z0.28 F1500.0 E30 ;Draw the second line
G92 E0 ;Reset Extruder
G1 Z2.0 F3000 ;Move Z Axis up

G92 E0
G92 E0
G1 F2700 E-5
;LAYER_COUNT:60
;LAYER:-6
M106 S255
G0 F12000 X103.936 Y102.619 Z0.24
;TYPE:SUPPORT-INTERFACE
G1 F2700 E0
G1 F1549.1 X104.03 Y102.531 E0.01028
G1 X104.353 Y102.247 E0.04461
G1 X104.507 Y102.127 E0.0602
G1 X104.833 Y101.906 E0.09163
G1 X104.976 Y101.822 E0.10487
G1 X105.368 Y101.623 E0.13996
G1 X105.497 Y101.567 E0.15119
G1 X105.908 Y101.421 E0.18601
G1 X106.052 Y101.379 E0.19798
G1 X106.546 Y101.271 E0.23835
G1 X107.061 Y101.114 E0.28132
G1 X107.561 Y100.866 E0.32587
G1 X108.036 Y100.518 E0.37288
G1 X108.337 Y100.253 E0.40489
G1 X108.463 Y100.154 E0.41768
G1 X108.8 Y99.926 E0.45016
G1 X108.943 Y99.842 E0.4634
G1 X109.335 Y99.643 E0.49849
G1 X109.464 Y99.587 E0.50972
G1 X109.868 Y99.444 E0.54393
G1 X110.013 Y99.402 E0.55598
G1 X110.423 Y99.312 E0.58948
G1 X110.599 Y99.286 E0.60369
G1 X111.157 Y99.243 E0.64836
G1 X111.289 Y99.238 E0.6589
G1 X112.815 Y99.241 E0.78072
G1 X113.259 Y99.269 E0.81623
G1 X113.433 Y99.291 E0.83023
G1 X113.83 Y99.366 E0.86248
G1 X114 Y99.411 E0.87652
G1 X114.397 Y99.541 E0.90986
G1 X114.533 Y99.594 E0.92151
G1 X114.938 Y99.786 E0.95729
G1 X115.06 Y99.853 E0.9684
G1 X115.408 Y100.076 E1.0014
G1 X115.548 Y100.18 E1.01532
G1 X116.092 Y100.654 E1.07291
G1 X116.18 Y100.748 E1.08319
G1 X116.464 Y101.071 E1.11752
G1 X116.584 Y101.225 E1.13311
G1 X116.805 Y101.551 E1.16455
G1 X116.889 Y101.694 E1.17779
G1 X117.091 Y102.092 E1.21341
G1 X117.144 Y102.215 E1.2241
G1 X117.287 Y102.619 E1.25831
G1 X117.329 Y102.764 E1.27036
G1 X117.42 Y103.176 E1.30404
G1 X117.445 Y103.347 E1.31784
G1 X117.493 Y104.045 E1.37369
G1 X117.491 Y106.356 E1.55816
G1 X117.471 Y106.673 E1.58352
G1 X117.474 Y107.118 E1.61904
G1 X117.493 Y107.413 E1.64264
G1 X117.489 Y117.926 E2.48183
G1 X117.461 Y118.367 E2.5171
G1 X117.44 Y118.535 E2.53062
G1 X117.359 Y118.957 E2.56492
G1 X117.324 Y119.095 E2.57628
G1 X117.191 Y119.5 E2.61031
G1 X117.125 Y119.663 E2.62435
G1 X116.951 Y120.031 E2.65684
G1 X116.876 Y120.168 E2.66931
G1 X116.652 Y120.519 E2.70255
G1 X116.547 Y120.66 E2.71658
G1 X116.083 Y121.192 E2.77293
G1 X115.989 Y121.28 E2.78321
G1 X115.666 Y121.564 E2.81754
G1 X115.513 Y121.683 E2.83301
G1 X115.186 Y121.905 E2.86456
G1 X115.043 Y121.989 E2.8778
G1 X114.651 Y122.188 E2.91289
G1 X114.522 Y122.244 E2.92412
G1 X114.118 Y122.387 E2.95833
G1 X113.973 Y122.429 E2.97038
G1 X113.56 Y122.52 E3.00414
G1 X113.39 Y122.545 E3.01785
G1 X112.692 Y122.593 E3.0737
G1 X111.76 Y122.589 E3.1481
G1 X111.319 Y122.561 E3.18337
G1 X111.145 Y122.539 E3.19737
G1 X110.729 Y122.459 E3.23119
G1 X110.586 Y122.423 E3.24296
G1 X110.186 Y122.291 E3.27658
G1 X110.023 Y122.225 E3.29062
G1 X109.655 Y122.051 E3.32311
G1 X109.518 Y121.976 E3.33558
G1 X109.167 Y121.752 E3.36882
G1 X109.026 Y121.647 E3.38285
G1 X108.597 Y121.279 E3.42797
G1 X108.496 Y121.185 E3.43898
G1 X108.4 Y121.081 E3.45028
G1 X108.117 Y120.76 E3.48444
G1 X108.014 Y120.627 E3.49787
G1 X107.775 Y120.276 E3.53177
G1 X107.697 Y120.143 E3.54407
G1 X107.495 Y119.745 E3.5797
G1 X107.442 Y119.622 E3.59039
G1 X107.299 Y119.218 E3.6246
G1 X107.257 Y119.073 E3.63665
G1 X107.166 Y118.66 E3.67041
G1 X107.141 Y118.49 E3.68413
G1 X107.093 Y117.792 E3.73998
G1 X107.093 Y117.402 E3.77111
G1 X107.048 Y116.857 E3.81476
G1 X106.973 Y116.601 E3.83605
G1 X107.005 Y116.588 E3.83881
G1 X106.772 Y115.939 E3.89385
G1 X106.55 Y115.448 E3.93687
G1 X106.241 Y114.986 E3.98123
G1 X105.862 Y114.582 E4.02545
G1 X105.425 Y114.246 E4.06946
G1 X105.364 Y114.211 E4.07507
G1 X105.364 Y114.208 E4.07531
G1 X104.926 Y113.966 E4.11525
G1 X104.581 Y113.746 E4.14792
G1 X104.44 Y113.641 E4.16195
G1 X104.011 Y113.273 E4.20707
G1 X103.91 Y113.179 E4.21808
G1 X103.813 Y113.075 E4.22943
G1 X103.531 Y112.754 E4.26354
G1 X103.428 Y112.621 E4.27697
G1 X103.189 Y112.27 E4.31086
G1 X103.111 Y112.137 E4.32317
G1 X102.909 Y111.739 E4.3588
G1 X102.856 Y111.616 E4.36949
G1 X102.713 Y111.212 E4.4037
G1 X102.671 Y111.067 E4.41575
G1 X102.58 Y110.654 E4.44951
G1 X102.555 Y110.484 E4.46323
G1 X102.507 Y109.786 E4.51907
G1 X102.511 Y105.904 E4.82895
G1 X102.539 Y105.463 E4.86423
G1 X102.561 Y105.289 E4.87823
G1 X102.641 Y104.873 E4.91204
G1 X102.676 Y104.735 E4.92341
G1 X102.809 Y104.33 E4.95743
G1 X102.877 Y104.161 E4.97197
G1 X103.049 Y103.799 E5.00397
G1 X103.124 Y103.662 E5.01643
G1 X103.348 Y103.311 E5.04967
G1 X103.453 Y103.17 E5.06371
G1 X103.821 Y102.741 E5.10882
G1 X103.936 Y102.619 E5.12221
G0 F12000 X104 Y102.559
G1 F1549.1 X104 Y113.262 E5.97657
G0 F12000 X105.6 Y114.38
G1 F1549.1 X105.6 Y101.53 E7.00231
G0 F12000 X107.2 Y101.045
G1 F1549.1 X107.2 Y118.814 E8.42071
G0 F12000 X108.8 Y121.453
G1 F1549.1 X108.8 Y99.926 E10.13909
G0 F12000 X110.4 Y99.317
G1 F1549.1 X110.4 Y122.361 E11.97856
G0 F12000 X112 Y122.59
G1 F1549.1 X112 Y99.24 E13.84245
G0 F12000 X113.6 Y99.323
G1 F1549.1 X113.6 Y122.512 E15.6935
G0 F12000 X115.2 Y121.896
G1 F1549.1 X115.2 Y99.943 E17.44588
G0 F12000 X116.8 Y101.544
G1 F1549.1 X116.8 Y120.288 E18.94211
G1 F2700 E13.94211
G0 F300 X116.8 Y120.288 Z0.54
G0 F12000 X117.529 Y121.121
G0 X116.698 Y122.073
G0 X115.744 Y122.812
G0 X114.91 Y123.236
G0 X113.754 Y123.568
G0 X112.722 Y123.657
G0 X110.974 Y123.591
G0 X109.825 Y123.292
G0 X108.974 Y122.891
G0 X108.358 Y122.476
G0 X107.613 Y121.798
G0 X106.875 Y120.844
G0 X106.45 Y120.01
G0 X106.118 Y118.854
G0 X107.141 Y118.489
;TIME_ELAPSED:15.592335
;LAYER:-5
M140 S50
M107
;TYPE:SUPPORT
G1 F2700 E18.94211
G1 F1800 X107.166 Y118.659 E18.95926
G1 X107.256 Y119.072 E19.00143
G1 X107.298 Y119.217 E19.0165
G1 X107.442 Y119.621 E19.05929
G1 X107.494 Y119.744 E19.07262
G1 X107.697 Y120.142 E19.1172
G1 X107.775 Y120.275 E19.13258
G1 X108.014 Y120.626 E19.17495
G1 X108.117 Y120.758 E19.19166
G1 X108.4 Y121.08 E19.23443
G1 X108.495 Y121.183 E19.24841
G1 X108.596 Y121.278 E19.26225
G1 X109.025 Y121.646 E19.31865
G1 X109.167 Y121.751 E19.33627
G1 X109.517 Y121.975 E19.37773
G1 X109.654 Y122.05 E19.39332
G1 X110.022 Y122.224 E19.43393
G1 X110.186 Y122.29 E19.45157
G1 X110.585 Y122.422 E19.49351
G1 X110.728 Y122.458 E19.50822
G1 X111.145 Y122.538 E19.55059
G1 X111.235 Y122.549 E19.55963
G1 X107.138 Y118.452 E20.13777
G1 X107.092 Y117.791 E20.20388
G1 X107.092 Y117.4 E20.24289
G1 X107.055 Y116.954 E20.28755
G1 X112.692 Y122.591 E21.08299
G1 X113.39 Y122.544 E21.15279
G1 X113.559 Y122.518 E21.16986
G1 X113.948 Y122.433 E21.20959
G1 X102.707 Y111.192 E22.79581
G1 X102.671 Y111.065 E22.80898
G1 X102.579 Y110.653 E22.85111
G1 X102.555 Y110.483 E22.86824
G1 X102.506 Y109.785 E22.93806
G1 X102.506 Y109.577 E22.95881
G1 X114.959 Y122.03 E24.71606
G1 X115.042 Y121.987 E24.72539
G1 X115.185 Y121.904 E24.74189
G1 X115.512 Y121.681 E24.78138
G1 X115.665 Y121.562 E24.80072
G1 X115.793 Y121.45 E24.81769
G1 X102.507 Y108.164 E26.69249
G1 X102.509 Y106.751 E26.83348
G1 X116.486 Y120.729 E28.80586
G1 X116.546 Y120.659 E28.81506
G1 X116.652 Y120.518 E28.83266
G1 X116.876 Y120.167 E28.8742
G1 X116.951 Y120.029 E28.88988
G1 X117.031 Y119.86 E28.90853
G1 X102.549 Y105.378 E30.9521
G1 X102.561 Y105.288 E30.96116
G1 X102.64 Y104.872 E31.00341
G1 X102.676 Y104.733 E31.01774
G1 X102.809 Y104.329 E31.06018
G1 X102.838 Y104.252 E31.06839
G1 X117.388 Y118.803 E33.12162
G1 X117.439 Y118.534 E33.14894
G1 X117.461 Y118.366 E33.16584
G1 X117.488 Y117.925 E33.20993
G1 X117.489 Y117.489 E33.25343
G1 X103.332 Y103.332 E35.25114
G1 X103.347 Y103.31 E35.2538
G1 X103.452 Y103.169 E35.27134
G1 X103.82 Y102.741 E35.32766
G1 X103.935 Y102.618 E35.34446
G1 X103.986 Y102.572 E35.35131
G1 X117.489 Y116.075 E37.25673
G1 X117.49 Y114.661 E37.39782
G1 X104.774 Y101.945 E39.19219
G1 X104.832 Y101.906 E39.19916
G1 X104.975 Y101.821 E39.21576
G1 X105.367 Y101.622 E39.25963
G1 X105.496 Y101.567 E39.27362
G1 X105.728 Y101.485 E39.29817
G1 X117.49 Y113.248 E40.95799
G1 X117.49 Y111.833 E41.09918
G1 X106.838 Y101.182 E42.60222
G1 X107.06 Y101.113 E42.62541
G1 X107.56 Y100.865 E42.6811
G1 X107.777 Y100.706 E42.70795
G1 X117.491 Y110.42 E44.0787
G1 X117.492 Y109.006 E44.21979
G1 X108.568 Y100.083 E45.47899
G1 X108.798 Y99.926 E45.50678
G1 X108.942 Y99.842 E45.52341
G1 X109.334 Y99.642 E45.56732
G1 X109.463 Y99.586 E45.58135
G1 X109.48 Y99.581 E45.58312
G1 X117.492 Y107.592 E46.71363
G1 X117.492 Y107.413 E46.73149
G1 X117.473 Y107.118 E46.76099
G1 X117.47 Y106.672 E46.80549
G1 X117.49 Y106.355 E46.83718
G1 X117.49 Y106.177 E46.85494
G1 X110.599 Y99.286 E47.82734
G1 X111.156 Y99.243 E47.88308
G1 X111.288 Y99.238 E47.89626
G1 X111.967 Y99.239 E47.96401
G1 X117.492 Y104.764 E48.74365
G1 X117.492 Y104.045 E48.81539
G1 X117.444 Y103.347 E48.8852
G1 X117.437 Y103.294 E48.89054
G1 X113.434 Y99.291 E49.4554
G1 X113.829 Y99.366 E49.49552
G1 X113.999 Y99.411 E49.51307
G1 X114.396 Y99.541 E49.55475
G1 X114.532 Y99.593 E49.56928
G1 X114.937 Y99.785 E49.614
G1 X115.059 Y99.853 E49.62794
G1 X115.407 Y100.076 E49.66918
G1 X115.546 Y100.18 E49.6865
G1 X116.091 Y100.653 E49.75851
G1 X116.179 Y100.747 E49.77135
G1 X116.463 Y101.071 E49.81434
G1 X116.583 Y101.225 E49.83383
G1 X116.804 Y101.551 E49.87312
G1 X116.888 Y101.693 E49.88959
G1 X117.089 Y102.092 E49.93416
G1 X117.143 Y102.215 E49.94757
G1 X117.286 Y102.619 E49.99033
G1 X117.328 Y102.763 E50.0053
G1 X117.419 Y103.175 E50.0474
G1 F2700 E45.0474
G0 F300 X117.419 Y103.175 Z0.74
G0 F12000 X118.361 Y102.502
G0 X118.05 Y101.628
G0 X117.438 Y100.588
G0 X116.703 Y99.767
G0 X115.604 Y98.938
G0 X115.365 Y98.825
G0 X114.302 Y98.389
G0 X113.882 Y99.173
;TIME_ELAPSED:27.966327
;LAYER:-4
;TYPE:SUPPORT-INTERFACE
G1 F2700 E50.0474
G1 F2400 X113.453 Y99.092 E50.06192
G1 X113.292 Y99.071 E50.06732
G1 X112.815 Y99.041 E50.08322
G1 X111.142 Y99.043 E50.13886
G1 X110.582 Y99.086 E50.15754
G1 X110.381 Y99.116 E50.1643
G1 X110.001 Y99.2 E50.17724
G1 X113.987 Y99.2 E50.30982
G1 X114.052 Y99.217 E50.31205
G1 X114.465 Y99.352 E50.3265
G1 X114.611 Y99.41 E50.33173
G1 X115.013 Y99.6 E50.34652
G1 X108.977 Y99.6 E50.54728
G1 X108.846 Y99.666 E50.55216
G1 X108.709 Y99.747 E50.55745
G1 X108.346 Y99.993 E50.57203
G1 X108.338 Y100 E50.57239
G1 X115.641 Y100 E50.81529
G1 X115.673 Y100.024 E50.81662
G1 X116.114 Y100.4 E50.83589
G1 X107.859 Y100.4 E51.11045
G1 X107.456 Y100.695 E51.12707
G1 X107.244 Y100.8 E51.13493
G1 X116.492 Y100.8 E51.44252
G1 X116.622 Y100.948 E51.44908
G1 X116.738 Y101.097 E51.45536
G1 X116.808 Y101.2 E51.4595
G1 X105.954 Y101.2 E51.8205
G1 X105.839 Y101.233 E51.82448
G1 X105.427 Y101.379 E51.83902
G1 X105.273 Y101.446 E51.84461
G1 X104.97 Y101.6 E51.85591
G1 X117.067 Y101.6 E52.25826
G1 X117.265 Y101.991 E52.27284
G1 X117.269 Y102 E52.27316
G1 X104.345 Y102 E52.70302
G1 X104.23 Y102.089 E52.70785
G1 X103.902 Y102.378 E52.72239
G1 X103.879 Y102.4 E52.72345
G1 X117.423 Y102.4 E53.17393
G1 X117.478 Y102.556 E53.17943
G1 X117.522 Y102.708 E53.18469
G1 X117.543 Y102.8 E53.18783
G1 X103.51 Y102.8 E53.65457
G1 X103.305 Y103.035 E53.66494
G1 X103.187 Y103.194 E53.67153
G1 X103.184 Y103.2 E53.67175
G1 X117.626 Y103.2 E54.15209
G1 X117.645 Y103.331 E54.1565
G1 X117.664 Y103.6 E54.16547
G1 X102.931 Y103.6 E54.65549
G1 X102.876 Y103.699 E54.65926
G1 X102.734 Y104 E54.67032
G1 X117.692 Y104 E55.16783
G1 X117.693 Y104.028 E55.16876
G1 X117.692 Y104.4 E55.18113
G1 X102.576 Y104.4 E55.68389
G1 X102.49 Y104.66 E55.693
G1 X102.455 Y104.8 E55.6978
G1 X117.692 Y104.8 E56.20459
G1 X117.691 Y105.2 E56.21789
G1 X102.374 Y105.2 E56.72734
G1 X102.362 Y105.26 E56.72937
G1 X102.341 Y105.436 E56.73527
G1 X102.331 Y105.6 E56.74073
G1 X117.691 Y105.6 E57.25161
G1 X117.691 Y106 E57.26491
G1 X102.311 Y106 E57.77645
G1 X102.311 Y106.4 E57.78976
G1 X117.688 Y106.4 E58.3012
G1 X117.671 Y106.678 E58.31046
G1 X117.672 Y106.8 E58.31452
G1 X102.311 Y106.8 E58.82543
G1 X102.31 Y107.2 E58.83873
G1 X117.68 Y107.2 E59.34994
G1 X117.693 Y107.413 E59.35704
G1 X117.692 Y107.6 E59.36326
G1 X102.31 Y107.6 E59.87487
G1 X102.309 Y108 E59.88817
G1 X117.692 Y108 E60.39981
G1 X117.692 Y108.4 E60.41311
G1 X102.309 Y108.4 E60.92475
G1 X102.309 Y108.8 E60.93806
G1 X117.692 Y108.8 E61.4497
G1 X117.692 Y109.2 E61.463
G1 X102.308 Y109.2 E61.97468
G1 X102.308 Y109.6 E61.98798
G1 X117.692 Y109.6 E62.49966
G1 X117.692 Y110 E62.51296
G1 X102.32 Y110 E63.02423
G1 X102.348 Y110.4 E63.03757
G1 X117.691 Y110.4 E63.54788
G1 X117.691 Y110.8 E63.56119
G1 X102.406 Y110.8 E64.06957
G1 X102.475 Y111.111 E64.08016
G1 X102.5 Y111.2 E64.08324
G1 X117.691 Y111.2 E64.58849
G1 X117.691 Y111.6 E64.6018
G1 X102.637 Y111.6 E65.10249
G1 X102.666 Y111.681 E65.10535
G1 X102.735 Y111.839 E65.11109
G1 X102.816 Y112 E65.11708
G1 X117.691 Y112 E65.61183
G1 X117.691 Y112.4 E65.62513
G1 X103.034 Y112.4 E66.11263
G1 X103.258 Y112.729 E66.12586
G1 X103.312 Y112.8 E66.12883
G1 X117.69 Y112.8 E66.60705
G1 X117.69 Y113.2 E66.62035
G1 X103.657 Y113.2 E67.08709
G1 X103.667 Y113.211 E67.08758
G1 X103.773 Y113.326 E67.09279
G1 X104.087 Y113.6 E67.10665
G1 X117.69 Y113.6 E67.55908
G1 X117.69 Y114 E67.57239
G1 X104.609 Y114 E68.00746
G1 X104.835 Y114.144 E68.01638
G1 X105.291 Y114.4 E68.03377
G1 X117.69 Y114.4 E68.44616
G1 X117.69 Y114.8 E68.45947
G1 X105.792 Y114.8 E68.8552
G1 X106.084 Y115.111 E68.86938
G1 X106.143 Y115.2 E68.87294
G1 X117.69 Y115.2 E69.25699
G1 X117.689 Y115.6 E69.27029
G1 X106.398 Y115.6 E69.64583
G1 X106.58 Y116 E69.66045
G1 X117.689 Y116 E70.02994
G1 X117.689 Y116.4 E70.04324
G1 X106.724 Y116.4 E70.40794
G1 X106.751 Y116.474 E70.41056
G1 X106.731 Y116.482 E70.41128
G1 X106.823 Y116.8 E70.42229
G1 X117.689 Y116.8 E70.78369
G1 X117.689 Y117.2 E70.79699
G1 X106.875 Y117.2 E71.15667
G1 X106.893 Y117.41 E71.16368
G1 X106.893 Y117.6 E71.17
G1 X117.689 Y117.6 E71.52908
G1 X117.689 Y117.926 E71.53992
G1 X117.684 Y118 E71.54239
G1 X106.906 Y118 E71.90086
G1 X106.933 Y118.4 E71.9142
G1 X117.658 Y118.4 E72.27091
G1 X117.638 Y118.57 E72.27661
G1 X117.593 Y118.8 E72.2844
G1 X106.991 Y118.8 E72.63702
G1 X107.06 Y119.117 E72.64781
G1 X107.083 Y119.2 E72.65068
G1 X117.499 Y119.2 E72.99712
G1 X117.381 Y119.559 E73.00969
G1 X117.364 Y119.6 E73.01116
G1 X107.22 Y119.6 E73.34855
G1 X107.251 Y119.687 E73.35162
G1 X107.32 Y119.845 E73.35736
G1 X107.398 Y120 E73.36313
G1 X117.184 Y120 E73.68861
G1 X117.123 Y120.13 E73.69339
G1 X117.049 Y120.265 E73.69851
G1 X116.962 Y120.4 E73.70385
G1 X107.615 Y120.4 E74.01474
G1 X107.843 Y120.735 E74.02821
G1 X107.893 Y120.8 E74.03094
G1 X116.689 Y120.8 E74.3235
G1 X116.346 Y121.2 E74.34102
G1 X108.237 Y121.2 E74.61073
G1 X108.252 Y121.217 E74.61148
G1 X108.358 Y121.332 E74.61668
G1 X108.665 Y121.6 E74.63024
G1 X115.926 Y121.6 E74.87174
G1 X115.788 Y121.722 E74.87787
G1 X115.639 Y121.838 E74.88415
G1 X115.399 Y122 E74.89378
G1 X109.185 Y122 E75.10046
G1 X109.421 Y122.15 E75.10976
G1 X109.554 Y122.224 E75.11482
G1 X109.925 Y122.4 E75.12848
G1 X114.664 Y122.4 E75.2861
G1 X114.591 Y122.432 E75.28875
G1 X114.176 Y122.579 E75.30339
G1 X114.021 Y122.623 E75.30875
G1 X113.604 Y122.716 E75.32296
G1 X113.405 Y122.745 E75.32965
G1 X112.838 Y122.788 E75.34856
G1 X112.699 Y122.793 E75.35319
G1 X111.759 Y122.789 E75.38445
G1 X111.291 Y122.759 E75.40005
G1 X111.109 Y122.737 E75.40615
G1 X110.702 Y122.658 E75.41994
G1 X110.515 Y122.61 E75.42636
G1 X110.126 Y122.482 E75.43998
G1 X109.942 Y122.408 E75.44658
G1 F2700 E70.44658
G0 F300 X109.942 Y122.408 Z0.94
G0 F12000 X109.572 Y123.19
